P2
630 386
255
207
207
207
207
207
207
206
206
205
205
206
206
206
205
204
202
202
202
202
202
203
203
203
203
201
201
200
200
200
200
201
201
204
204
205
206
208
208
208
208
209
209
211
211
211
211
212
212
212
212
212
212
213
213
214
214
213
213
214
214
213
213
214
214
214
214
212
212
212
211
209
207
207
206
206
205
205
202
199
196
195
195
194
193
193
192
190
189
187
187
186
186
185
182
181
180
180
179
178
176
176
174
173
171
170
168
167
166
165
163
160
159
157
156
153
152
150
148
147
145
144
142
142
142
141
140
139
138
137
136
135
134
134
132
134
133
134
134
134
134
137
137
138
138
139
139
140
140
142
142
143
144
145
146
145
146
147
148
148
148
150
150
150
150
151
151
152
153
153
153
152
150
152
150
152
152
152
152
152
152
152
152
152
152
152
152
151
151
151
151
151
151
151
150
149
148
148
148
148
148
146
146
146
146
146
145
145
144
144
143
143
142
142
142
141
142
143
145
145
146
148
151
152
154
157
158
160
163
165
166
167
168
170
170
170
170
171
171
172
172
174
176
178
179
180
180
180
180
180
180
180
180
180
180
180
180
180
180
180
180
180
180
180
180
180
180
183
183
184
184
185
185
187
187
187
187
190
190
191
191
192
192
193
193
194
194
194
194
194
194
195
195
196
196
196
196
195
195
194
194
193
193
194
194
194
194
194
194
195
195
196
196
197
197
196
196
198
198
197
197
199
199
199
199
200
200
202
202
203
203
203
203
203
205
205
205
205
203
204
202
202
202
202
202
204
204
205
205
206
206
206
206
206
206
206
206
206
206
207
207
208
208
208
208
209
209
209
209
209
209
208
208
208
206
207
204
203
201
201
201
200
199
198
197
194
193
193
193
193
193
193
192
192
190
191
191
190
189
188
187
187
187
187
187
187
187
187
187
187
187
187
187
187
186
186
184
185
185
184
184
184
184
184
184
185
185
186
186
187
189
189
189
189
189
189
191
192
193
195
198
199
200
202
203
205
207
209
210
212
212
214
215
217
217
217
217
217
217
218
218
217
217
216
216
216
216
215
215
215
214
214
212
211
211
211
211
211
210
210
210
211
211
211
211
214
214
214
214
214
214
213
213
213
213
213
212
212
212
213
214
214
213
212
211
211
211
210
208
205
203
201
198
195
193
190
189
185
183
181
178
175
175
171
168
163
161
161
161
161
160
161
161
162
161
161
161
161
161
161
162
162
162
163
163
165
168
170
171
174
176
177
179
180
182
182
184
185
186
187
188
191
191
192
193
194
194
194
194
195
195
195
195
196
196
195
195
196
198
200
204
207
210
211
212
213
214
214
215
217
219
220
220
223
223
224
225
226
226
227
227
227
227
227
227
227
226
226
225
225
225
225
225
225
224
222
222
221
221
220
220
220
220
220
220
220
219
219
219
219
219
207
207
207
207
208
207
207
206
207
207
207
207
207
206
205
203
203
203
204
203
203
203
203
203
201
201
201
201
201
201
202
202
205
205
206
206
208
208
209
209
211
211
211
211
211
211
212
212
214
214
214
214
215
215
216
216
216
216
216
216
214
214
216
216
216
214
214
213
213
212
212
211
211
210
209
208
208
207
205
200
198
197
197
197
197
197
195
193
191
190
188
188
187
186
185
183
182
182
181
181
181
180
179
176
175
174
173
172
170
167
166
165
164
162
160
159
157
155
154
150
150
148
147
146
146
144
143
141
142
141
141
139
139
139
139
137
137
137
138
138
138
138
138
138
139
139
140
140
140
140
141
141
142
142
145
145
147
147
147
147
148
148
150
150
151
151
152
151
152
151
150
149
150
149
150
150
152
152
152
152
152
152
152
152
152
152
152
152
152
152
152
152
152
151
150
149
149
149
149
149
149
149
147
147
146
145
145
144
144
143
143
142
143
143
143
144
144
145
146
147
148
151
153
154
158
159
161
162
165
166
167
169
171
172
170
171
173
173
173
173
175
176
178
179
180
180
180
180
180
180
180
180
180
180
180
180
180
180
180
180
180
180
180
181
181
182
183
184
185
185
186
186
188
188
188
188
191
191
192
192
194
194
194
194
194
194
194
194
194
194
195
196
196
196
196
196
196
196
194
194
194
194
195
195
195
195
195
195
197
197
196
196
197
197
198
198
199
199
198
198
199
200
200
200
201
201
202
203
205
206
205
205
205
206
206
206
206
205
205
203
203
203
203
203
205
205
206
206
207
207
208
208
208
208
208
208
208
208
208
208
208
208
209
209
209
209
209
209
209
209
209
209
209
208
206
205
205
205
203
203
203
201
200
199
197
197
197
197
197
197
196
196
194
194
192
192
191
190
190
189
189
188
188
188
188
188
188
188
188
188
188
188
188
187
187
187
187
186
185
185
185
185
185
186
186
187
186
187
189
189
189
189
191
191
191
191
193
195
196
199
201
202
203
204
207
208
209
210
213
213
214
214
217
217
218
218
219
219
219
219
218
218
217
217
217
217
216
216
216
215
214
213
213
213
212
212
212
211
211
211
211
211
212
212
212
212
212
212
213
213
213
213
213
212
212
211
211
211
212
211
211
210
209
208
208
208
207
204
204
202
200
195
191
189
186
184
181
178
177
175
170
167
166
162
161
159
159
159
159
159
159
159
159
159
161
162
163
164
164
164
165
166
167
168
171
173
174
177
181
182
182
185
186
187
188
189
191
192
193
195
196
196
197
197
198
198
199
199
200
200
199
199
199
199
198
198
198
199
200
205
209
211
210
212
213
214
214
215
217
219
221
221
223
223
224
225
226
226
227
227
227
227
226
226
226
226
226
226
226
225
225
224
224
224
224
223
223
223
221
221
220
220
220
220
220
220
221
219
219
219
207
207
207
207
208
207
207
206
207
207
207
207
208
207
206
205
205
203
204
203
203
203
203
203
201
201
201
201
201
201
202
202
205
205
206
206
208
208
209
209
211
211
211
211
211
211
212
212
214
214
215
215
216
216
217
217
217
217
216
216
216
216
217
217
217
216
215
214
214
213
213
212
211
211
210
211
209
209
208
204
199
197
197
198
198
198
198
197
195
193
190
190
190
188
187
186
186
186
185
185
185
184
183
180
179
178
176
175
174
172
171
170
168
167
165
164
161
159
158
155
154
152
152
151
151
148
147
146
146
145
145
144
144
143
143
142
142
142
142
141
141
141
142
141
142
140
140
139
139
139
140
140
141
141
141
141
143
143
143
143
145
145
146
146
148
148
149
150
150
150
148
148
148
148
149
149
150
150
152
152
152
152
152
152
152
152
152
152
152
152
152
152
152
151
150
149
149
149
149
149
149
149
147
147
146
145
145
144
144
143
143
142
143
143
143
144
144
145
146
147
148
151
153
154
158
160
161
162
165
166
167
169
171
172
170
171
173
174
174
174
176
176
178
179
180
180
180
180
180
180
180
180
180
180
180
180
180
180
180
180
180
180
180
181
181
182
183
184
185
186
186
186
188
188
190
190
192
192
192
192
194
194
194
194
194
194
194
194
194
194
196
196
196
196
196
196
196
196
194
194
195
195
195
195
197
197
197
197
197
197
197
197
197
197
198
198
199
199
198
198
200
200
200
200
201
201
203
204
205
207
205
206
206
207
207
207
207
206
206
205
205
205
205
205
206
206
206
206
207
207
208
208
208
208
208
208
208
208
208
208
208
208
209
209
209
209
209
209
209
209
209
209
209
208
206
205
205
205
205
204
204
204
205
203
201
199
199
199
199
199
199
199
198
198
196
196
194
193
192
191
191
191
190
190
191
191
190
190
191
191
191
191
191
191
191
191
191
190
189
187
188
188
187
189
189
190
189
190
191
191
192
193
194
194
194
193
197
198
199
200
202
204
203
204
207
208
209
210
213
213
214
214
217
217
218
219
221
221
219
219
219
219
218
218
218
218
217
217
217
216
215
214
214
214
213
213
213
212
212
211
211
211
212
212
212
212
212
212
212
212
212
212
212
211
211
210
210
208
208
207
207
206
205
204
204
204
203
201
201
200
198
193
189
185
182
180
176
173
173
171
166
162
161
159
157
156
156
156
156
156
156
156
158
158
159
162
164
165
168
169
171
172
173
174
178
179
180
181
185
186
188
190
191
193
194
194
195
197
198
199
200
200
202
202
203
203
204
204
205
205
204
204
204
204
203
203
203
203
203
206
210
211
211
212
214
215
215
215
217
219
221
221
223
223
224
225
226
226
227
227
227
227
226
226
226
226
226
226
226
225
225
224
224
224
224
223
223
223
222
221
220
220
220
220
220
220
221
219
219
219
210
210
210
210
210
210
208
208
208
208
210
210
211
210
209
208
208
207
206
205
205
205
205
204
204
203
203
203
204
203
204
204
206
206
206
207
209
209
209
209
211
211
212
212
212
212
213
213
215
215
216
216
217
218
218
218
218
218
218
218
218
218
219
219
219
219
218
218
218
217
216
214
214
213
214
212
212
210
210
209
203
200
199
200
200
200
199
198
198
195
196
194
194
192
191
190
190
190
188
188
188
187
186
183
182
181
180
179
178
176
174
173
172
171
168
167
165
163
162
158
157
156
156
155
155
152
151
150
150
149
149
148
148
147
147
146
146
146
146
145
145
146
145
145
144
143
141
140
139
139
139
139
140
140
139
139
140
140
140
140
142
142
143
143
144
144
145
146
148
148
148
148
148
148
148
148
149
149
150
150
152
152
152
152
152
152
152
152
152
152
152
152
152
151
150
149
149
149
149
149
149
149
147
147
147
147
147
146
146
145
145
144
144
144
144
145
145
146
146
148
150
152
154
156
159
161
162
164
166
167
168
169
172
172
173
173
176
176
176
176
178
178
179
181
181
181
181
181
181
181
181
181
181
181
181
181
181
181
181
181
181
182
182
182
184
184
185
185
187
187
187
187
190
190
191
191
193
193
193
193
194
194
195
195
195
195
195
195
195
196
197
197
197
197
197
197
197
197
196
196
197
197
197
197
198
198
198
198
198
198
199
199
199
199
199
199
200
200
200
200
201
201
201
201
202
203
204
204
207
207
208
208
209
209
209
209
209
208
208
207
207
207
207
207
207
207
208
208
208
208
208
208
208
208
208
208
208
208
208
208
208
208
209
209
209
209
210
210
210
210
210
210
211
209
209
208
206
206
207
207
207
207
207
207
207
203
203
203
203
203
203
203
202
202
201
201
200
198
196
195
195
195
195
195
195
195
195
195
195
195
196
196
196
196
196
196
196
194
193
192
192
192
192
192
193
193
194
195
196
196
196
196
196
196
197
198
200
200
201
201
203
204
208
208
210
210
211
212
215
215
216
217
219
219
221
222
222
222
222
222
221
221
220
220
220
220
218
218
218
217
217
215
215
215
214
214
214
213
213
212
212
212
212
212
212
212
212
212
212
212
212
211
211
210
210
208
208
207
206
205
204
203
202
201
201
201
199
197
197
196
195
190
185
182
179
177
172
170
169
168
162
159
157
156
154
155
155
155
156
156
156
156
157
158
159
163
165
168
170
172
173
177
179
180
183
184
185
186
190
191
193
195
196
197
198
200
201
202
203
204
205
205
206
206
207
207
208
208
210
210
208
208
208
208
207
207
207
207
206
208
212
212
212
214
214
215
216
217
218
219
220
220
223
223
224
225
226
226
227
227
227
227
226
226
226
226
226
226
226
225
225
224
224
224
224
224
223
223
223
223
222
222
222
222
222
221
221
219
219
219
210
210
210
210
210
210
208
208
208
208
210
210
211
210
209
208
208
207
206
205
205
205
205
204
204
203
203
203
204
203
204
204
206
206
206
207
209
209
209
209
211
211
212
212
212
212
213
213
214
214
216
216
218
218
218
218
218
218
218
218
218
218
219
219
219
219
218
218
218
218
216
215
214
213
214
214
212
211
210
211
209
205
204
204
204
204
202
201
199
196
197
195
195
193
192
191
191
191
189
189
190
188
187
185
183
182
181
180
180
178
177
175
174
173
171
170
168
165
164
161
159
158
158
157
157
155
154
152
152
151
151
150
149
148
148
147
147
147
147
147
147
148
146
146
145
144
141
140
139
139
139
138
139
138
138
136
138
137
136
136
138
138
139
141
142
142
143
143
145
145
144
144
146
146
147
147
148
148
149
149
149
149
150
150
150
150
151
151
150
150
150
150
150
150
149
149
149
149
149
149
149
149
147
147
147
147
147
146
146
145
145
144
144
144
144
145
145
146
146
148
150
152
153
156
159
161
162
164
166
166
167
169
171
172
172
173
174
176
176
176
178
178
179
181
182
182
181
181
181
181
181
181
181
181
181
181
181
181
181
181
182
182
182
182
184
184
185
185
187
187
187
187
190
190
191
191
193
193
193
193
194
194
195
195
195
195
195
195
196
196
197
197
197
197
197
197
197
197
196
196
197
197
197
197
198
198
198
198
198
198
199
199
199
199
199
199
200
200
200
200
201
201
201
201
203
203
204
204
207
207
208
208
209
209
209
209
209
208
208
207
207
207
207
207
207
207
208
208
208
208
208
208
208
208
208
208
208
208
208
208
208
208
209
209
209
209
210
210
210
210
210
210
211
209
209
208
206
206
206
206
206
206
207
207
207
205
205
204
204
204
204
204
203
203
202
202
202
201
199
198
198
198
198
198
198
198
198
198
198
198
198
198
199
199
198
198
198
197
195
195
195
195
195
195
196
196
197
197
198
198
198
198
198
198
198
198
200
200
201
200
204
205
207
207
210
210
211
212
215
215
216
217
219
219
221
222
222
222
222
222
221
221
220
220
220
220
218
218
218
217
217
215
215
215
214
214
214
213
213
212
212
212
211
211
211
211
211
211
211
211
210
210
210
208
208
207
206
205
204
203
202
200
200
198
198
198
196
193
193
192
191
186
182
178
175
173
169
166
164
163
157
155
153
154
153
153
155
155
156
156
156
157
158
161
162
165
169
170
173
175
177
180
182
183
186
187
189
190
193
195
196
198
200
201
202
203
204
205
206
207
208
208
208
209
210
210
211
211
212
212
211
211
211
211
210
210
210
210
208
210
212
212
212
214
215
216
216
217
218
219
220
220
223
223
224
225
226
226
227
227
227
227
226
226
226
226
226
226
226
225
225
224
224
224
224
224
223
223
223
223
222
222
222
222
222
221
221
219
219
219
211
211
210
210
210
210
208
208
210
210
211
211
211
210
208
207
207
206
206
205
205
205
205
205
205
205
204
203
204
204
204
204
206
206
207
207
209
209
209
209
212
212
212
212
213
213
214
214
215
216
217
217
218
218
219
219
219
219
218
218
218
218
219
219
219
219
219
219
219
219
218
218
217
217
216
214
213
212
212
211
212
209
209
208
208
207
206
204
201
201
199
199
199
197
195
194
194
194
193
193
193
192
191
189
189
187
185
184
184
182
180
179
179
178
177
176
173
171
170
168
165
165
164
163
163
161
159
158
158
157
155
154
154
153
153
152
152
152
150
150
150
148
148
146
145
144
141
140
140
140
140
139
139
138
138
137
137
136
134
134
136
137
138
138
139
139
140
141
141
141
143
143
145
145
146
146
147
147
148
148
148
148
149
149
149
149
149
149
148
148
148
148
148
148
148
147
147
147
147
147
147
147
147
147
149
147
147
147
147
146
146
145
145
145
144
145
146
148
148
149
151
152
153
157
161
163
163
163
165
166
167
169
170
171
171
172
173
174
176
176
178
178
179
179
180
180
180
180
180
181
182
182
182
181
181
181
181
182
182
182
183
183
183
183
185
185
185
185
188
188
188
188
190
190
190
190
193
193
194
194
195
195
196
196
196
196
197
197
197
197
198
198
198
198
198
198
197
197
197
197
196
196
196
196
196
196
196
196
197
197
197
197
199
199
199
199
200
200
200
200
201
201
202
202
203
203
204
204
206
206
208
208
209
209
208
208
208
208
209
209
209
209
209
209
209
209
208
208
208
208
209
209
209
209
209
209
209
209
209
209
209
209
208
208
210
210
210
210
211
211
210
210
210
209
209
207
207
207
207
207
207
207
207
207
207
207
206
206
206
205
205
204
204
204
204
204
203
201
201
200
200
201
201
201
201
201
201
201
201
201
200
201
201
201
201
200
200
200
200
199
199
199
199
199
199
200
201
201
201
201
200
200
200
200
201
201
202
202
202
203
207
208
209
209
211
211
212
212
214
214
216
217
219
219
220
221
222
222
222
222
222
222
220
220
220
219
219
218
218
218
217
217
216
216
215
215
214
213
213
212
212
210
210
209
209
209
209
208
208
207
208
208
208
207
206
206
205
205
204
203
202
200
198
197
196
195
193
190
190
189
187
182
178
174
172
170
165
163
161
159
153
149
149
149
152
152
153
154
156
157
157
159
164
166
169
172
173
176
177
179
180
184
186
187
190
191
192
194
197
198
199
200
202
202
204
206
210
210
211
211
211
211
211
211
212
212
213
213
214
215
214
214
214
214
212
212
212
211
210
211
212
212
213
213
216
216
217
217
219
219
220
220
223
223
224
225
226
226
227
227
227
227
227
227
227
227
227
227
227
226
226
225
225
225
225
225
224
224
224
224
223
223
223
223
223
222
222
221
221
221
211
211
210
210
210
210
210
210
210
210
211
211
211
210
208
207
207
206
206
205
205
205
205
205
205
205
204
203
204
204
204
204
206
206
207
207
209
209
209
209
212
212
212
212
213
213
214
214
216
216
217
217
218
218
219
219
219
219
218
218
218
218
219
219
219
219
220
220
220
220
219
219
218
218
216
216
214
213
212
212
213
213
213
213
213
213
212
209
206
204
203
203
203
202
200
199
199
198
198
197
197
196
194
192
192
191
190
189
189
186
185
183
184
183
181
180
179
177
176
172
171
170
170
169
169
166
165
164
164
161
161
160
160
159
159
156
156
155
155
154
154
150
150
149
148
146
144
143
141
141
141
140
139
138
138
137
137
136
134
134
136
136
137
137
138
138
139
139
139
139
139
139
142
142
142
142
143
143
145
145
145
145
146
146
147
147
147
147
147
147
146
146
146
146
146
146
147
147
147
147
147
147
147
147
149
147
147
147
149
147
146
145
145
145
144
145
146
148
148
149
151
152
153
157
161
163
163
163
165
165
166
167
169
169
171
172
173
174
176
176
178
178
179
179
180
180
180
180
180
180
182
182
182
182
181
181
182
182
182
182
183
183
183
183
185
185
185
185
186
186
187
187
189
189
189
189
191
191
193
193
194
194
195
195
195
195
197
197
197
197
197
197
197
197
198
198
197
197
197
197
196
196
196
196
196
196
196
196
197
197
197
197
199
199
199
199
200
200
200
200
201
201
202
202
203
203
204
204
206
206
208
208
209
209
208
208
208
208
209
209
209
209
209
209
209
209
208
208
210
208
209
209
209
209
209
209
210
209
209
209
209
209
208
208
210
210
210
210
211
211
210
210
210
210
210
209
209
209
209
209
209
209
208
208
210
210
209
209
209
207
207
206
206
206
206
206
206
205
205
204
204
204
204
204
204
204
204
204
204
204
204
204
204
204
204
204
204
204
204
204
204
204
204
204
204
204
204
204
204
204
204
204
204
204
204
204
205
205
205
208
211
211
211
211
214
214
214
214
217
217
218
219
221
221
222
224
225
225
224
224
224
224
223
223
223
222
222
221
221
219
218
217
217
217
215
215
214
213
213
212
212
210
209
208
208
208
207
207
207
207
206
207
206
206
205
205
204
203
203
202
200
199
197
196
195
193
191
188
188
187
185
180
175
172
170
168
163
161
158
156
149
146
146
146
149
149
151
153
156
157
160
162
170
172
175
177
180
181
182
184
187
188
190
191
195
196
197
198
202
203
204
205
206
206
208
212
214
214
215
215
215
215
214
214
216
216
217
217
218
218
218
218
218
218
217
217
217
216
215
216
216
216
217
217
218
218
218
218
220
220
222
222
224
224
225
225
226
226
227
227
227
227
227
227
227
227
227
227
227
226
226
225
225
225
225
225
224
224
224
224
223
223
223
223
223
222
222
221
221
221
213
213
212
212
212
212
211
211
212
212
211
211
211
210
208
207
207
207
207
206
206
206
206
206
205
205
205
205
205
205
205
205
207
207
207
207
209
209
209
209
212
212
212
212
213
213
214
214
216
216
217
217
218
218
219
219
219
219
219
219
219
219
220
220
220
220
220
220
220
220
219
219
219
218
218
217
217
216
214
213
213
213
213
213
213
213
213
213
212
208
207
207
207
206
205
204
204
203
202
201
201
200
199
197
197
195
194
193
193
191
189
188
189
188
186
185
184
181
180
177
176
175
175
173
173
171
170
168
168
168
169
169
169
168
168
166
164
163
161
160
159
156
155
153
152
151
148
147
146
144
142
140
140
139
138
137
136
135
134
134
135
135
133
133
133
133
134
134
134
134
134
134
135
135
136
136
138
138
139
139
140
140
141
142
143
145
145
146
146
146
146
145
146
146
146
146
146
146
146
146
147
147
147
147
149
149
149
149
150
149
147
146
146
146
145
146
146
148
149
149
151
151
152
155
159
162
162
162
164
164
165
166
167
169
169
172
172
173
174
174
177
177
178
178
180
180
180
180
180
180
182
182
182
182
181
181
182
182
182
182
183
183
183
183
184
184
185
185
186
186
187
187
189
189
189
189
191
191
191
191
193
193
195
195
195
195
196
196
195
195
197
197
197
197
197
197
196
196
196
196
196
196
196
196
196
195
195
195
196
196
196
196
197
197
198
198
199
199
199
199
200
200
202
202
203
203
203
203
205
205
206
206
208
208
208
208
208
208
210
210
210
210
209
209
209
209
210
210
210
210
210
210
210
210
210
210
210
210
210
210
210
210
210
210
211
211
211
211
212
212
212
212
213
211
211
210
210
210
210
210
211
211
211
211
212
212
212
214
215
213
212
211
211
211
211
211
211
210
209
209
209
209
208
208
208
208
208
208
208
208
208
208
209
209
208
208
209
209
208
208
208
208
208
208
208
208
208
208
208
208
209
209
209
209
209
209
209
209
211
212
214
214
214
214
216
216
217
217
218
218
219
220
222
222
224
224
225
225
224
224
223
223
222
222
222
220
221
219
219
219
218
217
217
216
215
214
214
212
212
210
210
209
208
207
207
207
207
207
206
206
206
206
205
205
204
204
203
202
200
199
197
196
193
192
191
190
188
184
184
183
181
177
172
168
166
164
159
157
154
151
146
142
142
142
142
143
148
155
155
157
163
170
172
175
178
181
186
187
188
189
193
194
195
197
200
202
203
204
208
209
210
211
213
213
213
213
215
215
216
216
217
217
217
217
218
218
219
219
219
219
219
219
221
221
219
219
219
218
217
218
219
219
219
219
219
219
219
220
222
222
223
223
224
224
225
226
227
227
227
227
227
227
227
227
227
227
227
227
227
227
226
226
226
226
225
225
225
225
225
225
224
224
224
224
224
223
223
222
222
222
213
213
212
212
212
212
212
212
212
212
211
211
211
210
208
207
207
207
207
206
206
206
206
206
205
205
205
205
205
205
205
205
207
207
207
207
209
209
209
209
212
212
212
212
213
213
214
214
216
216
217
217
218
218
219
219
219
219
219
219
219
219
220
220
220
220
220
220
220
220
219
219
219
217
218
217
217
216
214
214
214
214
214
214
214
214
214
214
213
213
211
211
210
210
209
207
207
206
206
205
204
202
202
200
200
199
198
198
198
195
194
193
194
192
191
188
186
185
184
180
179
177
178
177
177
175
173
172
173
173
174
172
174
172
172
170
169
167
166
163
162
160
158
157
156
153
151
150
147
146
144
143
141
140
139
138
136
135
134
133
134
132
131
131
131
130
131
131
131
131
132
132
133
133
134
134
135
135
135
135
138
138
139
140
142
143
143
145
146
146
145
143
145
145
145
145
146
146
146
146
147
147
147
147
149
149
149
149
150
149
147
146
146
146
145
146
146
148
149
149
151
151
152
155
159
162
162
162
164
164
165
166
167
167
169
171
172
173
174
174
177
177
178
178
180
180
180
180
180
180
181
182
182
181
181
181
182
182
182
182
183
183
183
183
184
184
185
185
185
185
186
186
188
188
188
188
190
190
190
190
191
191
194
194
194
194
196
196
195
195
196
196
196
196
197
197
196
196
196
196
196
196
196
196
196
195
195
195
196
196
196
196
197
197
198
198
199
199
199
199
200
200
202
202
203
203
203
203
205
205
207
206
208
208
208
208
208
208
210
210
210
210
209
209
209
209
210
210
211
210
210
210
210
210
210
210
211
210
210
210
210
210
210
210
211
211
211
211
212
212
212
212
213
213
212
211
211
211
210
211
211
212
212
212
215
215
215
216
217
216
215
214
214
213
214
213
213
212
212
212
212
212
211
211
211
211
211
211
211
211
211
211
211
211
211
211
211
211
211
211
211
211
211
211
211
211
211
211
211
211
211
211
211
211
211
211
212
212
212
212
214
214
214
214
216
216
217
217
218
218
219
220
222
222
224
224
225
225
224
224
223
223
222
222
222
220
221
219
219
218
217
216
216
216
214
214
213
212
212
210
210
209
208
207
207
207
206
206
206
206
206
206
205
205
204
204
203
200
198
196
193
192
190
189
189
188
184
182
182
181
178
173
168
165
163
161
156
154
150
148
142
139
139
139
139
141
146
155
156
160
166
169
172
177
181
185
188
191
192
193
196
199
200
201
204
205
207
208
211
212
213
214
215
216
215
215
215
216
216
216
217
217
217
217
218
218
219
219
219
219
221
221
222
222
221
221
221
219
218
219
221
220
220
220
220
220
220
220
223
223
224
224
225
225
226
226
227
227
227
227
227
227
227
227
227
227
227
227
227
227
226
226
226
226
225
225
225
225
225
225
224
224
224
224
224
223
223
222
222
222
213
213
213
213
213
213
212
212
212
212
211
211
211
210
209
208
208
207
207
207
207
207
207
207
207
207
205
205
206
206
206
206
207
207
208
208
209
209
209
210
212
212
213
213
214
214
216
216
216
216
217
217
217
217
218
218
219
219
219
219
221
221
221
221
221
219
221
219
219
219
219
217
217
217
217
217
217
216
216
215
215
215
215
215
215
215
215
215
216
215
214
213
212
211
212
211
211
211
211
209
206
205
205
204
202
203
202
202
202
201
199
198
198
196
195
193
189
188
188
185
184
181
182
182
183
181
180
178
179
178
177
177
177
176
176
174
172
171
170
168
167
165
164
163
160
159
157
155
152
151
148
146
145
143
143
142
141
138
136
136
135
134
132
131
131
131
130
130
130
131
131
132
132
133
134
134
134
133
133
133
134
135
138
139
141
142
143
144
144
144
144
144
144
144
145
145
146
146
146
146
146
146
147
147
147
147
149
149
149
149
147
147
147
147
146
146
147
147
148
149
150
151
152
156
159
162
162
162
164
164
165
165
166
169
170
171
172
172
173
173
176
176
176
177
179
180
180
180
180
180
180
180
180
180
180
181
181
181
182
182
182
182
183
183
183
183
184
184
185
185
186
186
187
187
187
187
190
190
191
191
192
192
194
194
194
194
194
194
194
194
195
195
196
196
195
195
195
195
196
196
194
194
196
196
196
196
196
194
196
196
196
196
197
197
198
198
199
199
199
199
200
200
200
200
201
201
203
203
205
205
206
206
207
207
207
207
207
207
208
208
208
208
209
209
211
211
211
211
211
211
211
210
211
211
211
211
211
211
211
210
211
211
210
210
211
211
212
212
213
213
212
212
214
212
212
214
214
215
212
212
214
214
215
215
215
217
217
217
218
216
216
215
215
215
214
214
214
214
214
213
213
213
213
213
213
213
213
213
213
213
214
214
214
214
214
214
214
214
214
214
214
214
213
213
213
213
214
214
214
214
213
213
214
214
214
214
214
214
215
214
215
215
214
214
215
215
217
217
219
219
221
221
222
222
223
224
223
223
224
224
222
222
221
221
221
220
220
219
219
218
217
216
214
213
214
213
213
211
211
210
210
209
207
206
206
206
206
206
204
204
205
205
205
203
202
201
200
198
195
193
191
189
188
186
186
185
182
179
179
178
174
170
165
162
159
157
152
150
147
145
139
137
138
139
139
142
148
154
157
164
168
171
174
181
187
188
191
194
195
197
202
204
205
205
207
208
209
210
212
213
215
216
217
217
218
218
218
218
218
218
218
218
219
219
220
220
220
220
223
223
222
222
222
222
222
222
222
222
220
220
220
220
220
222
223
224
222
223
223
224
224
224
225
225
226
227
227
227
229
229
229
229
229
229
229
229
229
229
229
227
227
226
226
226
226
226
225
225
225
225
225
225
224
224
224
224
223
223
223
223
213
213
213
213
213
213
213
213
212
212
211
211
211
210
209
208
208
207
207
207
207
207
207
207
207
207
205
205
206
206
206
206
207
207
208
208
209
209
210
210
212
212
213
213
214
214
216
216
216
216
217
217
217
217
218
218
219
219
219
219
221
221
221
221
221
219
221
219
219
219
219
217
217
217
217
217
217
216
216
216
216
216
216
216
216
216
216
216
216
217
216
215
214
213
213
213
213
213
213
211
210
208
207
206
205
204
204
204
204
203
201
200
200
200
200
198
195
192
192
190
190
187
188
188
189
188
187
185
185
184
183
182
182
181
181
178
178
177
177
175
174
172
171
170
167
165
163
160
159
157
155
153
152
151
150
149
146
144
142
141
139
138
138
137
137
136
135
133
133
133
133
133
133
133
134
134
134
133
133
132
133
134
136
138
140
140
140
140
142
143
142
143
143
143
144
144
146
146
146
146
146
146
147
147
147
147
149
149
149
149
147
147
147
147
146
146
147
147
148
149
150
151
152
156
159
162
162
162
164
164
165
165
167
167
170
169
172
172
173
173
175
175
175
176
177
178
178
178
180
180
180
179
178
178
179
179
180
181
182
182
182
182
183
183
183
183
184
184
184
184
185
185
186
186
186
186
188
188
190
190
191
191
193
193
193
193
194
194
194
194
194
194
194
194
195
195
195
195
196
196
194
194
196
196
196
196
196
194
196
196
196
196
197
197
198
198
199
199
199
199
200
200
200
200
201
201
203
203
205
205
206
206
207
207
207
207
207
207
208
208
208
208
209
209
211
211
211
211
212
211
211
210
211
211
211
211
213
211
211
210
211
211
210
210
211
211
212
212
213
213
212
212
214
214
214
214
214
214
214
214
215
215
216
215
217
217
217
217
217
216
216
215
215
215
214
214
214
214
214
213
213
213
214
214
214
214
214
214
215
215
214
214
214
215
215
215
215
215
215
215
215
214
214
214
214
214
214
215
215
214
214
214
215
215
215
215
216
216
216
216
217
217
214
214
215
215
217
217
219
219
221
221
222
222
223
224
223
223
224
224
222
222
221
221
221
220
220
219
219
217
216
214
213
213
213
213
212
211
211
210
210
209
207
206
206
206
204
204
203
203
202
202
201
200
199
198
196
194
192
189
188
186
185
184
184
183
180
177
177
175
171
166
162
158
156
153
149
146
144
141
136
135
136
139
141
147
151
156
159
167
171
171
178
186
190
190
192
197
198
200
205
207
208
208
210
210
211
212
214
216
217
218
219
219
220
220
220
220
220
220
220
220
222
222
223
223
223
223
224
224
224
224
223
223
223
223
223
223
222
222
222
222
222
223
223
224
224
224
224
225
225
225
226
226
227
227
227
227
229
229
229
229
229
229
229
229
229
229
229
227
227
226
226
226
226
226
225
225
225
225
225
225
224
224
224
224
223
223
223
223
214
214
214
214
214
214
213
212
213
212
212
211
211
209
208
207
207
207
207
207
207
207
207
207
207
207
205
205
206
206
206
206
207
207
208
208
209
209
210
210
212
212
213
213
214
214
215
215
216
216
217
217
217
217
218
218
219
219
219
219
221
221
220
220
220
219
219
218
218
218
217
217
217
217
216
216
216
217
217
216
216
216
216
216
216
216
216
216
217
217
218
218
218
216
216
216
216
216
215
214
214
212
211
209
208
207
206
206
207
206
205
204
204
204
202
201
200
196
197
193
192
191
191
191
192
191
190
189
189
188
186
185
185
184
184
182
182
181
180
179
178
175
174
173
171
169
166
164
163
160
159
156
155
154
153
152
150
148
145
144
143
142
142
141
141
139
138
137
136
136
134
134
133
133
135
135
135
134
134
133
134
134
133
133
135
135
137
137
139
139
140
140
143
143
144
144
145
145
145
145
146
146
147
147
147
147
149
149
149
149
147
147
147
147
146
146
147
147
148
148
150
150
151
155
158
159
159
161
163
163
164
164
166
167
169
168
170
170
171
171
172
172
172
172
172
173
174
175
179
178
178
178
177
177
178
178
179
179
179
179
179
179
179
179
179
179
180
180
181
181
183
183
184
184
184
184
186
186
186
186
188
188
190
190
191
191
191
191
191
191
192
192
192
192
192
192
192
192
192
192
192
192
193
193
193
192
192
191
192
192
192
192
194
194
196
196
198
198
198
198
199
199
200
200
201
201
202
202
204
204
205
205
206
206
207
207
207
207
208
208
208
208
209
209
211
211
212
212
212
212
212
212
213
213
214
214
213
214
213
213
213
213
212
212
213
213
213
213
214
214
214
214
216
215
215
215
215
215
215
216
217
217
218
218
217
219
218
218
218
217
217
216
216
216
216
216
216
215
215
215
215
215
215
215
215
215
215
215
216
216
214
214
216
216
215
215
216
216
215
215
215
215
215
215
215
215
215
215
215
215
215
215
216
216
216
216
217
217
217
217
217
217
217
217
217
217
218
218
219
219
220
220
222
222
223
223
223
223
221
221
221
221
220
220
220
219
219
218
218
217
216
214
214
212
213
211
212
210
210
209
207
206
204
203
203
203
203
202
200
199
199
198
196
194
194
193
192
189
187
185
182
181
181
179
178
177
174
171
171
170
165
160
156
152
150
148
143
141
138
136
130
130
135
139
142
151
158
156
163
171
172
172
181
188
192
190
196
200
202
206
208
213
214
214
216
216
217
218
220
222
223
223
224
224
225
225
225
225
225
225
226
226
227
227
229
229
229
229
227
227
226
226
225
225
225
225
225
225
224
224
224
224
224
224
225
225
227
227
228
228
227
227
227
227
227
229
229
229
229
229
229
229
229
229
229
229
229
229
229
229
227
227
227
227
226
226
226
226
226
226
226
226
225
225
225
225
224
224
224
224
214
214
214
213
213
213
213
213
212
212
211
210
210
209
208
207
207
207
207
207
207
207
207
207
207
207
205
205
206
206
206
206
207
207
208
208
209
209
210
210
212
212
213
213
214
214
215
215
216
216
217
217
217
217
218
218
219
219
219
219
219
219
219
219
219
219
218
218
218
218
217
217
217
217
216
216
216
216
217
217
217
217
217
217
217
217
217
217
217
217
218
218
218
218
217
217
219
217
218
216
215
214
213
212
209
209
209
209
209
208
207
206
206
206
205
204
201
200
199
198
198
195
194
195
196
195
194
192
192
191
190
189
189
188
188
185
185
184
184
182
181
179
178
177
174
172
170
167
166
164
162
160
159
158
157
156
155
152
150
149
148
145
145
144
144
143
142
139
138
137
136
135
134
133
135
135
135
134
134
133
133
133
132
132
133
133
133
133
136
136
137
138
140
140
140
140
143
143
143
143
145
145
145
145
145
145
146
146
147
147
146
146
147
147
146
146
147
147
148
148
150
150
151
153
156
158
158
158
161
160
161
164
165
166
165
166
167
169
169
169
171
171
171
171
171
171
172
172
175
174
175
175
176
176
175
175
175
175
178
178
178
178
178
178
178
178
179
179
179
179
180
180
181
181
181
181
183
183
183
183
186
186
187
187
188
188
189
189
189
189
189
189
190
190
190
190
190
190
191
191
191
191
192
192
192
191
191
190
191
191
191
192
193
194
194
196
197
198
197
197
199
199
199
199
201
202
202
202
204
204
204
205
206
206
207
207
207
207
208
208
208
208
209
209
211
211
211
211
213
212
212
212
214
214
213
213
213
213
212
212
212
212
212
212
214
214
213
213
215
215
215
215
216
216
216
215
215
215
217
218
218
218
219
219
219
219
218
218
218
217
217
216
216
216
216
216
216
216
215
215
215
215
216
216
216
216
216
217
216
216
216
216
217
217
217
217
217
217
216
216
216
216
216
216
215
215
216
216
215
215
215
215
216
216
216
216
217
217
217
217
217
217
217
217
217
217
218
218
219
219
220
220
220
220
220
220
222
222
220
220
219
219
218
218
219
218
218
218
218
215
214
213
212
212
211
211
210
207
207
206
206
205
203
202
202
201
200
199
197
196
196
195
194
192
191
189
188
187
185
182
180
178
177
176
175
174
170
167
167
166
162
157
152
149
146
144
139
137
133
132
128
129
135
141
146
153
158
160
166
171
173
178
186
188
192
193
199
202
205
208
212
215
216
216
218
219
220
220
222
224
225
225
226
226
227
227
227
227
227
227
229
229
230
230
230
230
230
229
229
227
229
227
227
226
226
226
226
226
225
225
225
225
225
225
226
226
227
227
229
229
229
229
229
229
229
229
229
229
229
229
229
229
229
229
229
229
229
229
229
229
227
227
227
227
226
226
226
226
226
226
226
226
225
225
225
225
224
224
224
224
215
214
213
213
213
213
213
212
212
211
210
210
209
208
208
208
208
208
208
208
208
208
208
208
208
208
206
206
207
207
207
207
208
208
209
209
211
211
211
211
213
213
213
213
214
214
215
216
216
216
217
217
217
217
218
218
218
218
218
218
219
219
219
219
219
218
218
217
217
217
217
217
217
217
217
217
217
217
217
217
217
217
217
217
217
217
216
216
217
218
218
218
219
219
219
219
220
219
219
218
216
215
214
213
212
212
213
213
211
209
208
207
207
207
206
205
204
202
202
202
200
200
199
199
199
198
196
195
196
195
193
192
192
191
191
190
189
189
187
187
186
184
183
181
179
177
174
172
171
169
167
165
165
164
163
162
159
157
155
153
152
150
150
149
149
146
145
143
142
140
140
139
138
136
136
136
136
135
135
134
134
133
133
132
132
132
131
131
132
135
136
137
139
139
139
139
142
142
142
142
143
143
144
144
144
144
145
145
146
146
146
146
146
146
146
146
146
146
147
147
149
149
150
152
155
156
157
157
159
159
160
161
163
163
164
165
166
166
167
167
168
168
168
168
169
170
171
171
170
172
173
173
177
176
176
174
174
174
174
174
176
176
177
177
177
177
175
175
175
175
177
177
178
178
178
178
179
179
180
181
181
182
182
184
185
186
186
186
187
187
186
186
187
187
187
187
188
188
188
188
188
188
189
189
189
189
189
188
189
190
190
191
192
193
193
195
195
196
196
196
196
196
198
199
201
201
200
201
202
202
204
204
205
206
206
206
207
207
207
207
208
208
208
208
209
209
211
211
212
212
213
212
213
213
214
214
215
214
214
212
214
214
214
214
214
213
213
213
214
214
214
214
215
215
215
216
216
217
217
217
217
219
220
220
220
220
219
219
219
218
218
217
217
217
217
217
217
217
216
216
216
216
218
218
219
219
218
218
219
219
219
219
218
218
218
218
218
218
218
218
218
218
218
218
218
218
217
217
217
217
217
217
217
217
217
217
217
217
218
218
218
218
217
217
217
217
218
218
218
218
219
219
221
221
219
219
219
219
219
219
218
218
217
217
218
218
218
217
218
216
215
212
211
210
211
210
209
206
206
205
205
204
202
201
200
199
197
196
195
195
194
194
192
190
188
187
186
186
185
181
178
175
175
174
170
167
165
163
163
162
159
155
150
146
144
142
137
134
130
129
128
127
135
143
147
153
158
162
168
171
176
182
188
190
193
198
202
203
205
208
214
216
217
217
219
220
222
222
224
224
225
226
226
226
227
227
227
227
227
227
227
227
229
229
230
230
230
230
230
230
229
229
229
227
227
227
227
227
226
226
226
226
226
226
227
227
227
227
228
228
228
228
228
228
228
228
228
228
229
229
229
229
229
229
229
229
229
229
229
229
229
229
229
229
227
227
227
227
227
227
227
227
226
226
226
226
225
225
225
225
215
214
213
212
212
212
212
211
211
210
210
209
209
208
208
208
208
208
208
208
208
208
208
208
208
208
206
206
207
207
207
207
208
208
209
209
211
211
211
211
213
213
213
213
214
214
216
216
216
216
217
217
217
217
218
218
218
218
218
218
218
218
218
218
218
218
217
217
217
217
217
217
217
217
217
217
217
217
217
217
217
217
217
217
217
217
216
216
217
217
218
218
221
221
220
220
221
220
219
218
218
215
214
213
213
213
214
214
213
212
211
210
210
210
209
207
207
206
206
206
205
205
204
204
202
201
200
199
199
198
197
196
196
195
195
193
192
192
191
191
189
187
186
185
184
181
179
177
176
173
172
170
169
167
167
166
164
162
159
158
157
155
153
152
152
150
149
146
145
144
144
143
142
139
138
136
136
135
135
134
134
133
134
133
132
132
132
132
132
132
133
133
136
136
136
136
138
138
138
138
139
139
140
140
142
142
143
143
145
145
145
145
146
146
146
146
146
146
147
147
149
149
150
151
153
155
156
156
158
158
159
160
161
161
163
164
165
165
165
165
166
166
166
166
166
166
167
167
166
166
168
169
173
173
172
171
171
171
171
171
172
172
173
173
173
173
173
173
172
172
173
173
174
174
174
174
175
175
177
178
178
179
179
180
181
182
182
182
184
184
182
182
184
184
184
184
185
185
185
185
185
185
186
186
186
186
186
186
187
187
187
188
190
191
191
192
192
193
193
193
193
193
195
196
198
199
200
200
200
201
202
202
202
204
205
206
206
206
207
207
207
207
208
208
209
209
209
209
212
212
213
212
213
213
214
214
215
214
214
212
214
214
214
214
214
214
213
213
214
214
214
214
215
215
215
216
216
217
218
218
217
219
220
220
220
220
219
219
219
219
218
218
218
218
218
218
218
218
217
217
219
219
220
220
221
221
221
221
221
221
222
222
221
221
221
221
221
221
221
221
221
221
221
221
220
220
218
218
217
217
217
217
217
217
217
217
217
217
218
218
218
218
217
217
217
217
218
218
218
218
219
219
219
219
218
218
218
218
218
218
217
217
215
215
215
215
216
216
216
214
212
210
210
209
209
207
207
205
205
204
204
203
201
200
199
196
195
194
193
193
192
192
189
188
186
185
184
184
184
180
175
174
173
171
166
163
162
159
159
158
157
152
148
144
142
139
135
131
129
129
129
130
135
143
147
153
158
164
168
172
179
185
188
192
194
200
203
203
206
210
216
216
217
217
220
222
223
223
224
224
225
226
226
226
227
227
227
227
227
227
227
227
229
229
229
229
229
229
229
229
229
229
229
229
229
229
229
229
227
227
227
227
227
227
229
229
227
227
228
228
228
228
228
228
228
228
228
228
229
229
229
229
229
229
229
229
229
229
229
229
229
229
229
229
227
227
227
227
227
227
227
227
226
226
226
226
225
225
225
225
216
215
214
212
212
212
212
211
211
210
210
209
209
209
208
208
208
208
208
208
208
208
208
208
208
208
206
206
207
207
207
207
208
208
209
209
211
211
211
211
213
213
213
213
214
214
216
216
215
215
217
217
217
217
218
218
218
218
218
218
219
219
219
219
219
217
217
216
216
216
217
217
217
217
217
217
217
217
217
217
217
217
217
217
217
217
217
217
218
218
219
219
222
222
221
221
222
221
220
219
219
217
216
215
215
215
215
215
215
214
213
212
212
212
212
212
212
209
209
208
208
207
207
207
206
205
204
202
202
200
199
198
198
197
197
196
195
195
193
193
192
189
188
187
186
184
181
179
178
175
174
172
171
170
170
168
166
164
162
160
159
157
156
155
155
152
151
149
148
146
146
145
144
140
139
138
138
137
137
136
136
135
135
133
132
132
132
132
131
131
131
131
132
132
132
132
135
135
135
135
136
136
137
137
138
139
140
142
144
144
145
145
146
146
146
146
146
146
147
147
149
149
150
151
152
152
153
155
157
157
158
159
160
160
162
162
164
164
164
164
165
165
165
165
165
165
165
165
165
165
166
166
167
168
167
166
166
166
167
167
168
168
170
170
170
170
169
169
168
168
170
170
171
171
171
171
172
172
173
174
174
176
176
177
178
179
179
179
180
180
179
179
180
180
180
180
181
181
181
182
182
182
183
183
183
183
183
183
184
184
184
185
186
187
187
188
188
189
191
191
191
191
192
193
196
197
196
198
200
200
201
201
202
202
204
204
205
206
206
206
207
207
208
208
209
209
209
209
212
212
213
213
214
214
215
215
215
215
215
215
215
215
216
216
216
216
215
215
217
217
216
216
217
217
217
217
218
218
219
219
220
220
221
221
221
222
221
221
222
221
220
220
220
220
220
220
220
220
220
220
221
221
223
223
224
224
224
224
224
224
224
224
224
224
224
224
224
224
224
224
224
223
223
222
222
221
221
221
221
219
219
219
219
219
218
218
218
218
218
218
218
218
217
217
217
217
219
219
219
218
219
219
219
219
218
218
218
218
217
217
217
215
214
214
214
213
212
211
211
210
209
208
208
208
206
206
206
205
205
204
203
202
200
199
198
195
194
192
190
189
188
187
185
182
181
180
179
179
179
175
171
169
167
166
162
158
157
155
155
153
152
148
143
139
137
135
130
128
129
129
129
130
135
143
147
153
159
164
168
174
181
188
190
193
198
203
205
204
210
214
217
218
219
219
222
225
226
226
226
226
227
227
227
227
227
227
227
227
227
227
227
227
229
229
229
229
229
229
229
229
230
230
230
230
230
230
230
230
229
229
229
229
229
229
229
229
230
230
230
230
230
230
230
230
228
228
228
228
229
229
229
229
229
229
229
229
229
229
229
229
229
229
229
229
227
227
227
227
227
227
227
227
226
226
226
226
225
225
225
225
214
214
212
212
212
212
212
211
211
210
210
209
209
209
208
208
208
208
208
207
207
207
208
208
208
208
206
206
207
207
207
207
208
208
209
209
211
211
210
211
213
213
213
213
213
213
215
215
215
215
215
215
217
217
218
218
218
218
218
218
219
219
219
219
219
217
217
216
216
216
217
217
217
217
217
217
217
217
217
217
217
217
217
217
217
217
217
217
218
218
219
219
222
222
221
221
222
221
220
219
219
217
216
215
215
215
215
215
215
214
214
213
213
213
212
212
212
212
212
211
211
209
209
209
208
207
206
205
205
202
201
200
200
199
199
198
196
196
195
195
194
192
191
190
188
186
184
181
180
178
177
174
173
172
172
172
170
167
165
164
163
160
159
158
158
156
155
152
151
150
150
149
146
144
142
140
139
138
138
137
137
136
136
135
132
132
132
132
131
130
129
128
129
129
129
129
131
131
132
132
132
132
133
133
136
136
138
139
142
143
143
144
145
145
145
145
146
146
146
146
147
147
149
149
151
151
152
152
155
155
156
158
158
159
159
159
162
162
162
162
163
163
163
163
163
163
163
163
164
164
163
163
164
165
165
164
164
164
165
165
166
166
167
167
168
168
167
167
167
167
169
169
169
169
169
169
170
170
171
172
172
173
173
174
176
176
177
177
178
178
176
176
178
178
178
177
178
180
181
181
181
181
182
182
182
182
182
182
183
183
183
184
185
186
186
187
187
188
188
188
188
189
190
191
192
193
194
195
198
199
200
200
201
201
202
202
204
204
205
205
206
207
207
207
209
209
209
209
212
212
212
212
213
213
215
215
215
215
215
215
215
215
216
216
216
216
215
215
217
217
216
216
217
217
217
217
218
218
219
219
220
220
221
221
222
222
221
221
222
222
220
220
220
220
220
220
220
220
220
220
221
221
223
223
224
224
224
224
224
224
224
224
224
224
224
224
224
224
224
224
224
224
224
223
223
222
222
221
221
219
219
219
219
219
218
218
218
218
218
218
218
218
217
217
217
217
219
219
219
219
218
218
218
217
217
216
216
216
215
215
214
214
213
212
212
211
210
210
209
208
207
205
205
205
206
206
205
204
204
203
202
200
200
198
195
193
192
189
187
186
184
182
181
179
175
174
173
174
173
171
166
164
163
162
157
153
152
150
150
148
146
143
139
135
132
130
127
127
128
129
129
130
135
143
147
153
159
164
168
175
183
188
191
197
200
204
206
208
211
214
216
218
219
220
225
226
226
226
227
226
227
227
227
227
227
227
227
227
227
227
227
227
229
229
229
229
229
229
229
229
230
230
230
230
230
230
230
230
229
229
229
229
229
229
229
229
230
230
230
230
230
230
230
230
228
228
228
228
229
229
229
229
229
229
229
229
229
229
229
229
229
229
229
229
227
227
227
227
227
227
227
227
226
226
226
226
225
225
225
225
213
213
213
212
212
212
212
212
212
212
210
210
210
209
209
209
209
208
207
207
207
207
207
207
207
207
207
207
208
208
208
208
209
209
209
209
211
211
210
210
212
212
212
212
213
213
214
214
214
214
216
216
216
216
217
217
218
218
219
219
219
219
219
219
219
219
217
217
217
217
218
218
218
218
217
217
217
217
217
217
217
217
217
217
217
217
217
217
218
218
218
218
221
221
221
221
222
222
220
220
220
217
217
216
216
216
216
216
216
216
216
216
216
215
213
213
213
213
212
212
210
210
211
209
209
207
206
205
205
204
202
201
201
200
200
199
198
198
196
196
195
193
192
191
190
188
187
185
184
181
180
179
178
178
177
176
174
172
170
169
167
165
164
163
162
160
159
157
157
156
153
152
151
149
146
145
144
143
143
142
141
139
138
136
135
134
133
132
132
130
129
128
129
129
129
129
131
131
131
131
132
132
133
133
135
136
137
137
140
140
141
143
144
144
145
145
145
145
145
145
146
146
147
147
150
150
150
151
152
152
153
153
156
156
158
158
160
160
160
160
162
162
162
162
162
162
162
162
162
162
162
162
163
162
163
163
163
163
163
163
163
163
163
164
164
164
164
164
164
164
165
165
165
165
165
165
165
165
166
166
167
167
168
168
170
170
171
171
172
172
173
173
175
175
175
174
176
177
178
178
179
179
180
180
180
180
180
180
181
181
181
181
182
183
184
184
185
185
187
187
188
188
188
189
190
191
193
195
197
198
199
199
200
200
201
201
202
202
204
205
206
206
207
208
208
208
209
209
211
211
212
212
213
213
214
214
215
215
215
215
217
217
216
216
217
217
216
216
217
217
217
217
217
217
218
218
219
219
219
219
221
221
222
222
222
222
222
222
222
222
221
221
221
221
220
220
220
220
221
221
222
222
223
223
224
224
224
224
224
224
224
224
224
224
224
224
224
224
224
224
224
224
224
224
223
223
222
222
220
220
219
219
219
220
219
219
220
220
219
219
219
219
219
219
219
219
218
218
218
217
218
217
217
216
216
215
214
214
214
214
213
212
211
211
211
210
210
209
210
209
208
207
205
205
205
205
202
201
202
200
199
198
198
195
191
188
187
186
183
179
178
179
177
174
171
170
168
167
166
165
162
159
158
155
153
151
148
145
145
143
142
138
136
132
131
129
128
128
129
130
130
130
134
142
147
153
159
164
169
176
183
188
192
197
201
204
208
210
211
214
217
219
220
222
226
227
227
227
229
227
229
228
228
228
228
228
228
228
227
227
229
229
228
228
229
229
230
230
230
230
229
229
229
229
229
229
229
229
230
230
230
230
230
230
230
230
230
230
230
230
230
230
230
230
229
229
229
229
229
229
229
229
229
229
229
229
229
229
229
229
229
229
229
229
229
229
229
229
229
229
229
229
227
227
227
227
226
226
226
226
212
212
212
212
212
212
212
212
212
212
210
210
210
209
209
209
209
208
207
205
205
205
207
207
207
207
207
207
208
208
208
208
209
209
209
209
211
211
210
210
212
212
212
212
212
212
213
213
214
214
215
215
216
216
217
217
218
218
219
219
219
219
219
219
219
219
217
217
217
217
218
218
218
218
217
217
217
217
217
217
217
217
217
217
217
217
217
217
218
218
218
218
221
221
221
221
222
222
220
220
220
217
217
216
216
216
216
216
216
216
217
217
217
216
214
213
213
213
212
212
211
211
211
209
209
207
206
205
205
205
205
204
204
202
202
201
200
200
199
199
198
195
194
193
192
191
189
188
187
185
184
181
181
180
181
179
178
176
174
172
170
169
167
166
165
164
163
160
159
158
158
157
155
152
150
149
148
146
146
145
144
143
142
139
138
137
136
135
135
132
131
130
130
130
131
131
131
131
132
132
132
132
133
133
135
135
136
136
138
138
138
139
140
140
141
141
141
141
143
143
144
144
145
145
149
149
149
149
150
150
151
151
153
153
155
155
157
157
157
157
158
158
158
158
158
158
158
158
158
158
158
158
159
159
159
159
159
159
159
159
159
159
159
159
159
159
160
160
160
160
161
161
161
161
160
160
160
160
161
161
163
163
164
164
165
165
166
166
167
168
169
169
170
169
171
172
172
173
173
175
175
175
177
177
177
177
177
177
178
178
178
178
179
179
181
180
181
181
183
183
184
184
185
186
188
189
190
191
193
195
195
195
198
198
198
199
201
201
202
202
205
205
205
206
208
208
209
209
211
211
211
211
212
212
214
214
215
215
215
215
217
217
216
216
217
217
216
216
217
217
217
217
217
217
218
218
219
219
219
219
221
221
222
222
222
222
222
222
222
222
221
221
221
221
220
220
220
220
221
221
222
222
223
223
224
224
224
224
224
224
224
224
224
224
224
224
224
224
224
224
224
224
224
224
223
223
222
222
220
220
219
220
220
220
219
219
220
220
219
219
219
219
219
219
219
219
218
218
218
217
217
216
216
215
215
214
214
214
212
212
212
211
210
209
209
208
208
208
208
207
205
205
204
204
202
202
200
199
198
197
196
196
195
192
187
185
184
182
177
175
174
175
174
172
169
166
163
162
160
159
157
155
153
151
149
148
146
143
143
141
138
135
133
131
131
130
130
130
129
130
130
130
134
142
147
153
159
164
169
176
183
189
193
197
201
204
207
211
213
215
218
219
220
224
227
229
229
229
230
229
229
228
228
228
228
228
228
228
227
227
229
229
228
228
229
229
230
230
230
230
229
229
229
229
229
229
229
229
230
230
230
230
230
230
230
230
230
230
230
230
230
230
230
230
229
229
229
229
229
229
229
229
229
229
229
229
229
229
229
229
229
229
229
229
229
229
229
229
229
229
229
229
227
227
227
227
226
226
226
226
211
211
211
211
211
211
211
211
211
211
210
210
210
210
209
209
209
208
208
207
207
207
207
207
207
207
207
207
208
208
208
208
209
209
209
209
211
211
210
210
212
212
212
212
212
212
213
213
215
215
215
215
216
216
217
217
218
218
219
219
220
220
220
220
220
219
219
217
217
217
218
218
218
218
217
217
217
217
217
217
217
217
217
217
217
217
217
217
218
218
218
218
221
221
221
221
222
222
221
221
221
219
219
218
218
218
217
217
217
217
218
218
218
217
216
216
216
216
214
213
213
212
213
212
212
211
209
208
208
208
208
207
208
207
207
206
205
205
204
204
202
200
199
198
197
195
194
193
192
189
188
186
186
185
185
184
183
181
178
177
175
174
172
171
170
169
167
165
164
163
163
162
159
157
155
153
152
151
151
150
149
148
146
144
143
142
142
141
141
138
137
136
136
135
134
132
132
132
134
134
134
134
133
133
135
135
134
134
135
135
136
136
136
136
138
138
138
138
139
139
140
141
143
144
148
148
148
146
148
148
149
149
150
150
151
151
154
154
153
153
155
155
155
155
155
155
155
155
155
155
155
155
156
156
156
156
156
156
155
155
155
155
157
157
157
157
158
158
158
158
159
159
159
159
158
158
158
158
159
159
160
160
162
162
163
163
164
164
165
165
166
166
167
167
169
170
170
171
171
172
172
174
175
174
175
175
175
175
176
176
176
176
177
177
178
179
180
180
181
181
182
182
183
184
186
187
188
189
191
192
193
193
195
195
195
197
199
200
201
201
202
202
204
206
207
208
209
209
211
211
211
211
212
212
214
214
215
215
216
216
217
217
218
218
218
218
217
217
218
218
217
217
217
217
218
218
219
219
220
220
220
220
222
222
222
222
223
223
223
223
222
222
222
222
222
222
222
222
222
222
223
223
224
224
225
226
225
225
225
225
225
225
225
225
225
225
225
225
225
225
225
225
225
225
224
224
223
223
222
222
221
221
221
221
220
220
220
220
219
219
219
219
219
219
219
219
218
218
218
217
217
216
216
215
215
214
214
214
212
212
212
210
209
208
208
207
205
204
204
204
203
202
202
201
200
199
198
195
195
193
192
192
192
189
184
182
180
178
173
171
170
172
170
168
165
163
159
156
154
152
150
149
147
146
146
145
143
139
139
136
135
132
131
131
130
130
130
130
130
130
130
130
134
142
147
153
159
164
169
176
183
189
193
197
201
204
210
213
216
216
219
222
223
227
230
230
230
230
231
230
230
229
229
229
228
228
228
228
228
228
229
229
229
229
230
230
230
230
230
230
229
229
229
229
229
229
229
229
230
230
230
230
230
230
230
230
230
230
230
230
230
230
230
230
229
229
229
229
229
229
229
229
229
229
229
229
229
229
229
229
229
229
229
229
229
229
229
229
229
229
229
229
227
227
227
227
226
226
226
226
210
210
210
210
211
211
211
211
211
211
210
210
210
210
209
209
209
208
208
207
207
207
207
207
207
207
207
207
208
208
208
208
209
209
209
209
211
211
210
210
212
212
212
212
212
212
214
213
215
215
215
215
216
216
217
217
218
218
219
219
219
219
219
219
219
219
217
217
217
217
218
218
218
218
217
217
217
217
217
217
217
217
217
217
217
217
217
217
218
218
218
218
221
221
221
221
222
222
221
221
221
219
219
218
218
218
217
217
217
217
218
218
218
217
216
216
216
216
214
213
213
212
213
213
213
212
210
209
209
208
209
209
211
209
209
208
207
207
205
205
204
202
201
200
199
197
195
194
193
192
191
189
187
187
186
186
184
183
181
179
177
176
175
174
174
171
170
167
166
165
165
164
162
159
157
156
155
153
153
152
151
150
149
146
145
144
144
143
143
141
139
138
137
136
135
134
132
132
134
134
134
134
133
133
135
135
134
134
134
133
133
133
133
133
134
134
134
134
136
136
137
138
140
142
148
148
146
145
145
145
146
146
148
148
148
148
150
150
150
150
151
151
150
150
151
151
151
151
151
151
151
151
153
153
151
151
151
151
153
153
153
153
152
152
153
153
155
155
155
155
156
156
156
156
155
155
155
155
156
157
157
158
158
158
159
159
160
160
162
162
163
163
164
164
165
166
166
167
169
170
170
170
171
169
171
171
172
172
174
174
173
173
174
174
176
176
177
177
178
178
178
178
180
181
183
184
185
186
189
190
191
191
192
192
193
194
197
198
198
199
201
201
202
204
206
208
208
209
209
209
209
209
210
210
212
212
213
213
215
215
217
217
217
217
218
218
218
218
218
218
217
217
217
217
218
218
219
219
219
219
220
220
222
222
222
222
223
223
223
223
222
222
222
222
222
222
222
222
222
222
223
223
224
224
226
226
225
225
225
225
225
225
225
225
225
225
225
225
225
225
225
225
225
225
224
224
223
223
222
222
221
221
221
221
220
218
220
220
219
219
219
219
219
219
219
218
217
217
217
216
216
215
215
214
214
212
212
212
212
212
211
208
208
207
205
204
203
202
201
201
200
200
197
197
195
194
193
191
190
189
188
188
188
184
179
177
176
173
169
166
165
166
165
163
159
158
155
151
147
145
143
143
143
143
143
141
139
136
136
133
132
131
131
131
130
130
130
130
130
130
130
130
134
142
147
153
159
164
169
176
183
189
193
197
201
204
210
213
216
217
219
223
227
228
230
230
230
230
231
230
230
229
229
229
228
228
228
228
228
228
229
229
229
229
229
229
229
229
229
229
229
229
229
229
229
229
229
229
230
230
230
230
230
230
230
230
229
229
229
229
229
229
229
229
229
229
229
229
229
229
229
229
229
229
229
229
229
229
229
229
229
229
229
229
229
229
229
229
229
229
229
229
227
227
227
227
226
226
226
226
209
209
210
210
210
210
210
210
210
210
210
210
210
210
210
210
210
208
208
207
207
207
208
208
208
208
209
209
210
210
210
210
211
211
211
211
212
212
212
212
213
213
212
212
212
212
214
214
215
215
215
215
216
216
217
217
217
217
218
218
219
219
219
219
219
218
218
217
217
217
217
217
217
217
217
217
217
217
217
217
217
217
217
217
217
217
217
217
217
217
218
218
219
219
219
219
221
221
220
220
220
220
219
219
219
219
218
218
218
218
218
218
218
218
217
216
216
216
213
213
214
214
214
214
215
213
212
211
212
210
209
209
209
208
208
207
207
207
206
206
205
203
202
201
200
198
197
196
195
194
193
191
189
189
188
188
185
184
183
182
181
179
178
177
177
175
173
171
171
170
168
167
165
163
160
159
158
157
157
156
155
153
152
150
149
148
145
144
144
142
141
139
138
137
136
135
134
134
135
135
135
135
135
134
134
134
133
133
134
133
133
131
132
132
133
133
134
134
134
134
136
136
138
141
143
144
144
144
144
144
145
145
145
145
145
145
146
146
146
146
147
147
146
146
147
147
148
148
148
148
149
149
149
149
150
150
150
150
149
149
149
149
151
151
151
151
151
151
151
151
152
152
152
152
151
151
151
151
152
152
152
152
153
155
155
156
156
156
158
158
158
158
160
160
160
161
162
164
165
166
166
166
165
166
166
167
167
169
171
171
171
171
173
173
173
173
174
174
175
174
177
177
178
181
182
183
184
185
187
188
189
189
191
191
192
193
195
197
197
198
200
200
201
202
205
207
207
208
209
209
209
209
211
211
211
211
213
213
214
214
217
217
217
216
218
217
219
219
219
219
218
218
218
218
218
218
219
219
220
220
222
222
223
223
223
223
224
224
224
224
223
223
223
223
223
223
223
223
223
223
224
224
225
225
226
226
227
227
227
227
226
226
226
226
226
226
226
226
226
226
226
226
226
226
225
225
224
224
223
222
222
220
221
220
218
218
218
218
218
218
219
219
218
218
218
217
217
216
216
215
215
214
214
212
212
210
209
209
210
210
210
207
207
205
205
204
202
200
199
198
196
193
193
192
191
191
188
187
186
185
184
184
181
177
172
171
171
170
165
160
158
157
156
155
153
151
149
146
144
143
141
141
140
140
139
138
137
135
135
133
132
132
132
132
131
131
131
131
131
131
131
131
135
143
148
154
160
164
170
177
184
189
193
198
202
205
211
214
217
218
220
224
228
229
230
230
231
231
231
231
229
229
229
230
229
229
229
229
229
229
229
229
228
228
229
229
229
229
229
229
228
228
228
228
228
228
228
228
229
229
229
229
229
229
229
229
229
229
229
229
229
229
229
229
229
229
229
229
229
229
229
229
229
229
229
229
229
229
229
229
229
229
229
229
229
229
229
229
229
229
229
229
227
227
227
227
226
226
226
226
208
208
209
209
210
210
210
210
210
210
210
210
210
210
210
210
210
208
208
207
207
207
208
208
208
208
209
209
210
210
210
210
211
211
211
211
212
212
212
212
213
213
212
212
212
212
214
214
215
215
215
215
216
216
216
216
216
216
217
217
217
217
217
217
217
217
216
216
217
217
217
217
217
217
217
217
217
217
217
217
217
217
217
217
217
217
217
217
217
217
218
218
219
219
219
219
221
221
220
220
220
220
219
219
219
219
218
218
218
218
218
218
218
218
217
216
216
216
213
213
214
214
215
215
216
214
213
213
213
212
212
212
212
210
210
209
209
209
208
208
207
206
205
203
202
200
200
198
197
196
195
194
191
191
190
190
188
186
185
184
183
182
182
181
181
178
177
174
173
172
172
171
168
166
164
163
162
160
160
159
158
157
156
155
153
152
149
148
148
145
144
143
142
141
139
138
137
137
138
138
138
138
138
137
135
134
134
134
134
133
133
132
133
133
133
133
134
134
134
134
135
135
137
137
137
139
139
141
142
142
143
143
144
144
144
144
146
146
146
146
147
146
145
145
146
146
146
146
146
146
146
146
146
146
146
146
146
146
146
146
146
146
147
147
147
147
148
148
148
148
150
150
150
150
149
149
149
148
149
149
149
149
150
150
152
152
152
152
155
155
154
154
157
157
157
157
159
159
160
160
162
162
160
162
162
163
164
165
167
167
167
167
169
169
170
170
171
171
171
171
173
173
175
177
179
181
181
182
185
186
187
187
188
188
190
191
193
194
194
195
198
198
199
200
202
205
204
206
207
207
207
207
209
209
209
210
212
212
213
213
214
214
216
216
218
218
219
219
219
219
218
218
218
218
218
218
219
219
220
220
222
222
223
223
223
223
224
224
224
224
223
223
223
223
223
223
223
223
223
223
224
224
225
225
226
226
227
227
227
227
226
226
226
226
226
226
226
226
226
226
226
225
225
225
224
224
223
223
222
220
220
219
220
220
218
217
217
217
217
217
217
217
215
215
215
214
214
212
212
211
211
210
210
209
208
207
207
207
206
206
206
204
203
202
202
201
199
198
197
196
193
191
190
189
188
187
186
184
183
182
181
181
177
174
169
168
167
166
162
157
153
152
151
150
149
147
145
144
143
141
140
140
139
138
138
137
136
135
135
133
132
132
132
132
131
131
131
131
131
131
131
131
135
143
148
154
160
164
170
177
184
189
193
198
202
205
211
214
217
218
220
224
228
229
230
230
231
231
231
231
229
229
229
229
229
229
229
229
229
229
229
229
228
228
228
228
228
228
228
228
228
228
228
228
228
228
228
228
229
229
229
229
229
229
229
229
228
228
228
228
228
228
228
228
229
229
229
229
229
229
229
229
229
229
229
229
229
229
229
229
229
229
229
229
229
229
229
229
229
229
229
229
227
227
227
227
226
226
226
226
206
206
208
208
209
209
209
209
209
209
209
209
210
210
210
210
210
209
209
209
209
209
209
209
209
209
209
209
210
210
210
210
211
211
212
212
212
212
212
212
213
213
212
212
212
212
212
212
214
214
214
214
215
215
216
216
216
216
217
217
217
217
217
217
217
217
216
216
216
216
216
216
216
216
217
217
217
217
217
217
217
217
217
217
217
217
217
217
217
217
218
218
218
218
218
218
219
219
219
219
219
219
218
218
218
218
218
218
218
218
218
218
218
218
217
217
217
217
216
216
216
216
218
218
218
218
216
215
217
217
216
215
216
215
215
215
215
215
213
213
213
212
210
209
208
206
205
203
202
200
199
198
196
196
195
195
192
191
190
189
188
186
186
185
185
183
181
179
178
177
177
175
173
171
168
167
166
165
165
164
163
162
162
159
158
158
155
153
153
151
150
149
148
146
145
144
143
143
144
144
144
143
143
141
138
137
137
137
137
136
135
134
134
134
134
134
134
134
134
134
134
135
136
136
137
137
138
139
141
141
142
142
143
143
143
144
145
146
146
146
147
146
145
144
144
145
145
145
145
145
145
145
145
145
145
145
145
145
145
145
145
145
145
145
145
145
146
146
146
146
146
146
146
146
145
145
145
145
145
145
145
145
148
148
150
150
150
150
152
152
152
152
154
154
154
154
155
155
156
156
157
157
157
157
158
158
159
159
160
160
160
160
162
162
163
163
164
165
166
167
170
170
171
174
176
177
178
179
181
182
184
184
185
185
186
187
190
191
191
192
194
194
195
197
199
201
201
202
203
204
206
206
209
209
209
209
211
211
212
212
214
214
216
216
217
217
217
217
218
218
218
218
218
218
218
218
219
219
220
220
220
220
222
222
222
222
223
223
223
223
223
223
223
223
223
223
223
223
223
223
224
224
225
225
226
226
227
227
227
227
226
226
226
226
225
225
225
225
225
225
225
225
225
224
224
224
223
222
222
219
219
218
220
218
218
217
217
216
215
213
213
213
212
212
212
211
210
209
209
208
208
207
207
205
205
203
203
203
203
203
203
200
200
198
198
197
196
195
193
192
190
188
186
185
185
184
183
180
179
178
177
177
174
170
165
164
164
163
158
153
150
149
148
146
145
144
142
141
139
138
137
137
136
136
136
136
135
135
133
133
132
132
132
132
131
129
131
131
131
131
132
132
135
143
148
154
160
164
170
177
184
189
193
198
202
205
211
214
217
218
220
224
228
229
230
230
231
231
231
231
229
229
229
229
229
229
229
229
229
229
229
228
227
227
227
227
227
227
227
227
227
227
227
227
226
226
227
227
227
227
228
228
227
227
227
227
227
227
227
227
227
227
227
227
227
227
227
227
227
227
227
227
227
227
227
227
227
227
227
227
227
227
227
227
227
227
227
227
227
227
227
227
227
227
227
227
226
226
226
226
206
206
208
208
209
209
209
209
209
209
209
209
210
210
210
210
210
209
209
209
209
209
209
209
209
209
209
209
210
210
210
210
211
211
212
212
212
212
212
212
213
213
212
212
212
212
212
212
214
214
214
214
215
215
215
215
215
215
216
216
216
216
216
216
216
216
214
214
216
216
216
216
216
216
217
217
217
217
217
217
217
217
217
217
217
217
217
217
217
217
218
218
218
218
218
218
219
219
219
219
219
219
218
218
218
218
218
218
218
218
218
218
218
218
217
217
217
217
216
216
216
216
218
218
218
218
216
216
217
217
217
217
219
217
217
217
217
217
215
215
215
214
213
212
210
208
208
205
204
203
202
202
199
199
196
197
196
193
193
192
191
190
190
189
189
186
185
182
181
181
179
178
175
174
172
171
170
168
167
166
165
164
164
163
162
162
158
157
157
155
153
152
152
151
150
149
148
148
148
148
148
148
145
144
142
141
139
139
139
139
139
138
138
136
135
134
134
134
134
134
134
134
136
136
135
135
137
138
139
139
141
141
142
142
143
144
145
146
146
146
147
146
145
144
144
145
145
145
145
145
144
144
144
144
143
143
143
143
143
143
143
143
142
142
142
142
143
143
143
143
145
145
145
145
144
144
144
143
144
143
143
143
145
145
148
148
148
148
149
149
150
150
151
151
151
151
152
152
152
152
152
153
155
155
156
156
156
156
157
157
157
157
158
158
159
159
160
162
162
164
166
166
168
170
172
174
174
175
178
179
180
180
182
182
184
185
187
188
188
190
192
192
193
194
197
199
199
200
202
202
204
204
207
207
207
209
211
211
212
212
213
213
215
215
217
217
217
217
218
218
218
218
218
218
218
218
219
219
220
220
220
220
222
222
222
222
223
223
223
223
223
223
223
223
223
223
223
223
223
223
224
224
225
225
226
227
227
227
227
227
226
226
226
226
225
225
225
225
225
225
225
224
224
223
223
223
222
220
220
218
218
217
218
218
217
217
216
215
213
212
211
211
210
210
210
208
208
207
207
205
205
204
204
202
201
200
200
200
199
199
199
196
194
193
193
192
191
190
189
188
185
183
182
180
180
179
178
174
174
172
171
170
167
164
160
158
158
157
153
150
146
145
143
142
140
139
137
135
136
134
133
133
133
133
133
133
133
133
133
133
132
132
132
132
131
129
131
131
131
131
132
132
136
143
148
154
160
164
170
177
184
189
193
198
202
205
211
214
217
218
220
224
228
229
230
230
231
231
231
231
229
229
229
229
229
229
229
229
229
229
229
228
227
227
227
227
227
226
226
226
227
227
227
227
226
226
227
227
227
227
228
228
227
227
227
227
227
227
227
227
227
227
227
227
227
227
227
227
227
227
227
227
227
227
227
227
227
227
227
227
227
227
227
227
227
227
227
227
227
227
227
227
227
227
227
227
226
226
226
226
206
206
206
206
208
208
208
208
208
208
208
208
208
208
208
208
210
210
210
208
209
209
210
210
210
210
210
210
211
211
211
211
212
212
212
212
213
213
213
213
212
212
212
212
211
211
212
212
212
212
213
213
214
214
214
214
214
214
215
215
215
215
216
216
216
216
214
214
214
214
214
214
216
216
216
216
216
216
216
216
216
216
217
217
217
217
217
217
217
217
217
217
218
218
218
218
218
218
218
218
218
218
218
218
218
218
218
218
218
218
218
218
218
218
218
218
218
218
217
217
218
218
218
218
219
218
218
217
218
218
219
220
221
221
221
219
219
219
218
218
217
216
214
213
214
212
211
210
207
205
206
204
204
203
202
201
200
198
196
195
195
194
194
193
193
191
190
189
188
186
184
183
181
179
177
175
174
173
172
170
167
166
166
165
165
165
163
163
163
160
159
158
158
157
156
155
155
153
153
152
152
152
150
147
145
144
144
144
144
143
143
143
143
141
140
138
136
136
135
135
135
135
135
135
137
137
137
138
138
138
139
141
141
142
143
143
145
145
145
145
146
146
145
145
145
144
144
144
144
144
143
143
143
143
143
143
143
143
143
143
143
143
143
143
143
143
144
144
144
144
143
143
143
143
142
142
142
142
142
142
142
142
143
143
142
142
143
143
144
144
144
144
145
145
145
145
145
145
146
146
148
148
149
150
151
151
151
151
152
152
152
153
154
156
156
157
158
159
159
159
162
162
163
165
167
169
170
171
174
176
178
178
179
179
180
182
184
185
185
186
190
190
191
193
198
199
199
199
200
202
203
204
206
206
207
207
210
210
210
210
214
214
216
216
217
217
217
217
218
218
218
218
218
218
218
218
218
219
219
219
220
220
222
222
222
222
222
222
222
222
222
222
222
222
222
222
222
222
223
223
224
224
224
224
225
225
225
225
225
225
225
225
225
225
225
225
225
225
225
225
225
224
223
222
221
220
221
221
220
218
218
217
217
215
215
215
215
213
212
211
211
211
209
209
209
207
205
204
204
203
202
201
201
199
199
196
196
195
195
194
194
191
189
188
188
187
185
184
181
180
178
176
174
173
173
172
171
168
166
164
162
161
157
155
152
151
151
149
146
144
142
141
139
137
135
134
133
133
133
133
133
133
132
132
132
132
133
133
133
133
133
133
133
131
129
129
129
129
131
132
132
132
136
143
147
153
159
164
169
176
183
188
192
197
200
204
210
213
215
217
219
223
226
227
229
229
230
229
229
229
230
230
229
228
229
229
227
227
227
227
227
227
226
225
225
225
225
225
225
225
227
227
227
227
226
226
226
226
226
226
227
227
227
227
227
227
227
227
227
227
226
226
226
226
227
227
227
227
227
227
226
226
228
228
227
227
227
227
227
227
226
226
226
226
226
226
226
226
226
226
226
226
226
226
226
226
227
227
227
227
207
206
206
206
208
208
208
208
208
208
208
208
208
208
208
208
210
210
210
208
209
209
210
210
210
210
210
210
211
211
211
211
212
212
212
212
213
213
213
213
212
212
212
212
211
211
212
212
212
212
213
213
214
214
213
213
213
213
214
214
214
214
214
214
214
214
213
213
214
214
214
214
216
216
216
216
216
216
216
216
216
216
217
217
217
217
217
217
217
217
217
217
218
218
218
218
218
218
218
218
218
218
218
218
218
218
218
218
218
218
218
218
218
218
218
218
218
218
217
217
218
218
218
218
219
218
218
218
218
218
219
220
221
221
221
219
219
219
218
218
217
216
214
213
214
214
214
214
212
210
210
208
207
206
207
205
204
202
201
200
200
199
199
198
198
195
195
192
191
190
190
189
186
184
181
180
179
179
178
174
172
170
168
168
168
167
167
167
167
165
164
163
163
162
160
159
159
158
157
156
156
156
154
152
150
147
147
147
147
147
147
147
147
147
146
143
140
138
138
138
138
138
139
139
139
139
139
139
139
139
141
141
142
142
144
143
146
145
145
145
146
146
145
145
145
145
145
145
144
144
144
144
143
143
142
142
142
142
143
143
143
143
142
142
142
142
143
143
143
143
143
143
143
143
142
142
142
141
142
140
139
139
141
141
138
138
139
139
139
139
139
139
139
139
140
140
140
140
141
141
142
142
143
144
145
145
146
146
147
147
147
149
150
151
151
152
153
155
155
155
157
157
158
160
163
164
165
166
170
171
173
173
176
176
177
178
180
182
182
183
186
186
187
190
193
195
195
196
198
199
200
203
205
205
206
207
210
210
210
210
214
214
214
214
217
217
217
217
218
218
218
218
218
218
218
218
218
218
219
219
220
220
222
222
222
222
222
222
222
222
222
222
222
222
222
222
222
222
223
223
224
224
224
224
225
225
225
225
225
225
225
225
225
225
225
225
225
225
225
225
225
223
222
221
220
218
220
220
218
217
217
215
214
214
212
212
212
211
210
208
207
207
208
208
207
204
203
202
202
201
200
199
199
196
195
193
193
192
192
191
191
187
186
185
184
183
180
179
177
176
173
171
170
169
169
168
166
163
161
158
156
153
151
149
146
146
145
144
142
141
138
137
135
133
133
132
132
132
133
133
133
133
133
133
132
132
133
133
133
133
133
133
133
131
129
129
129
129
131
132
132
132
136
143
147
153
159
164
169
176
183
188
192
197
200
204
210
213
215
217
219
223
226
227
229
229
229
229
229
229
230
230
229
229
228
229
227
227
227
227
227
227
226
225
225
225
225
225
225
225
227
227
227
226
226
226
226
226
226
226
227
227
227
227
227
227
227
227
227
227
226
226
226
226
227
227
227
227
227
227
226
226
228
228
227
227
227
227
227
227
226
226
226
226
226
226
226
226
226
226
226
226
226
226
226
226
227
227
227
227
205
205
205
205
207
207
207
207
207
206
208
208
208
208
209
208
210
210
210
210
210
210
212
212
212
212
210
210
211
211
211
211
212
212
213
213
213
213
213
213
212
212
212
212
211
211
210
210
211
211
212
212
212
212
213
213
213
213
214
214
214
214
214
214
214
214
213
213
213
213
213
213
214
214
216
216
216
216
216
216
216
216
217
217
217
217
217
217
217
217
217
217
217
217
217
217
217
217
217
217
217
217
217
217
217
217
218
218
218
218
218
218
218
218
218
218
218
218
218
218
218
218
219
219
219
219
219
218
219
219
220
220
221
221
221
221
219
219
219
219
218
218
217
216
216
216
215
216
216
215
214
213
212
211
211
210
208
206
206
205
205
204
204
201
201
199
199
197
195
193
195
192
190
189
186
185
182
182
181
179
178
174
174
173
173
173
172
172
172
170
168
167
167
166
165
164
164
163
162
160
160
159
159
157
155
152
152
152
152
152
152
152
152
152
150
148
147
143
143
143
143
143
143
143
143
143
143
143
143
143
144
144
144
144
144
144
145
145
145
145
146
146
145
145
145
145
145
145
144
144
144
144
143
143
142
142
142
142
143
143
143
143
142
142
142
142
143
143
143
143
142
142
142
142
140
140
140
140
140
139
139
139
139
139
138
137
137
137
137
137
137
137
138
138
138
138
138
138
139
139
141
141
142
142
143
143
143
143
144
144
144
145
146
147
147
149
150
151
151
151
153
153
155
157
159
160
162
163
166
167
170
170
172
172
173
174
177
178
178
179
183
183
184
186
190
192
192
193
195
196
198
199
204
204
205
205
207
207
208
209
214
214
214
214
216
216
216
216
217
217
218
218
218
218
218
218
218
218
219
219
219
219
220
220
220
220
220
220
220
220
222
222
222
222
222
222
222
222
223
223
224
224
224
224
225
225
225
225
225
225
225
225
225
225
224
224
224
224
224
224
224
223
222
220
220
218
220
218
218
216
215
214
213
211
210
209
208
207
205
204
203
203
203
203
202
200
198
197
197
196
195
194
194
192
191
188
188
187
187
186
186
183
181
180
179
178
176
174
172
171
169
166
165
164
164
163
162
158
156
153
151
149
146
144
142
142
141
139
137
135
133
132
132
131
131
131
132
132
133
133
133
133
133
133
133
133
133
133
133
133
133
133
133
131
129
129
129
129
131
132
133
133
136
143
147
153
159
164
169
176
183
188
192
197
200
204
210
213
215
217
219
223
226
227
229
229
229
229
229
229
230
230
229
229
228
229
227
227
227
227
227
226
225
224
224
224
224
224
224
224
225
225
225
225
225
225
225
225
225
225
225
225
225
225
225
225
225
225
225
225
225
225
225
225
226
226
226
226
226
226
226
226
225
225
225
225
225
225
225
225
225
225
225
225
225
225
225
225
225
225
225
225
226
226
226
226
227
227
227
227
204
204
204
204
206
206
206
205
206
206
205
205
207
207
207
206
207
208
209
208
208
209
210
210
210
210
210
210
211
211
211
211
212
212
213
213
213
213
213
213
212
212
212
212
211
211
210
210
211
211
211
211
211
211
211
211
212
212
211
211
212
212
212
212
212
212
212
212
213
213
213
213
214
214
216
216
216
216
216
216
216
216
217
217
217
217
217
217
217
217
217
217
217
217
217
217
217
217
217
217
217
217
217
217
217
217
217
217
217
217
217
217
217
217
217
217
217
217
217
217
218
218
218
218
219
219
219
219
219
219
220
220
221
221
221
221
219
219
219
219
218
218
217
217
217
216
216
216
216
216
215
214
213
212
212
212
211
208
208
207
207
206
206
202
202
200
200
198
197
195
195
192
191
190
187
186
184
182
182
182
181
179
178
178
177
177
176
176
176
173
172
171
171
170
168
168
168
167
166
165
165
165
164
162
159
157
157
157
157
157
156
156
156
155
154
152
150
148
146
146
146
146
146
146
146
146
146
146
146
146
146
146
145
145
146
146
146
146
146
146
146
146
145
145
145
145
145
145
144
144
144
144
143
143
142
142
142
142
143
143
143
143
142
142
142
142
143
143
143
143
142
142
142
140
140
139
139
139
138
138
138
138
137
137
136
136
136
136
136
135
135
135
136
136
136
136
137
137
137
137
138
138
139
139
141
140
140
140
143
143
143
144
145
146
145
146
149
150
150
150
152
152
153
156
158
159
160
162
165
166
167
169
171
171
172
173
176
177
177
178
182
182
183
185
188
191
191
189
192
193
196
198
202
202
203
204
206
206
207
208
210
211
211
212
214
213
213
213
214
215
216
216
217
217
217
217
218
218
218
218
218
218
219
219
219
219
219
219
219
219
220
220
220
220
222
222
222
222
222
222
223
223
223
223
223
223
224
224
224
224
224
224
224
224
223
223
223
223
223
223
223
221
220
218
217
217
218
217
217
214
214
213
212
210
208
205
204
203
201
200
199
199
200
198
197
194
193
192
192
191
191
189
189
187
186
185
184
184
183
181
181
178
177
176
174
173
172
171
169
167
165
163
162
160
159
158
156
152
150
146
144
143
141
139
137
137
137
135
133
132
131
128
128
128
130
131
132
131
132
131
132
132
132
132
132
132
133
133
133
133
133
133
133
131
129
129
129
129
131
132
133
133
135
140
145
151
157
162
166
173
182
188
192
197
200
204
210
213
214
215
218
222
225
226
229
229
229
229
229
229
230
230
229
229
228
228
227
227
227
227
227
226
225
224
224
224
224
224
224
224
224
224
224
224
224
224
224
224
224
224
224
224
224
224
224
224
224
224
224
224
224
224
225
225
225
225
226
226
226
226
226
226
225
225
224
224
224
224
224
224
224
224
224
224
224
224
224
224
224
224
224
224
225
225
225
225
226
226
226
226
203
203
204
204
204
204
204
204
204
204
204
204
205
205
205
205
206
206
207
207
208
208
210
210
210
210
211
211
212
212
212
212
213
213
215
215
215
214
213
213
212
212
211
211
209
209
209
209
209
209
209
209
209
209
209
209
209
209
211
211
211
211
212
212
212
212
210
210
212
212
212
212
214
214
214
214
216
216
215
215
216
216
217
217
217
217
217
217
217
217
217
217
217
217
217
217
217
217
217
217
217
217
217
217
217
217
217
217
217
217
216
216
217
217
216
216
217
217
216
216
218
218
218
218
219
219
219
219
219
219
220
220
220
220
220
220
220
220
219
219
219
218
218
218
218
217
217
217
217
217
216
216
216
216
213
213
213
210
209
208
208
207
207
206
204
202
201
200
199
198
195
193
191
189
188
187
186
185
185
184
184
182
181
180
178
178
178
178
177
176
174
173
173
173
173
172
172
171
170
168
168
170
168
167
165
162
162
162
162
162
161
161
161
160
159
157
153
152
152
152
152
152
151
151
151
151
151
151
151
151
151
151
151
151
151
151
151
151
150
150
151
150
149
148
145
145
145
145
144
144
144
144
143
143
142
142
142
142
143
143
143
143
142
142
142
142
142
142
142
142
140
140
140
140
139
139
139
138
138
137
136
136
135
135
134
134
134
133
133
133
133
132
131
131
131
131
132
132
133
133
133
133
135
135
136
136
136
136
139
140
142
142
144
144
145
145
146
147
149
149
151
151
152
153
155
156
157
158
160
162
164
165
169
170
171
172
174
176
176
177
180
180
182
184
187
187
188
188
191
192
194
195
199
200
202
203
205
205
206
206
209
209
210
210
212
212
212
212
213
213
215
215
217
217
217
217
217
217
218
218
218
218
219
219
219
219
219
219
219
219
221
221
221
221
221
221
221
221
222
222
222
222
222
222
222
222
223
223
223
223
223
223
223
223
221
221
221
221
222
222
222
220
218
217
217
217
215
216
214
213
213
211
209
207
205
203
202
200
199
197
197
196
195
193
192
190
188
187
187
186
186
185
185
183
182
179
179
178
178
177
176
173
172
170
169
167
166
166
165
163
159
157
156
156
152
150
146
142
139
138
135
134
134
133
133
133
133
133
133
133
131
128
127
127
128
130
131
131
131
130
131
131
131
131
132
132
132
132
132
132
132
132
132
132
130
129
130
130
132
132
132
131
133
139
143
149
155
160
165
172
179
186
191
194
198
202
207
211
214
215
218
221
225
226
227
227
228
228
230
230
230
230
229
229
229
229
228
227
227
227
227
226
225
224
224
224
224
224
224
224
224
224
224
224
224
224
224
224
224
224
224
224
224
224
224
224
224
224
224
224
224
224
224
224
225
225
225
225
225
225
224
224
224
224
224
224
224
224
224
224
224
224
224
224
224
224
224
224
224
224
224
224
225
225
225
225
226
226
226
226
202
201
203
203
203
203
203
203
203
203
203
202
204
204
204
204
205
205
206
206
208
207
208
208
210
210
210
210
212
212
212
212
213
213
215
215
215
214
213
213
212
212
211
211
209
209
209
209
209
209
208
208
208
208
208
208
208
208
208
208
208
208
208
208
209
209
209
209
212
212
212
212
214
214
214
214
216
216
215
215
216
216
217
217
217
217
217
217
217
217
217
217
217
217
217
217
217
217
217
217
217
217
217
217
217
217
216
216
216
216
215
215
216
216
215
215
216
216
215
215
217
217
218
218
219
219
219
219
219
219
220
220
220
220
220
220
220
220
219
219
219
218
219
219
219
218
218
217
217
217
216
216
216
216
214
214
214
212
211
209
209
209
209
209
208
206
204
202
202
201
198
196
193
189
189
189
191
188
188
185
184
184
184
182
181
180
179
179
179
178
177
176
176
176
176
176
176
174
173
172
172
173
173
172
171
168
168
168
168
168
168
168
168
168
166
162
159
157
157
157
157
157
157
157
157
157
157
157
157
157
157
157
157
157
157
157
157
157
157
157
157
157
155
151
149
148
146
146
144
144
144
144
143
143
142
142
142
142
143
143
143
143
142
142
142
142
142
142
142
142
140
140
140
139
139
138
138
138
137
137
136
136
134
134
133
133
132
131
131
129
129
128
127
127
128
128
128
128
129
129
129
129
130
130
131
131
132
133
135
136
138
139
140
140
142
142
143
144
145
146
148
148
149
150
151
152
153
155
157
158
160
162
164
165
166
167
170
171
171
172
176
176
177
179
184
185
186
186
189
191
193
194
198
199
200
202
204
204
205
206
208
209
208
209
210
211
210
210
212
212
213
213
216
216
216
216
217
217
217
217
217
217
218
218
218
218
218
218
218
218
219
219
219
219
219
219
219
219
219
219
219
219
219
219
219
219
219
219
219
219
219
219
219
219
218
218
218
218
218
218
218
216
214
213
213
213
213
213
212
211
209
208
206
203
202
199
198
197
196
193
193
192
191
190
189
186
185
184
183
181
182
180
180
179
178
176
176
175
174
173
172
169
167
165
164
162
161
159
158
156
152
150
149
148
144
139
135
133
132
132
131
131
132
132
132
132
133
133
133
134
133
133
130
127
128
130
131
130
130
128
130
130
130
130
131
131
132
132
132
132
132
132
132
132
130
129
130
130
132
132
132
131
132
138
142
148
154
159
164
171
176
182
188
192
195
199
205
209
211
212
214
218
222
223
225
226
227
228
230
230
230
230
229
229
229
229
228
228
227
227
227
226
225
224
224
224
224
224
224
224
223
223
223
223
223
223
223
223
223
223
223
223
223
223
223
223
223
223
223
223
223
223
224
224
224
224
225
225
225
225
224
224
224
224
223
223
223
223
223
223
223
223
223
223
223
223
223
223
223
223
223
223
224
224
224
224
225
225
225
225
202
202
203
203
203
203
203
203
203
203
203
203
203
203
204
204
205
205
206
206
207
207
208
208
209
209
210
210
212
212
212
212
213
213
215
215
215
214
213
213
212
212
211
211
209
209
209
209
209
210
208
208
208
208
208
208
208
208
209
209
209
208
208
208
210
210
209
210
212
212
212
212
214
214
215
215
216
216
216
216
216
216
217
217
217
217
217
217
217
217
217
217
217
217
217
217
217
217
217
217
217
217
217
217
217
217
216
216
216
216
215
215
216
216
215
215
216
216
216
216
217
217
218
218
219
219
219
219
219
219
220
220
220
220
220
220
220
220
220
220
220
220
220
220
220
220
219
219
219
219
218
218
217
217
218
218
217
214
213
212
212
212
212
212
211
209
208
206
205
204
201
200
198
193
192
193
192
192
192
188
187
185
186
185
185
182
183
181
181
180
179
178
178
178
178
178
178
177
175
174
175
175
175
174
174
172
172
172
172
172
172
172
172
172
171
169
166
163
163
163
163
163
163
163
163
163
163
163
163
163
162
162
162
162
162
162
162
162
162
162
162
162
159
157
155
151
150
148
145
145
145
145
144
144
143
143
143
143
144
144
144
144
143
143
143
143
143
143
143
143
141
141
141
140
140
139
139
139
138
138
137
137
136
136
135
133
132
131
131
130
130
128
128
128
128
128
128
128
128
128
128
128
129
129
130
130
131
131
133
135
136
137
138
138
139
139
140
142
143
144
145
145
146
148
149
150
151
152
155
156
157
158
160
162
163
164
166
167
167
169
172
172
173
177
182
183
185
185
188
191
192
193
196
198
199
200
203
203
203
206
208
209
208
208
210
211
210
210
212
212
213
213
216
216
216
216
217
217
217
217
217
217
218
218
218
218
218
218
218
218
219
219
219
219
219
219
219
219
219
219
219
219
219
219
219
219
219
219
219
219
219
219
219
219
218
218
218
218
218
217
217
215
213
212
211
211
210
209
207
206
205
203
201
199
197
195
194
193
191
189
189
188
186
185
184
182
180
179
178
177
177
176
176
175
173
171
171
170
170
169
167
164
163
160
158
156
153
151
149
146
143
141
139
138
135
133
131
131
131
131
131
131
132
132
132
132
133
133
133
133
133
134
133
130
130
131
131
130
130
128
130
130
130
130
131
131
132
132
132
132
132
132
132
132
130
130
130
130
132
133
133
132
133
138
142
147
153
158
162
168
173
179
186
191
195
198
204
207
210
211
213
217
221
222
224
225
227
228
229
229
230
230
229
229
228
228
227
227
227
227
227
226
225
225
225
225
225
225
224
224
224
224
223
223
223
223
223
223
223
223
223
223
223
223
223
223
223
223
223
223
222
222
224
224
224
224
225
225
225
225
224
224
224
224
223
223
223
223
223
223
223
223
223
223
223
223
223
223
222
222
222
222
224
224
224
224
225
225
225
225
202
202
203
203
203
203
203
203
203
203
202
202
202
202
203
203
204
204
204
204
205
205
207
208
208
209
208
209
210
210
210
210
211
211
212
212
212
212
212
212
211
211
211
211
210
210
209
209
210
210
208
208
208
208
208
208
208
208
209
209
209
209
208
208
210
210
209
210
212
212
212
212
214
214
215
215
216
216
216
216
216
216
217
217
217
217
217
217
217
217
217
217
217
217
217
217
217
217
217
217
217
217
217
217
217
217
216
216
216
216
215
215
216
216
215
215
216
216
216
216
217
217
218
218
219
219
219
219
219
219
220
220
220
220
220
220
220
220
220
220
220
220
220
220
220
220
219
219
219
219
218
218
218
218
218
218
217
215
213
212
212
212
212
212
211
211
211
208
207
206
204
202
200
198
196
195
194
193
193
191
189
188
188
187
186
184
184
184
184
183
181
181
181
181
181
181
181
180
179
178
178
179
179
179
178
177
175
175
175
175
176
176
176
176
175
173
172
169
167
166
166
166
165
165
165
165
164
164
164
164
165
165
165
165
164
164
164
163
164
163
163
163
163
162
159
157
156
152
150
148
145
145
145
145
144
144
144
144
145
144
144
144
143
143
143
143
144
144
144
144
142
142
142
141
142
140
140
140
139
139
138
138
137
137
136
135
133
132
132
131
131
129
129
129
128
128
128
128
128
128
128
128
128
128
129
129
130
130
132
132
133
135
137
137
137
137
139
139
142
144
145
145
146
146
148
149
150
151
155
156
156
157
157
158
159
160
163
164
164
165
169
169
170
173
178
182
181
184
187
189
191
192
195
196
198
199
202
202
202
205
206
207
207
207
208
209
209
210
212
212
212
212
215
215
215
214
215
215
216
216
216
216
217
217
217
217
217
217
217
217
218
218
218
218
218
218
218
218
218
218
218
218
218
218
218
218
218
218
218
218
218
218
218
218
217
217
217
217
216
216
216
213
212
210
209
208
206
206
202
200
199
198
197
196
195
192
190
188
188
184
183
182
181
181
179
177
176
174
173
172
171
170
170
169
168
166
165
165
163
163
160
158
157
155
151
150
146
144
141
138
134
132
131
131
131
131
131
131
131
131
131
131
132
132
133
133
134
134
134
134
134
134
134
133
133
132
132
131
131
130
131
131
130
130
131
131
132
132
132
131
131
131
131
131
130
130
130
130
132
133
133
132
134
138
141
146
151
157
161
167
172
177
183
189
192
196
201
205
207
208
211
214
218
219
223
223
225
226
228
228
229
229
229
229
227
227
227
227
227
227
227
226
225
225
225
225
225
225
224
224
224
224
223
223
223
223
223
223
223
223
223
223
223
223
223
223
223
223
223
223
222
222
224
224
223
223
224
224
224
224
224
224
223
223
222
222
222
222
222
222
222
222
222
222
222
222
222
222
222
222
222
222
224
224
224
224
225
225
225
225
203
203
202
202
202
202
202
202
202
202
202
202
202
202
203
203
203
203
203
203
204
204
205
205
205
205
208
208
209
209
209
209
210
210
210
210
211
211
211
211
210
210
210
210
209
208
208
208
208
209
207
207
208
207
207
207
207
207
208
208
208
208
208
208
210
210
211
211
213
213
213
213
214
214
215
215
216
216
216
216
216
216
217
217
217
217
217
217
217
217
217
217
217
217
217
217
217
217
217
217
217
217
217
217
217
217
216
216
216
216
215
215
215
215
216
216
216
216
216
216
217
217
217
217
218
218
218
218
218
218
219
219
219
219
219
219
220
220
220
220
221
221
221
221
221
220
220
219
220
220
219
219
220
220
218
218
218
216
214
213
213
213
213
212
212
210
209
209
207
206
205
204
201
200
199
196
196
194
194
192
191
191
188
187
187
186
187
186
187
187
187
186
186
186
186
186
186
186
186
186
186
186
185
185
185
185
184
184
184
184
183
183
183
183
181
180
179
175
172
172
172
172
171
171
171
171
169
169
169
169
170
170
169
169
169
169
167
166
166
166
166
166
166
166
165
164
162
159
155
152
150
150
150
150
149
149
149
148
148
148
148
148
146
146
146
146
146
146
146
146
145
145
145
145
144
144
144
143
143
142
142
142
141
139
137
136
136
135
134
132
131
131
130
128
128
127
127
127
127
127
127
127
127
127
128
128
129
129
131
131
132
133
136
136
137
137
138
138
142
144
145
145
145
146
148
148
149
151
153
155
155
156
156
157
158
159
162
163
163
164
167
167
169
171
174
176
178
179
182
185
186
187
191
192
193
194
196
196
198
199
202
202
204
205
205
206
207
208
210
210
212
212
213
213
213
213
214
214
216
216
216
216
216
216
216
216
216
216
216
216
218
218
218
218
218
218
218
218
218
218
218
218
218
218
218
218
218
218
218
218
218
218
218
218
217
217
217
215
214
214
214
212
211
209
206
205
203
202
199
196
194
193
192
192
192
189
185
184
182
181
178
174
175
174
172
171
170
169
166
165
165
164
163
161
159
157
157
156
156
155
153
150
149
146
144
144
141
138
134
131
128
128
128
127
128
128
130
131
132
132
133
133
134
135
135
135
137
137
137
137
137
137
138
137
138
138
138
137
137
136
136
134
133
131
131
131
131
131
131
131
130
129
130
130
129
129
131
131
133
134
136
137
135
139
141
145
150
154
159
166
170
174
181
186
191
195
199
204
206
209
210
213
217
219
222
223
224
225
227
227
227
227
228
228
227
227
227
227
227
227
227
227
227
225
225
225
225
225
224
224
224
224
223
223
223
223
223
223
223
223
223
223
222
222
222
222
222
222
222
222
222
222
222
222
222
222
222
222
222
222
221
221
221
221
222
222
221
221
222
222
221
221
221
221
221
221
221
221
221
221
221
221
222
222
222
222
224
224
224
224
203
203
202
202
202
202
202
202
202
202
200
200
200
200
202
202
201
201
202
202
203
203
204
204
205
205
205
205
208
208
207
207
208
208
209
209
210
210
210
210
210
210
209
209
209
209
208
208
209
209
207
207
208
208
207
207
207
207
208
208
208
208
208
208
210
210
211
211
213
213
213
213
214
214
215
215
216
216
216
216
216
216
217
217
217
217
217
217
217
217
217
217
217
217
217
217
217
217
217
217
217
217
217
217
217
217
216
216
216
216
215
215
215
215
216
216
216
216
216
216
217
217
217
217
218
218
218
218
218
218
219
219
219
219
219
219
220
220
220
220
221
221
221
221
221
220
220
219
220
220
220
220
220
220
219
219
218
217
215
214
214
213
213
212
212
210
209
208
206
206
205
204
202
201
200
198
198
198
197
194
192
191
190
190
190
188
190
190
191
191
191
191
191
191
191
191
191
191
191
191
191
191
191
191
191
191
191
191
191
191
190
190
190
190
188
187
186
182
180
180
180
180
179
179
179
179
178
178
178
178
178
178
177
177
176
176
174
173
172
171
171
171
171
171
171
171
169
165
162
159
157
157
157
157
156
156
156
155
155
153
153
153
152
152
152
152
153
153
153
153
152
152
152
152
151
151
151
150
150
149
149
148
145
143
141
139
138
137
136
135
132
134
132
129
128
127
126
126
126
126
126
126
126
126
127
127
128
128
130
130
131
132
135
135
136
136
137
137
138
141
144
145
145
145
146
146
148
150
153
155
155
156
156
157
158
159
160
162
163
164
165
165
166
169
172
173
175
175
179
181
182
184
187
188
189
191
193
193
194
196
197
199
199
201
200
201
202
205
207
209
209
208
210
210
210
210
211
211
212
212
212
212
213
213
213
213
213
213
213
213
214
214
214
214
214
214
214
214
214
214
214
214
214
214
214
214
214
214
214
214
215
215
215
215
213
213
213
212
211
211
211
209
207
205
203
202
200
199
196
193
192
191
189
189
188
185
180
178
178
175
170
167
168
168
167
165
164
163
161
159
158
157
156
153
152
150
150
149
149
148
146
143
142
139
138
138
134
131
128
126
126
126
126
127
128
130
131
132
133
134
137
137
138
139
141
141
141
141
141
141
141
141
143
141
143
143
143
141
141
140
140
140
139
135
134
132
131
131
132
131
130
129
129
129
130
130
131
131
133
134
136
137
136
139
140
143
147
153
158
165
169
172
177
183
189
192
197
202
205
207
210
212
214
217
220
222
223
224
226
226
226
226
227
227
227
227
227
227
227
227
227
227
227
225
225
225
225
225
224
224
224
224
223
223
223
223
223
223
223
223
223
223
222
222
222
222
222
222
222
222
222
222
222
222
221
221
221
221
221
221
221
221
220
220
221
221
220
220
221
221
220
220
220
220
220
220
220
220
221
221
221
221
222
222
222
222
224
224
224
224
203
203
202
202
202
202
202
202
202
202
200
200
200
200
202
202
201
201
202
202
202
202
203
203
204
204
205
205
208
208
207
207
208
208
209
209
210
210
210
210
210
210
209
209
209
209
209
209
209
209
208
208
208
208
207
207
207
207
209
209
209
209
210
210
211
211
212
213
214
214
214
214
214
214
216
216
216
216
216
216
216
216
217
217
217
217
217
217
217
217
217
217
217
217
217
217
217
217
217
217
217
217
217
217
217
217
217
217
217
217
217
217
217
217
217
217
217
217
217
217
217
217
218
218
218
218
218
218
218
218
219
219
219
219
219
219
220
220
221
221
222
222
221
221
221
221
220
220
221
221
221
221
221
221
220
220
220
219
218
217
217
216
215
214
213
212
211
208
207
206
207
206
206
202
201
200
200
200
200
198
194
193
193
192
192
192
192
192
193
193
193
193
193
193
193
193
193
193
193
193
193
193
193
193
193
193
193
193
193
193
193
193
193
193
192
190
189
187
187
188
188
188
187
187
187
187
186
186
186
186
185
185
184
184
183
183
182
179
178
177
177
177
177
177
177
177
174
171
169
165
163
163
163
163
162
162
162
160
160
159
159
159
158
158
158
158
159
159
159
159
157
157
158
158
157
157
157
156
156
155
155
155
152
149
145
143
142
139
138
137
135
134
133
131
130
127
126
126
127
127
127
127
127
127
128
128
129
129
131
131
132
132
135
135
136
136
137
137
137
138
141
144
144
144
145
145
146
149
151
152
153
155
155
156
157
158
159
159
159
159
160
160
162
164
167
169
170
170
174
177
178
179
182
184
185
186
188
188
189
192
193
194
194
195
196
198
197
200
203
205
205
205
206
206
206
206
207
207
209
209
209
209
209
209
209
209
209
209
209
209
211
211
211
211
211
211
211
211
212
212
212
212
212
212
212
212
212
212
212
212
212
212
212
212
211
211
211
210
209
208
208
205
203
201
200
199
196
195
193
191
189
188
187
186
182
178
173
171
170
168
163
160
161
161
160
158
157
156
153
152
151
150
149
146
145
143
143
142
142
141
139
135
134
132
131
131
128
126
126
126
125
126
126
127
128
130
132
134
138
139
143
143
144
145
146
146
147
147
147
147
148
148
149
148
149
149
149
148
147
146
146
145
145
142
139
135
135
135
135
134
133
131
131
133
130
130
131
131
133
135
136
137
139
140
140
142
146
152
156
162
168
171
175
180
186
191
194
199
204
206
208
210
214
217
220
222
223
224
226
226
226
226
227
227
227
227
227
227
227
227
227
227
227
227
227
227
227
227
225
225
224
224
224
224
224
224
224
224
224
224
224
224
224
224
224
224
223
223
223
223
223
223
223
223
221
221
221
221
221
221
221
221
220
220
221
221
220
220
221
221
220
220
220
220
220
220
220
220
222
222
222
222
223
223
223
223
224
224
224
224
203
203
202
202
202
202
202
202
202
202
200
200
200
200
202
202
201
201
201
202
202
202
203
203
204
204
204
204
205
205
205
205
207
207
207
207
208
209
208
208
208
208
208
208
208
208
208
208
208
208
208
208
208
208
207
207
207
207
209
209
209
209
210
210
211
211
212
213
214
214
214
214
214
214
216
216
216
216
216
216
216
216
217
217
217
217
217
217
217
217
217
217
217
217
217
217
217
217
217
217
217
217
217
217
217
217
217
217
217
217
217
217
217
217
217
217
217
217
217
217
217
217
218
218
218
218
218
218
218
218
219
219
219
219
219
219
220
220
221
221
222
222
221
221
221
221
220
220
221
221
221
221
221
221
220
220
220
219
218
217
217
216
215
214
213
212
211
208
207
206
207
206
206
202
201
200
200
200
200
199
197
195
195
194
192
192
193
193
194
194
194
194
194
194
195
195
195
195
195
195
194
194
195
196
195
195
195
194
194
194
194
194
194
194
193
192
192
190
192
192
192
192
192
192
192
192
191
191
191
191
189
188
188
187
187
186
186
184
182
181
181
181
180
180
180
180
179
177
175
172
170
170
170
170
169
169
169
167
167
166
166
166
165
165
165
165
165
165
165
165
163
163
164
164
163
163
163
162
162
160
160
160
158
155
152
149
146
144
142
139
138
138
137
134
133
131
130
128
128
128
128
128
128
128
128
128
130
130
131
131
131
132
134
135
135
135
135
136
137
137
138
141
141
141
142
142
143
145
148
149
150
151
152
153
155
155
156
157
156
155
156
156
156
157
159
163
165
166
169
170
172
173
177
179
179
180
182
184
183
185
188
188
189
189
192
193
193
195
199
202
203
203
204
204
204
204
205
205
205
205
205
205
206
206
206
206
206
206
206
206
207
207
209
209
208
208
208
208
210
210
210
210
211
211
211
211
211
211
211
211
211
211
211
211
210
210
210
209
208
207
207
203
202
200
199
198
195
194
192
189
188
186
184
181
178
173
169
165
165
162
158
154
154
154
153
152
151
150
148
146
145
143
142
139
138
137
135
135
133
133
131
130
127
126
125
125
125
125
126
126
125
126
126
127
130
131
133
135
139
142
146
146
148
149
150
150
151
151
151
151
152
152
153
152
153
153
153
152
152
151
149
149
149
146
144
142
140
139
139
138
136
135
134
134
131
130
131
131
133
135
136
137
138
139
139
141
145
151
155
161
165
170
172
177
183
189
192
197
200
205
207
208
211
215
219
220
222
224
226
226
226
226
226
226
227
227
227
227
227
227
227
227
227
227
227
227
227
227
225
225
224
224
224
224
224
224
224
224
224
224
224
224
224
224
224
224
223
223
223
223
223
223
223
223
221
221
221
221
221
221
221
221
220
220
219
219
219
219
219
219
219
219
219
219
219
219
220
220
220
220
220
220
222
222
222
222
222
222
223
223
203
203
202
202
202
202
201
201
201
201
202
202
202
202
202
202
202
201
202
201
201
201
202
202
202
202
203
203
204
204
204
204
206
206
206
206
207
207
206
206
206
206
207
207
207
207
207
207
208
208
208
208
208
208
208
208
209
209
209
209
210
210
211
211
212
212
213
214
215
215
215
215
215
215
216
216
216
216
216
216
216
216
217
217
217
217
216
216
216
216
217
217
217
217
217
217
217
217
217
217
217
217
217
217
217
217
217
217
217
217
216
216
217
217
216
216
217
217
217
217
217
217
218
218
218
218
218
218
218
218
219
219
219
219
219
219
221
221
220
220
222
222
222
222
222
222
222
222
222
222
223
223
223
223
222
222
220
219
219
218
218
217
217
216
214
213
212
210
209
209
207
207
207
204
202
201
201
201
201
200
199
197
198
198
198
197
196
198
198
199
199
199
200
200
200
200
202
202
202
202
202
202
202
202
201
201
201
200
200
200
200
200
200
200
199
199
196
196
196
196
196
196
196
197
197
197
196
196
196
196
194
193
193
192
192
191
191
188
187
187
187
187
186
186
186
186
185
182
181
178
175
175
175
175
174
174
174
173
173
172
172
172
170
170
170
170
172
172
172
172
171
171
170
169
170
169
169
169
168
168
168
167
164
162
158
155
152
150
146
144
144
143
143
142
141
138
135
134
133
133
132
131
131
130
130
130
131
131
133
133
132
132
133
133
134
135
134
135
135
137
138
138
139
139
142
142
143
144
146
146
149
151
151
152
153
155
155
155
153
153
153
152
153
155
157
158
160
162
166
167
167
169
172
174
175
176
179
180
180
181
183
185
186
187
189
189
190
191
195
197
198
199
203
203
203
203
204
204
203
203
204
204
205
205
205
205
205
205
205
205
206
206
206
206
206
206
206
206
206
206
206
206
207
207
207
207
207
207
207
207
207
207
207
207
207
207
207
205
203
202
202
200
199
197
195
194
192
191
190
188
185
183
178
176
171
167
163
159
159
156
152
148
146
146
146
145
145
145
143
140
138
136
134
132
131
128
128
127
127
126
125
124
123
123
124
124
125
126
126
126
128
129
130
131
132
133
136
139
143
145
149
149
150
151
153
153
154
156
156
158
157
158
159
159
160
160
159
158
156
155
154
155
153
152
150
148
145
143
142
140
140
139
136
134
134
131
132
132
133
133
135
135
138
138
139
140
143
149
154
161
164
168
171
175
181
186
191
195
200
204
206
209
209
213
215
219
222
224
225
225
225
225
226
226
227
227
227
227
227
227
227
227
226
226
227
227
227
227
227
227
225
225
224
224
224
224
224
224
224
224
224
224
224
224
222
222
222
222
221
221
221
221
221
221
220
220
220
220
220
220
219
219
219
219
219
219
219
219
219
219
219
219
219
219
219
219
219
219
219
219
221
221
222
222
222
222
222
222
223
223
203
203
202
202
202
202
201
201
201
201
202
202
202
202
202
202
202
201
202
201
201
201
202
202
202
202
202
202
203
203
202
202
204
204
204
204
205
205
204
204
204
204
206
206
205
205
205
205
207
207
208
208
208
208
208
208
209
209
209
209
210
210
211
211
212
212
213
214
215
215
215
215
215
215
216
216
216
216
216
216
216
216
217
217
217
217
217
217
217
217
217
217
218
218
218
218
218
218
217
217
217
217
217
217
217
217
217
217
217
217
216
216
217
217
216
216
218
218
218
218
218
218
218
218
218
218
218
218
218
218
219
219
219
219
219
219
221
221
222
222
223
223
223
223
223
223
223
223
223
223
223
223
223
223
222
222
220
219
219
218
218
217
217
216
216
213
212
210
209
209
208
208
207
206
205
204
204
204
204
204
204
201
202
200
202
201
203
204
204
204
204
204
205
205
206
206
207
207
207
207
207
207
208
208
208
208
207
207
209
209
206
206
206
206
206
206
204
204
204
204
203
203
201
201
201
201
200
200
200
200
199
198
198
197
196
195
195
194
193
193
193
193
192
192
192
192
191
188
187
184
181
181
181
181
180
180
180
179
179
178
178
178
177
177
177
177
177
177
177
177
176
176
175
174
174
173
174
174
172
172
172
172
170
168
164
162
158
155
152
150
150
150
150
149
148
145
143
142
141
141
139
138
137
135
135
135
135
135
137
137
137
137
138
138
138
138
138
138
137
135
137
138
138
138
141
141
142
143
144
144
145
148
148
150
151
152
153
153
152
151
150
150
152
155
156
156
158
159
161
162
164
165
167
169
173
174
177
178
178
179
181
183
183
185
187
188
188
188
192
193
193
195
199
200
200
200
200
200
200
200
200
200
202
202
202
202
202
202
202
202
203
203
203
203
202
202
202
202
202
202
202
202
204
204
204
204
204
204
204
204
204
204
204
204
203
203
203
202
200
199
199
196
195
193
192
191
188
187
186
185
182
178
173
170
166
164
159
156
155
153
148
145
142
142
142
141
139
138
137
135
133
131
129
127
126
124
124
123
123
122
123
122
122
122
124
124
125
126
128
128
130
131
133
135
136
138
141
143
148
149
152
152
153
155
157
157
158
159
161
161
163
163
165
164
165
165
164
163
161
160
159
159
158
156
153
151
150
147
145
143
141
141
140
136
137
134
133
132
133
133
135
135
136
136
138
139
142
147
153
159
162
165
169
174
178
183
189
192
197
202
205
207
208
209
212
215
218
221
224
225
225
225
226
226
226
226
227
227
227
227
227
227
226
226
227
227
227
227
227
227
225
225
224
224
224
224
224
224
224
224
224
224
224
224
222
222
222
222
221
221
221
221
221
221
220
220
220
220
220
220
219
219
219
219
218
218
218
218
218
218
218
218
218
218
218
218
218
218
219
219
219
219
221
221
221
221
221
221
222
222
203
203
202
202
202
202
201
201
201
201
202
202
202
202
202
202
202
201
202
201
201
201
201
201
201
201
202
202
202
202
201
201
204
204
204
204
205
205
204
204
204
204
205
205
205
205
205
205
206
206
207
207
207
207
208
208
208
208
210
210
211
211
212
212
214
214
214
215
217
217
216
216
217
217
216
216
217
217
217
217
217
217
218
218
218
218
217
217
217
217
218
218
218
218
218
218
218
218
218
218
218
218
218
218
218
218
219
219
219
219
219
219
219
219
219
219
219
219
219
219
219
219
219
219
219
219
219
219
219
219
221
221
221
221
221
221
222
222
222
222
223
223
223
223
223
223
223
223
223
223
224
224
224
224
223
223
222
220
221
219
219
218
218
217
217
214
213
212
212
212
210
210
209
207
206
204
206
206
206
206
207
206
205
202
205
202
206
207
207
207
206
206
207
207
208
208
209
209
209
209
209
210
210
211
211
211
211
211
211
211
210
210
210
210
209
209
208
208
207
207
206
206
206
206
206
206
205
205
205
205
203
202
202
201
202
200
200
199
198
198
198
198
197
197
197
197
196
193
192
189
186
186
186
186
185
185
185
184
184
182
182
182
181
181
181
181
181
181
181
181
180
180
180
179
179
178
178
178
177
177
177
177
175
172
170
168
165
162
158
156
155
156
156
155
153
151
149
148
146
146
145
144
143
142
142
142
141
141
142
142
142
142
143
143
143
143
143
142
142
138
138
137
138
138
141
141
142
143
144
144
144
144
145
148
148
149
151
152
149
149
149
149
150
151
155
153
155
157
158
159
160
162
165
166
168
171
173
174
175
178
179
180
181
182
185
185
186
187
189
189
191
193
194
196
196
196
196
196
196
196
196
196
198
198
198
198
198
198
198
198
199
199
199
199
199
199
199
199
200
200
200
200
202
202
202
202
202
202
202
202
202
202
202
202
201
201
201
200
198
196
196
194
193
191
190
188
186
185
184
183
179
176
171
167
164
162
157
153
153
151
146
143
139
139
138
135
135
132
131
130
128
127
127
125
124
121
121
120
120
119
120
119
120
122
124
124
125
126
130
131
133
136
139
140
142
143
147
149
153
155
158
158
159
161
163
163
163
165
167
167
169
169
171
170
171
171
170
169
167
166
165
165
164
162
159
157
154
152
150
146
146
143
141
140
140
136
135
133
133
133
135
135
136
136
138
140
142
147
153
159
161
164
168
171
175
181
186
191
195
199
204
206
207
208
210
213
215
217
221
224
225
225
226
226
226
225
226
226
226
226
227
227
227
227
228
228
228
228
228
228
225
225
225
225
225
225
225
225
224
224
224
224
224
224
222
222
222
222
221
221
221
221
221
221
220
220
220
220
220
220
220
220
219
219
218
218
218
218
218
218
218
218
218
218
218
218
218
218
218
218
218
218
219
219
219
219
220
220
221
221
203
203
202
202
202
202
201
201
201
201
202
202
202
202
202
202
202
201
202
201
201
201
201
201
201
201
202
202
202
202
201
201
203
203
203
203
204
204
203
203
203
203
205
205
204
204
204
204
206
206
207
207
207
207
208
208
208
208
210
210
211
211
212
212
214
214
214
215
217
217
216
216
217
217
216
216
217
217
217
217
217
217
218
218
218
218
219
219
219
219
218
218
219
219
219
219
219
219
218
218
218
218
218
218
218
218
219
219
219
219
219
219
219
219
219
219
220
220
220
220
220
220
219
219
219
219
219
219
219
219
221
221
221
221
221
221
222
222
223
223
224
224
224
224
224
224
224
224
224
224
224
224
224
224
223
223
222
220
221
219
219
218
218
217
217
214
213
212
212
212
210
210
209
208
207
206
207
207
207
207
208
207
208
207
208
207
209
210
210
210
209
209
209
209
210
210
212
212
212
212
212
212
212
214
214
214
213
213
214
214
213
213
213
213
213
213
212
212
211
211
209
209
209
209
209
209
208
208
208
208
207
206
206
205
204
204
204
203
202
202
202
202
200
199
199
199
198
197
196
193
190
190
190
190
189
189
189
188
187
186
186
186
185
185
185
185
185
185
185
185
184
184
184
182
182
181
182
182
181
181
181
181
178
177
175
172
170
167
165
162
160
160
160
159
158
156
155
153
151
151
150
148
146
145
145
145
145
144
145
145
145
145
146
146
145
145
145
145
144
143
141
138
139
139
141
139
141
141
142
142
143
144
144
144
145
145
148
149
148
148
148
148
149
150
151
152
155
155
157
157
158
159
160
162
164
165
168
169
172
174
175
178
179
179
180
181
182
183
185
186
187
188
189
192
193
193
193
193
193
193
194
194
194
194
194
194
195
195
195
195
195
195
195
195
196
196
198
198
198
198
198
198
199
199
199
199
199
199
199
199
199
199
198
198
197
197
197
196
194
193
193
191
190
187
186
185
183
182
179
178
174
171
166
164
162
160
156
152
151
147
143
139
135
135
133
131
129
126
125
124
124
124
124
121
120
118
118
117
118
117
119
119
122
123
125
126
128
129
132
133
137
140
143
144
146
148
152
155
158
159
163
163
164
165
168
168
168
169
172
172
172
172
174
173
174
174
174
173
172
170
169
169
168
166
164
161
160
158
155
153
152
148
146
145
143
140
138
135
134
134
134
134
136
136
138
140
142
146
152
158
160
162
165
169
174
178
183
188
192
198
202
205
206
207
208
209
212
216
219
222
223
224
226
226
226
225
226
226
226
226
227
227
227
227
228
228
228
228
228
228
225
225
225
225
225
225
225
225
224
224
224
224
224
224
222
222
222
222
221
221
221
221
221
221
220
220
220
220
220
220
220
220
219
219
218
218
218
218
218
218
218
218
218
218
218
218
218
218
218
218
218
218
219
219
219
219
220
220
221
221
204
204
203
203
203
203
202
202
202
202
203
203
203
203
201
201
202
201
201
200
200
200
199
199
199
199
200
200
202
202
201
201
202
202
203
203
203
203
203
203
201
201
203
203
204
204
204
204
205
205
206
206
207
207
206
206
209
209
209
209
210
210
211
211
212
212
213
214
217
217
217
218
218
218
217
217
217
217
217
217
218
218
219
219
219
219
219
219
220
220
219
219
219
219
219
219
219
219
219
219
220
220
219
219
219
219
219
219
219
219
219
219
220
220
221
221
220
220
220
220
220
220
221
221
221
221
221
221
221
221
222
222
222
222
222
223
223
224
223
224
224
225
225
225
225
225
224
224
224
224
225
225
224
224
223
223
223
222
220
219
219
218
218
217
217
216
214
213
212
212
211
211
211
209
209
207
207
207
207
207
208
210
211
212
211
213
211
212
212
213
213
213
214
214
215
215
216
216
217
217
217
218
217
215
215
215
217
217
217
217
216
216
216
216
216
216
215
215
214
214
213
213
213
213
213
213
211
211
211
211
211
211
211
210
208
208
208
208
207
207
207
205
203
203
203
203
203
202
201
200
197
197
196
196
196
196
196
195
195
193
193
193
192
192
192
192
191
191
191
191
191
191
191
189
189
188
189
189
187
186
186
186
184
181
178
175
175
173
170
167
167
167
167
166
165
163
161
159
157
157
157
155
154
153
153
152
151
150
151
151
151
151
151
151
151
151
151
151
150
149
146
143
142
142
142
142
141
142
142
143
143
144
144
144
144
143
144
144
145
145
146
146
146
147
148
149
152
153
155
155
157
157
158
159
159
160
162
164
166
168
172
173
174
175
176
178
178
179
180
183
183
184
184
184
185
185
186
186
187
188
188
188
189
189
189
189
189
189
189
189
191
191
191
191
192
192
193
193
193
193
194
194
194
194
195
195
195
195
195
195
194
194
193
193
192
192
192
191
189
188
188
186
185
182
181
180
178
174
171
168
166
164
159
157
158
157
152
147
143
140
136
132
129
129
128
126
123
122
120
120
120
120
120
118
117
117
117
118
118
119
120
123
125
127
131
131
132
134
138
139
144
145
148
148
151
154
159
162
165
165
167
168
170
172
174
174
175
175
178
178
178
178
179
178
179
179
179
179
178
178
177
177
175
173
170
169
167
166
163
160
159
155
153
151
149
145
143
141
138
138
137
137
137
138
139
140
143
146
149
152
156
159
164
168
171
176
181
185
188
193
198
202
205
206
207
209
209
212
216
218
219
221
224
224
225
225
226
226
226
226
227
227
227
227
229
229
227
227
226
226
227
227
225
225
225
225
225
224
224
223
223
223
222
222
222
222
222
222
222
222
222
222
222
222
222
222
222
222
221
221
219
219
219
219
218
218
218
218
218
218
217
217
217
217
217
217
217
217
218
218
218
218
218
218
218
218
219
219
219
219
204
204
203
203
203
203
202
202
202
202
203
203
203
203
201
201
202
201
201
200
200
200
199
199
199
199
200
200
202
202
201
201
201
201
201
201
201
201
201
201
201
201
202
202
203
203
203
203
205
205
206
206
207
207
206
206
209
209
209
209
210
210
211
211
212
212
213
214
217
216
218
218
218
218
217
217
217
217
217
217
218
218
219
219
219
219
220
220
220
220
220
220
220
220
220
220
220
220
219
219
220
220
219
219
219
219
219
219
219
219
219
219
220
220
221
221
222
222
222
222
222
222
221
221
221
221
221
221
221
221
222
222
222
222
222
223
223
224
224
225
225
227
226
226
227
227
225
225
225
225
225
225
224
224
223
223
223
222
220
219
219
218
218
217
217
216
214
213
212
212
211
211
211
210
210
209
209
209
208
208
210
210
212
213
213
214
214
214
215
215
216
216
217
217
219
219
220
220
221
221
222
222
221
218
218
217
218
219
220
220
221
221
221
221
221
221
220
220
219
219
217
217
217
217
217
217
216
216
216
216
216
216
214
214
214
214
213
213
212
212
212
209
208
207
207
207
207
207
205
205
204
204
203
203
202
202
202
200
200
199
199
199
198
198
198
198
197
197
197
197
198
198
198
196
196
195
196
195
193
192
192
192
189
186
184
181
179
177
174
173
173
173
173
172
171
169
168
165
165
164
164
162
161
160
160
159
158
157
157
157
157
157
157
157
157
157
157
157
156
155
152
150
148
148
148
146
145
144
144
144
145
145
145
144
144
143
143
143
145
145
145
145
146
146
146
147
150
150
152
153
154
155
156
155
155
155
159
160
160
162
167
168
169
171
173
173
173
174
177
178
178
178
178
178
178
179
179
180
180
181
181
182
183
183
183
183
183
183
183
183
185
185
186
186
186
186
188
188
188
188
190
190
190
190
191
191
191
191
191
191
189
189
188
188
187
187
187
186
185
184
182
180
179
177
175
175
172
168
164
161
159
157
152
150
150
149
143
139
135
132
128
125
123
123
122
121
121
120
120
120
119
119
119
119
118
119
119
121
122
123
125
127
130
131
136
137
138
139
144
145
149
150
152
152
155
159
163
168
169
169
172
173
175
177
180
180
180
180
181
181
182
182
184
182
184
184
184
184
182
182
182
182
181
179
177
174
173
170
168
166
163
161
159
156
153
150
148
145
144
140
139
138
138
138
140
140
143
145
145
147
156
161
163
165
170
174
178
183
186
188
193
198
202
205
206
207
208
209
212
216
217
218
219
221
224
225
226
226
226
226
227
227
227
227
229
229
227
227
226
226
227
227
225
225
225
225
225
224
224
223
223
223
222
222
222
222
222
222
222
222
222
222
222
222
222
222
222
222
221
221
219
219
219
219
218
218
218
218
218
218
217
217
217
217
217
217
217
217
218
218
218
218
218
218
218
218
219
219
219
219
205
205
204
204
204
204
204
204
204
204
203
203
203
203
201
201
202
201
201
200
200
200
198
198
199
199
199
199
200
200
200
200
201
201
201
201
201
201
201
201
201
201
201
201
203
203
203
203
204
204
205
205
206
206
206
206
208
208
209
209
210
210
211
211
212
212
213
214
217
216
218
218
218
218
218
218
218
218
218
218
219
219
220
220
220
220
220
220
220
220
221
221
220
220
220
220
220
220
220
220
221
221
221
221
221
220
220
220
220
220
220
220
221
222
222
222
222
222
222
222
222
222
223
223
223
223
223
223
223
223
224
224
224
224
224
224
225
225
225
225
227
227
226
226
227
227
225
225
225
225
227
227
225
225
225
225
224
223
222
220
220
219
219
218
218
217
216
214
213
213
213
213
212
210
209
208
210
210
209
209
211
211
212
213
213
214
214
214
216
217
218
218
219
219
220
220
221
221
222
222
223
224
224
224
224
223
224
224
222
222
225
224
224
224
224
224
223
223
223
222
221
221
221
221
221
221
220
220
220
220
219
219
218
218
218
218
217
217
216
216
216
214
212
211
211
211
210
209
209
208
207
206
207
205
205
205
205
204
204
203
203
203
201
201
201
201
200
200
200
200
201
201
202
200
200
199
199
198
196
195
195
195
194
192
189
186
184
181
179
177
177
177
177
175
175
172
171
169
168
167
167
166
165
164
164
162
161
160
160
160
161
161
161
161
160
160
160
160
159
158
156
153
151
151
151
150
149
148
146
146
146
146
145
144
144
143
143
143
144
144
145
145
145
146
147
147
148
147
148
151
150
151
154
154
154
153
154
156
155
157
161
162
164
166
168
169
171
171
172
174
174
174
174
174
174
175
175
177
176
178
178
179
179
179
179
179
180
180
180
180
180
180
182
182
182
182
184
184
184
184
185
185
185
185
186
186
186
186
186
186
186
186
185
185
184
184
184
182
181
180
179
177
175
173
172
172
168
165
160
158
155
153
149
145
143
140
135
131
128
126
125
122
123
121
121
121
120
120
120
120
119
119
120
120
122
123
124
125
126
127
130
132
135
136
141
142
143
144
149
150
153
155
157
157
160
163
168
173
174
174
177
178
180
181
185
185
185
185
186
186
187
187
188
187
188
188
188
188
187
187
187
187
186
184
181
179
178
175
173
170
168
166
163
161
158
155
152
150
147
145
144
141
139
141
140
141
143
145
145
144
149
160
162
164
168
171
176
181
182
186
188
193
198
202
205
206
207
208
209
212
214
216
217
220
222
223
224
224
225
225
227
227
229
229
230
230
229
229
227
227
227
227
225
225
225
225
225
224
224
223
223
223
222
222
222
222
222
222
224
224
224
224
224
224
223
223
223
223
222
221
221
220
220
219
219
218
218
218
218
218
217
217
217
217
217
217
217
217
217
217
217
217
217
217
217
217
218
218
218
218
205
205
204
204
204
204
204
204
204
204
202
202
202
202
201
201
202
201
201
200
200
200
198
198
199
199
199
199
200
200
200
200
200
200
200
200
200
200
200
200
200
200
200
201
201
201
202
202
203
203
203
203
203
203
204
205
205
206
206
208
209
209
210
210
211
211
212
213
215
215
217
217
218
218
217
217
218
218
218
218
219
219
220
220
220
220
221
221
221
221
221
221
221
221
221
221
221
221
220
220
221
221
221
221
221
221
220
220
220
220
220
220
222
222
222
222
223
223
223
223
223
223
223
223
223
223
223
223
223
223
224
224
224
224
224
224
225
225
226
226
228
228
227
227
228
228
226
226
226
226
227
227
225
225
225
225
224
223
222
220
220
219
219
218
218
217
216
214
213
213
213
213
212
211
211
209
211
211
211
210
212
212
213
213
214
214
215
215
217
217
218
218
219
219
220
220
223
223
223
223
224
224
225
225
225
225
226
226
226
226
228
226
226
226
226
226
225
224
224
224
223
223
223
223
223
223
222
222
222
223
221
221
220
220
220
220
219
219
218
218
218
216
214
213
213
214
212
211
211
210
210
210
211
209
208
208
208
207
206
206
206
206
205
205
204
204
204
204
204
204
205
205
205
204
204
202
202
202
200
199
199
198
198
196
195
192
189
186
184
181
180
180
180
179
178
176
175
172
172
171
171
169
168
167
167
166
165
164
164
164
164
164
164
164
164
164
164
164
163
162
159
157
155
155
155
153
152
150
150
149
148
148
146
145
145
144
144
143
143
143
144
144
145
146
146
146
147
147
147
147
148
148
151
151
149
149
150
152
152
153
155
157
157
159
161
162
165
166
169
170
171
171
172
172
172
173
173
174
174
174
175
175
176
176
176
176
176
176
176
176
178
178
179
179
179
179
180
180
180
180
182
182
182
182
183
183
182
182
184
184
182
182
181
181
180
180
180
179
178
177
175
173
172
170
169
169
165
161
157
154
152
150
145
142
138
135
129
125
124
123
122
122
121
121
120
120
119
119
119
120
119
120
123
124
125
126
129
130
132
133
136
138
141
142
146
148
149
150
155
156
159
160
163
163
165
168
174
178
180
180
182
184
185
186
189
189
189
189
191
191
192
192
193
192
193
193
193
193
192
192
192
192
191
188
186
184
182
180
178
175
173
170
168
166
163
159
157
155
152
150
148
144
142
141
140
141
143
144
144
144
146
155
161
163
165
170
174
178
180
182
186
188
193
198
202
205
206
207
208
209
210
214
216
219
219
219
222
223
223
224
226
226
227
227
229
229
229
229
227
227
226
227
225
225
225
225
225
224
224
223
223
223
222
222
222
222
222
223
224
224
224
224
224
224
223
223
223
223
222
221
221
220
220
219
219
218
218
218
218
218
217
217
217
217
217
217
217
217
217
217
217
217
217
217
217
217
218
218
218
218
205
205
204
204
204
204
204
204
203
203
204
204
203
203
202
202
202
200
200
199
199
199
198
198
199
199
199
199
200
200
200
200
200
200
200
200
200
200
200
200
200
200
199
199
200
200
200
200
202
202
202
202
202
202
203
203
205
205
206
206
208
209
209
209
211
211
212
213
215
215
217
217
218
218
217
217
218
218
217
217
219
219
220
220
220
220
221
221
221
221
222
222
222
222
222
222
222
222
222
222
222
222
222
222
222
222
222
222
222
222
221
221
223
223
223
223
224
224
224
224
225
225
224
224
224
224
224
224
224
224
225
225
225
225
225
225
226
226
227
227
229
229
229
229
229
229
228
227
227
227
227
227
226
227
225
225
224
223
222
221
221
219
219
218
218
217
215
214
213
213
213
213
212
212
211
211
211
211
212
212
213
213
213
213
215
215
217
217
218
218
219
219
220
220
221
221
224
224
225
225
226
226
226
225
226
226
227
227
229
229
227
227
226
226
226
226
226
226
225
225
225
225
225
225
225
225
224
224
224
223
222
222
222
222
222
222
220
220
219
219
219
216
215
214
214
214
213
213
214
214
214
213
213
212
212
211
211
211
211
210
210
209
209
209
209
209
208
208
208
208
209
209
209
208
209
207
208
207
205
204
204
204
203
202
200
198
195
192
189
187
186
186
186
185
183
181
180
179
178
176
176
175
174
173
173
172
171
169
169
169
170
170
170
170
169
169
169
169
167
166
164
162
159
159
159
158
158
156
156
155
152
151
151
149
149
148
148
146
145
144
144
144
145
144
146
146
146
146
147
147
147
148
149
149
148
148
150
149
151
151
151
151
152
153
155
156
157
159
162
163
164
164
167
167
167
167
168
168
168
169
169
170
171
171
171
171
171
171
171
171
173
173
171
171
173
173
173
173
173
173
174
174
174
174
176
176
176
176
177
177
175
175
175
175
174
174
174
173
172
171
169
167
166
164
162
162
159
155
151
149
146
144
139
135
131
128
125
123
121
121
120
120
120
120
120
120
119
119
120
120
122
122
126
127
129
131
136
137
137
138
142
144
145
147
151
153
153
155
159
162
164
166
169
169
170
174
179
184
185
185
187
188
191
192
196
196
196
196
197
197
198
198
199
198
199
199
199
199
198
198
198
198
196
194
192
189
188
186
184
181
179
177
174
172
168
165
162
161
158
155
150
148
144
141
143
141
143
143
144
143
145
149
155
160
162
166
169
173
178
180
182
186
189
193
198
202
204
205
207
208
209
210
214
215
218
218
220
221
221
222
225
225
226
226
227
227
227
227
227
227
226
226
226
226
226
226
226
225
224
223
223
223
223
223
224
224
224
224
224
224
224
224
224
224
223
223
223
223
222
222
221
221
220
220
219
219
219
219
219
219
218
218
218
218
218
218
218
218
218
218
218
218
218
218
218
218
217
217
217
217
207
207
205
205
205
205
205
205
204
204
204
204
203
203
202
202
202
200
200
199
199
199
198
198
199
199
199
199
200
200
200
200
200
200
200
200
200
200
200
200
200
200
199
199
199
199
200
200
201
201
201
201
200
200
202
203
203
205
204
205
206
207
208
208
210
210
211
212
214
214
215
216
217
217
217
217
218
218
217
217
219
219
220
220
220
220
221
221
221
221
222
222
222
222
222
222
222
222
222
222
222
222
222
222
222
222
222
222
222
222
221
221
223
223
223
223
224
224
224
224
225
225
224
224
225
225
225
225
225
225
226
226
226
226
226
226
227
227
227
227
229
229
229
229
229
229
227
227
227
227
227
227
226
226
225
225
224
223
222
221
221
220
219
218
218
217
215
214
213
213
213
213
212
212
211
211
211
211
212
212
213
213
213
213
215
215
217
217
218
218
219
219
221
221
223
223
225
225
226
227
229
230
227
226
229
227
229
227
229
229
229
228
228
227
227
227
227
227
226
226
226
226
226
226
226
226
226
226
226
226
226
226
226
226
224
224
224
224
223
222
222
220
219
217
217
218
217
217
217
217
218
217
216
216
216
214
214
214
214
214
214
214
214
214
214
214
213
213
213
213
214
214
214
213
213
212
212
211
210
209
209
209
207
206
205
203
202
198
195
193
193
193
193
192
190
188
187
185
185
183
183
182
181
180
180
179
178
176
176
176
177
177
176
176
176
176
174
174
173
172
170
167
165
165
165
164
164
162
162
160
159
158
158
156
156
155
153
152
150
149
148
147
146
145
144
144
146
146
147
147
147
147
148
148
147
147
149
147
150
150
150
150
150
150
153
153
154
154
156
156
157
157
159
159
160
160
161
161
162
162
163
163
164
164
164
164
164
164
164
164
166
166
166
166
164
164
166
166
166
166
167
167
167
167
167
167
169
169
169
169
169
169
169
169
167
167
167
166
165
164
162
160
159
157
155
155
152
149
144
142
139
137
132
128
125
123
121
120
120
119
119
119
120
119
120
120
120
120
122
123
126
127
131
132
133
136
139
140
142
143
146
149
150
151
156
157
158
159
164
166
169
171
173
173
174
178
184
187
189
189
192
193
194
196
199
199
199
199
200
200
201
201
202
201
202
202
202
202
202
202
202
202
200
198
195
193
192
189
187
185
182
180
178
175
172
168
166
163
162
159
157
152
147
144
145
144
144
143
143
143
144
145
148
155
160
162
166
169
173
178
180
182
186
189
193
198
200
202
205
206
207
209
213
214
217
217
219
220
220
221
224
224
225
225
226
226
227
227
227
227
226
226
226
226
226
226
226
225
224
223
223
223
223
223
224
224
224
224
224
224
224
224
224
224
223
223
223
223
222
222
221
221
220
220
219
219
219
219
219
219
218
218
218
218
218
218
218
218
218
218
218
218
218
218
218
218
217
217
217
217
209
209
208
208
208
208
208
207
207
206
205
205
204
204
203
203
203
201
202
200
200
200
199
199
199
199
200
200
200
200
200
200
200
200
200
200
200
200
200
200
200
200
199
199
199
199
200
200
201
201
201
201
202
202
203
203
205
205
205
206
208
207
208
208
210
210
211
212
215
214
215
215
216
216
217
217
218
218
218
218
219
219
220
220
220
220
221
221
221
221
222
222
222
222
222
222
222
222
222
222
222
222
222
222
222
222
222
222
222
222
221
221
223
223
223
223
224
224
224
224
225
225
225
225
226
226
226
226
226
226
227
227
227
227
227
227
227
227
229
229
229
229
229
229
229
229
227
227
227
227
227
227
226
226
228
228
227
225
224
223
223
222
222
220
221
219
217
215
215
214
215
215
214
213
212
212
212
212
213
213
213
213
214
215
216
216
217
217
219
219
220
220
223
223
224
224
226
227
227
227
230
230
231
231
234
231
231
231
232
231
231
231
231
230
230
230
230
229
229
229
229
229
229
230
230
230
230
230
230
230
229
229
227
227
229
229
227
227
226
226
226
224
223
222
222
222
221
221
221
221
220
220
220
219
218
217
217
217
217
217
218
218
218
218
217
217
216
218
214
217
218
218
217
216
216
214
213
212
212
212
211
211
210
208
206
204
204
203
202
198
198
198
198
197
195
193
192
190
190
188
188
187
186
185
185
184
183
181
181
181
181
181
180
180
180
180
179
179
178
177
174
172
170
170
170
169
169
166
166
165
164
163
163
160
160
159
158
157
155
154
151
150
147
146
144
144
146
146
149
149
148
148
149
149
148
148
149
149
150
150
151
151
150
151
153
153
154
154
155
154
154
153
153
153
154
154
155
155
156
156
157
157
159
159
159
159
159
159
159
159
160
160
160
160
159
159
160
160
160
160
161
161
162
162
162
162
163
163
163
163
164
164
164
164
163
163
163
162
160
159
158
155
154
152
151
151
147
144
139
137
135
132
128
123
121
120
119
119
119
119
119
119
119
119
121
123
123
125
128
129
132
133
137
138
139
141
145
146
148
149
152
155
156
157
162
163
164
165
170
172
174
177
179
179
180
184
189
193
195
195
198
199
200
201
205
205
205
205
206
206
207
207
208
207
208
208
208
208
207
207
207
207
207
204
202
200
198
196
193
191
189
186
184
182
178
174
172
169
167
165
162
158
153
151
149
147
146
144
143
143
143
145
145
149
154
160
162
166
169
173
178
180
182
186
189
193
195
198
201
204
205
208
211
213
215
215
217
219
220
221
224
224
225
225
226
226
227
227
227
227
226
226
226
226
226
226
226
226
226
225
225
225
225
225
225
225
225
225
225
225
225
225
225
225
224
224
224
224
223
222
222
221
221
220
220
219
219
219
219
219
218
218
218
218
218
218
218
218
218
218
218
218
218
218
218
218
217
217
217
217
210
210
208
208
208
208
208
207
207
206
205
205
204
204
203
203
203
201
202
200
200
200
199
199
199
199
200
200
200
200
200
200
200
200
200
200
200
200
200
200
200
200
199
199
199
199
200
200
201
201
201
201
202
202
203
203
205
205
205
206
208
208
207
208
210
210
211
212
215
215
215
215
216
216
217
217
218
218
218
218
219
219
220
220
220
220
221
221
221
221
222
222
222
222
222
222
222
222
222
222
222
222
222
222
222
222
222
222
222
222
221
221
223
223
223
223
224
224
224
224
225
225
225
225
226
226
226
226
226
226
227
227
227
227
227
227
227
227
229
229
229
229
229
229
229
229
227
227
227
227
227
227
226
226
228
228
227
225
224
223
223
222
222
220
221
220
218
215
215
214
215
215
214
214
212
212
212
212
213
213
213
213
215
215
216
216
217
217
219
219
220
220
223
223
224
224
226
226
227
227
230
230
231
231
233
233
233
232
233
233
232
231
232
231
231
231
231
231
231
231
231
231
231
231
231
231
231
231
231
231
230
230
229
229
230
230
229
229
227
227
227
226
225
224
224
224
223
223
222
222
223
223
222
220
220
219
219
219
219
219
220
220
220
219
219
218
219
220
218
219
220
220
219
218
217
215
215
214
214
214
213
213
211
210
207
205
205
204
204
203
201
201
200
200
199
198
195
194
194
194
193
192
191
190
190
188
187
186
186
186
186
186
185
185
185
185
184
184
183
181
179
177
174
174
174
173
173
171
170
169
170
169
167
165
165
164
162
160
159
158
156
154
150
149
147
147
148
148
150
150
149
149
151
150
149
149
150
149
150
150
151
151
151
151
152
152
153
153
153
152
152
150
149
149
150
150
150
152
150
152
152
152
153
153
153
153
153
153
153
153
154
154
154
154
155
155
156
156
156
156
156
156
157
157
157
158
158
158
159
159
159
159
159
159
158
157
157
156
154
153
153
151
150
147
146
146
143
138
135
132
130
129
124
121
119
119
119
119
119
119
119
119
119
119
121
125
127
128
130
134
136
137
141
142
143
144
148
149
151
152
157
159
162
163
167
168
169
170
173
175
178
180
182
182
184
187
192
195
198
198
200
202
202
203
207
207
207
207
209
209
208
208
210
209
210
210
210
210
210
210
210
210
209
207
204
202
199
198
196
193
191
190
188
186
181
178
175
173
170
168
166
161
156
154
152
149
147
145
141
141
143
144
144
145
149
155
160
162
166
168
172
177
180
182
186
189
192
193
196
199
202
206
209
211
213
214
217
219
220
221
224
224
225
225
226
226
226
226
227
227
226
226
226
226
226
226
226
226
226
225
225
225
225
225
225
225
225
225
225
225
225
225
225
225
224
224
224
224
224
222
222
222
222
221
221
219
219
219
219
219
218
218
218
218
218
218
218
218
218
218
218
218
218
218
218
218
217
217
217
217
210
210
208
208
208
208
209
208
207
207
206
205
205
204
203
203
203
203
201
201
201
201
200
200
200
200
199
199
199
199
199
199
199
199
199
199
199
199
199
199
199
199
198
198
198
198
199
199
200
200
202
202
202
202
203
205
205
206
207
207
208
209
209
209
210
210
211
212
215
215
216
215
217
217
217
217
218
218
218
218
219
219
220
220
220
220
221
221
221
221
221
221
221
221
221
221
221
221
223
223
223
223
223
223
223
223
223
223
223
223
223
223
224
224
224
224
225
225
225
225
225
225
227
227
227
227
227
227
227
227
227
227
227
227
227
227
227
227
228
228
228
228
227
227
227
227
229
229
229
229
229
229
229
229
227
227
227
225
224
223
223
222
222
220
220
219
219
218
217
217
215
214
214
213
212
212
212
212
214
214
214
214
215
214
217
217
218
218
220
220
222
221
224
224
225
225
227
227
228
228
231
231
232
232
233
233
233
233
233
233
233
232
233
232
232
232
232
232
231
231
232
232
232
232
232
232
232
231
231
231
231
231
231
231
229
229
229
229
229
229
229
227
226
226
226
226
225
225
225
225
223
223
223
222
222
222
222
222
222
222
222
222
223
223
224
224
224
222
223
222
222
222
222
219
218
218
218
217
217
216
217
217
215
213
210
209
208
208
208
209
207
204
203
201
202
201
201
201
199
199
199
198
196
195
195
194
193
192
192
192
192
192
192
192
190
190
190
190
188
187
185
183
180
180
180
179
179
177
177
176
174
173
172
170
169
168
166
165
164
163
160
159
157
155
154
154
153
154
152
152
152
152
152
152
151
151
151
150
151
150
150
150
151
151
152
152
151
151
151
150
149
148
148
147
147
147
147
147
147
147
147
147
147
146
146
146
146
146
146
146
147
148
149
151
151
152
153
153
153
152
152
152
152
152
152
152
152
152
152
152
152
152
153
151
150
149
149
147
146
145
145
143
141
140
140
139
136
132
129
126
125
124
123
120
119
119
118
118
118
118
118
118
119
119
122
126
129
130
133
137
139
142
144
145
146
148
153
155
156
158
163
167
171
172
174
174
175
177
179
181
184
186
188
189
189
191
195
198
200
201
203
205
206
207
210
210
210
210
211
211
212
212
213
212
213
213
214
214
212
212
212
212
211
208
206
204
203
200
198
197
195
193
191
190
188
184
182
180
175
172
170
167
162
160
155
153
151
148
143
141
143
144
145
144
146
149
155
160
161
163
166
170
175
180
182
186
189
191
193
195
199
203
205
207
209
212
215
217
219
221
222
222
224
224
225
225
226
226
226
226
227
227
227
227
227
227
227
226
226
226
226
226
226
226
226
226
226
226
226
226
226
226
226
225
225
224
224
224
224
224
223
223
222
222
220
221
220
220
221
220
219
219
220
220
219
219
219
219
219
219
219
219
219
219
219
219
218
218
218
218
210
210
208
208
208
208
208
208
207
208
207
205
205
204
203
203
203
203
201
201
201
201
200
200
200
200
199
199
199
199
199
199
199
199
199
199
199
199
199
199
199
199
198
198
198
198
199
199
200
200
202
202
202
202
203
205
205
206
207
207
208
209
209
209
210
210
211
212
215
215
216
216
217
217
217
217
218
218
218
218
219
219
220
220
220
220
221
221
221
221
221
221
221
221
221
221
221
221
223
223
223
223
223
223
223
223
223
223
223
223
223
223
224
224
224
224
225
225
225
225
225
225
227
227
227
227
227
227
227
227
227
227
227
227
227
227
227
227
228
228
228
228
227
227
227
227
229
229
229
229
229
229
229
229
227
227
227
225
224
223
223
222
222
220
220
219
219
218
217
217
215
214
214
213
212
212
212
212
214
214
214
215
214
214
217
217
218
218
220
220
221
221
224
224
225
225
227
227
228
228
231
231
232
232
233
233
233
233
233
233
233
233
234
233
233
232
232
232
231
231
232
232
232
232
233
232
232
231
231
231
231
231
231
231
229
229
229
229
229
229
229
229
227
227
227
227
226
226
225
225
224
224
223
223
223
223
223
223
223
223
223
223
224
224
225
225
225
223
225
223
223
223
224
222
220
220
220
220
219
218
218
219
219
218
216
213
213
213
213
213
211
209
207
204
203
205
203
203
203
203
202
201
200
199
199
198
196
195
195
195
195
195
194
194
194
194
193
193
192
191
188
186
184
184
184
183
183
180
180
179
178
177
176
173
172
171
169
168
166
165
164
163
161
160
159
159
159
159
156
156
156
156
156
156
155
155
155
153
154
152
152
152
154
154
154
154
153
153
153
150
149
148
148
147
147
146
146
146
146
146
146
145
145
144
144
144
144
144
144
144
145
146
146
147
148
149
149
149
149
148
148
148
148
148
149
148
148
146
146
146
146
146
146
144
143
142
142
140
139
138
138
136
134
132
132
131
130
128
125
123
121
120
120
119
119
118
118
118
118
118
118
118
119
122
128
128
130
133
137
138
142
144
148
149
150
154
158
161
163
165
170
175
179
180
181
181
182
184
186
187
189
192
194
195
195
196
200
203
205
206
209
209
210
212
215
215
214
214
216
216
217
217
218
217
218
218
218
218
217
217
217
217
215
213
211
208
207
205
203
201
200
199
197
196
194
191
189
186
181
178
175
173
169
166
161
158
155
152
147
144
144
144
145
145
145
146
149
155
158
160
161
163
168
177
180
182
186
189
192
193
196
199
203
205
206
207
208
211
216
219
221
222
224
224
225
225
225
225
226
226
227
227
227
227
227
227
227
226
226
226
226
226
226
226
226
226
226
226
226
226
226
226
226
225
225
224
224
224
224
224
223
223
222
222
220
220
220
220
220
220
219
219
219
220
219
219
219
219
219
219
219
219
219
219
219
219
218
218
218
218
212
211
211
210
210
210
209
208
208
207
209
208
208
207
205
205
205
205
204
204
204
204
202
202
201
201
200
200
200
200
200
200
200
200
200
200
200
200
200
200
199
199
200
200
199
199
200
200
201
201
202
202
203
203
205
206
206
207
207
208
208
209
209
209
210
210
211
212
214
214
216
216
217
217
217
217
218
218
218
218
219
219
220
220
220
220
221
221
221
221
221
221
221
221
221
221
221
221
223
223
223
223
223
223
223
223
223
223
223
223
223
223
224
224
224
224
225
225
225
225
225
225
227
227
227
227
226
226
226
226
228
228
228
228
227
227
227
227
228
228
228
228
227
227
227
227
229
229
229
229
229
229
229
229
229
229
229
226
225
224
224
223
223
222
222
220
220
218
218
217
218
217
217
216
215
215
215
215
216
216
216
216
217
217
218
218
219
219
222
222
223
223
225
225
226
226
228
228
229
229
231
231
232
232
234
234
234
234
235
235
235
235
236
235
235
234
234
234
234
234
235
235
235
235
235
235
234
234
234
234
232
232
232
232
232
232
232
232
231
231
231
231
230
230
230
230
229
228
228
227
227
226
226
225
225
225
225
225
225
225
226
226
226
226
226
226
226
226
225
225
225
225
225
225
226
226
225
224
223
222
221
221
221
221
221
218
218
218
218
218
215
213
211
209
209
209
207
207
208
208
207
205
204
203
203
202
200
199
199
199
199
199
198
198
198
198
197
197
195
194
192
189
187
187
187
186
186
184
184
183
181
180
179
177
176
174
172
171
170
169
168
167
165
164
163
163
163
163
162
162
160
160
160
160
159
159
159
158
158
157
157
157
157
157
157
157
156
156
155
153
151
149
148
147
147
146
146
146
146
146
146
145
145
144
144
144
144
144
144
144
145
145
145
145
145
145
145
145
144
144
143
143
143
143
144
143
143
142
142
142
142
142
142
139
138
137
137
136
135
133
133
131
130
127
127
126
126
125
124
122
120
119
119
118
117
116
116
116
116
118
119
120
123
128
131
131
134
136
138
139
143
148
150
151
154
158
164
167
169
172
176
182
185
186
187
187
188
189
192
193
195
198
200
202
202
203
206
209
210
212
215
216
217
218
221
220
220
220
222
222
223
223
224
223
224
224
224
224
223
223
223
223
222
219
217
215
214
211
209
207
206
205
203
201
200
197
194
191
187
184
181
179
175
172
167
164
161
156
152
148
145
145
145
145
145
145
146
149
153
155
158
160
163
169
177
180
182
186
189
192
193
195
199
203
203
205
206
207
212
217
219
221
224
224
225
225
225
225
226
226
228
228
229
229
229
229
229
229
228
228
228
228
229
229
228
227
227
227
227
227
227
227
228
227
226
225
225
225
225
224
224
223
224
223
223
222
222
222
222
222
220
220
220
220
221
221
221
221
220
220
220
220
220
220
220
219
218
218
218
218
212
211
211
210
210
210
209
208
208
207
209
207
207
206
205
205
205
205
204
204
204
204
202
202
201
201
200
200
200
200
200
200
200
200
200
200
200
200
200
200
199
199
200
200
199
199
200
200
201
201
202
202
203
203
205
206
206
207
207
208
208
209
209
209
210
210
211
211
213
213
215
215
216
216
216
216
217
217
217
217
218
218
219
219
219
219
220
220
220
220
221
221
221
221
221
221
221
221
223
223
223
223
223
223
223
223
223
223
223
223
223
223
224
224
224
224
225
225
225
225
225
225
227
227
227
227
226
226
226
226
228
228
228
228
227
227
227
227
228
228
228
228
227
227
227
227
229
229
229
229
229
229
229
229
229
229
229
226
225
224
224
223
223
222
222
220
221
218
218
217
218
217
217
216
215
215
215
215
216
216
216
216
217
217
218
218
219
219
222
222
223
223
225
225
226
226
228
228
229
229
231
231
232
232
234
234
234
234
235
235
235
235
236
235
235
234
234
234
234
234
235
235
235
235
235
235
234
234
234
234
232
232
232
232
232
232
232
232
231
231
231
231
230
230
230
230
229
228
228
227
227
226
226
226
225
225
226
226
226
226
227
227
226
226
226
226
227
227
226
226
226
226
226
226
227
227
227
226
224
223
222
222
221
221
221
221
220
220
219
219
218
217
214
212
211
211
211
211
211
211
210
209
207
206
206
205
204
203
203
203
203
203
202
202
201
201
200
200
199
198
195
193
191
191
191
189
189
188
188
186
185
184
182
180
179
178
175
174
174
172
171
170
169
168
167
167
166
166
165
165
164
164
164
164
163
163
163
162
162
161
161
161
160
160
160
160
159
159
157
155
153
150
149
148
148
147
146
146
146
146
146
145
145
144
144
144
144
144
144
142
144
144
142
142
142
142
141
140
141
140
141
141
141
141
142
141
141
139
139
139
139
139
139
137
136
133
133
132
131
130
129
128
127
126
125
125
124
124
123
122
120
120
120
118
117
116
116
116
115
116
119
121
127
129
131
133
135
136
138
142
146
149
150
152
157
161
167
169
172
175
180
186
188
189
191
191
192
193
195
196
199
202
204
205
205
206
210
212
213
214
218
218
219
220
223
223
224
224
225
225
226
226
227
226
227
227
227
227
226
226
226
226
225
223
220
218
217
215
213
211
210
208
206
205
203
201
198
196
191
187
185
182
179
175
171
167
165
161
155
151
147
145
145
145
145
145
145
146
148
151
153
155
160
163
169
175
179
181
186
189
192
193
195
199
201
202
203
205
209
213
217
220
223
223
225
225
225
225
226
226
228
228
229
229
229
229
229
229
228
228
228
228
229
229
228
227
227
227
227
227
227
227
227
227
226
225
225
225
225
224
224
223
224
223
223
222
222
222
222
222
220
220
220
220
221
221
221
221
220
220
220
220
220
220
220
219
218
218
218
218
212
212
211
211
211
211
211
211
209
209
209
209
208
208
206
207
207
205
205
204
204
204
203
203
203
203
201
201
200
200
200
200
200
200
200
200
200
200
200
200
200
200
200
201
201
201
201
201
203
203
203
203
204
204
203
203
206
206
207
207
208
208
209
209
210
210
210
211
213
213
215
215
216
216
216
216
216
216
217
217
217
217
218
218
218
218
219
219
219
219
220
220
220
220
220
220
220
220
222
222
222
222
222
222
222
222
222
222
222
222
221
221
223
223
223
223
224
224
224
224
224
224
225
225
225
225
225
225
225
225
227
227
227
227
226
226
226
226
227
227
227
227
226
226
226
226
227
227
227
227
227
228
228
228
229
229
229
227
227
225
225
224
224
223
223
222
220
219
219
219
218
218
218
217
216
216
216
216
217
217
217
217
218
219
219
220
220
220
223
223
224
224
226
226
226
226
229
229
230
230
231
231
232
232
232
232
233
233
233
233
234
234
234
234
234
234
236
236
234
234
236
236
234
234
236
234
234
233
233
233
232
232
232
232
232
232
232
232
231
231
231
231
230
230
230
230
229
229
229
229
228
227
227
227
226
226
227
227
227
227
228
228
229
229
229
229
229
229
229
229
229
229
229
229
229
229
230
227
227
225
225
225
224
222
221
221
220
220
220
219
218
217
216
215
215
215
214
214
214
214
212
211
210
209
209
208
207
205
205
205
205
205
205
205
205
205
205
205
204
203
200
198
195
195
195
194
193
191
191
189
188
187
186
184
182
181
179
178
177
176
175
173
172
171
170
170
170
170
168
168
168
168
168
168
167
167
167
165
165
164
164
164
164
164
164
162
161
161
160
157
157
154
153
151
151
149
149
149
149
149
148
147
146
144
143
143
143
143
143
143
143
142
141
141
141
141
141
140
141
142
142
142
142
142
143
143
142
142
141
141
139
139
137
135
133
131
130
129
126
124
123
123
123
123
122
122
122
122
120
120
120
119
119
118
117
116
116
116
117
119
125
126
128
129
132
135
136
138
141
145
149
150
152
156
161
164
167
169
172
177
182
186
191
192
193
193
195
196
198
199
201
203
205
206
207
208
210
213
215
216
220
220
222
223
225
225
225
225
226
226
227
227
229
227
229
229
229
229
227
227
227
227
226
224
222
220
220
219
217
216
215
213
211
210
207
205
203
200
196
191
188
185
182
179
175
170
167
165
160
155
151
147
145
145
145
145
145
145
146
146
148
151
155
160
165
170
174
176
180
183
187
192
193
195
198
199
202
203
206
210
216
219
220
221
223
224
225
226
227
227
229
229
229
229
228
228
228
228
228
228
228
228
228
228
228
228
228
228
227
227
227
227
227
226
226
225
225
225
225
225
225
225
224
224
224
223
223
223
223
223
222
222
222
222
222
222
222
222
221
221
221
221
222
222
222
221
219
218
218
218
212
212
211
211
211
211
211
211
210
209
209
209
208
208
206
206
207
205
205
204
204
204
203
203
203
203
201
201
200
200
201
201
201
201
200
200
200
200
201
201
201
201
202
202
203
203
203
203
204
204
204
204
205
205
205
205
206
206
207
207
208
208
209
209
210
210
210
210
212
212
214
214
215
215
215
215
215
215
216
216
216
216
217
217
217
217
218
218
219
219
219
219
220
220
220
220
220
220
222
222
222
222
222
222
222
222
222
222
222
222
221
221
223
223
223
223
224
224
224
224
224
224
225
225
225
225
225
225
225
225
227
227
227
227
226
226
226
226
227
227
227
227
226
226
226
226
227
227
227
227
228
228
228
228
229
229
229
227
227
225
225
224
224
223
223
222
220
219
219
219
218
218
218
218
217
217
217
217
218
218
219
219
220
222
222
223
220
222
223
224
225
225
226
226
226
226
229
229
230
230
231
231
232
232
232
232
233
233
233
233
234
234
234
234
234
234
236
236
234
234
236
236
234
234
236
234
234
233
233
233
232
232
232
232
232
232
232
232
231
231
231
231
230
230
230
230
229
229
229
229
228
228
228
228
228
228
229
229
231
231
232
232
233
233
233
233
234
234
234
234
234
234
234
233
233
232
232
231
231
231
231
231
229
227
224
222
222
220
220
219
219
218
218
218
218
218
217
217
217
217
216
215
214
212
212
211
210
209
209
209
208
208
208
208
209
209
209
209
207
206
204
202
199
199
199
198
196
194
194
193
192
191
190
187
186
185
182
181
180
179
178
177
176
175
173
173
173
173
172
172
171
171
171
171
170
170
170
169
168
167
167
167
167
167
167
166
164
163
163
161
160
159
158
157
155
154
153
153
153
153
151
150
149
148
147
147
147
147
147
146
146
144
144
144
144
144
144
144
145
145
145
145
145
145
145
144
144
142
142
141
141
139
138
135
133
131
129
128
124
123
122
121
121
120
119
119
118
118
117
117
117
117
117
117
116
116
116
116
117
119
124
127
129
132
135
136
136
140
146
149
151
152
157
163
165
168
169
170
175
179
184
190
195
196
197
197
198
199
202
203
205
206
207
208
209
210
213
215
216
217
221
221
223
224
226
226
227
227
229
229
230
230
231
230
231
231
231
231
230
230
230
230
229
226
225
224
223
223
219
219
218
217
215
214
211
208
206
204
202
196
191
188
185
182
179
175
170
167
165
161
156
152
148
145
145
145
145
145
145
145
146
145
149
155
160
165
167
171
173
176
181
188
192
193
195
196
198
200
205
208
212
216
218
219
220
220
223
225
227
227
229
229
229
229
228
228
228
228
228
228
228
228
228
228
228
228
228
228
227
227
227
227
227
226
226
225
225
225
225
225
225
225
224
224
224
224
224
224
224
223
223
222
222
222
222
222
222
222
222
221
221
221
222
222
222
221
219
218
218
218
213
212
212
212
212
212
212
212
211
211
210
210
210
210
208
208
208
207
207
206
206
206
205
205
204
204
203
203
203
203
203
203
203
203
203
203
203
203
203
203
203
203
203
203
204
204
204
204
205
205
204
204
205
205
205
205
207
207
208
208
209
209
210
210
210
210
210
210
212
212
212
212
214
214
215
215
215
215
216
216
216
216
217
217
217
217
218
218
218
218
219
219
219
219
219
219
220
220
222
222
222
222
222
222
222
222
222
222
222
222
221
221
223
223
223
223
224
224
224
224
224
224
225
225
225
225
225
225
225
225
225
225
225
225
225
225
225
225
227
227
227
227
226
226
226
226
227
227
227
227
228
228
228
228
229
229
229
227
227
227
227
225
225
224
224
223
222
220
220
220
220
221
221
221
219
219
219
219
220
220
220
220
222
222
223
223
224
224
225
225
226
226
227
227
227
227
229
229
230
230
231
231
232
232
232
232
233
233
233
233
234
234
234
234
234
234
236
236
236
236
237
237
236
236
236
236
234
233
233
233
233
233
233
233
234
234
234
234
232
232
232
232
231
231
231
231
230
230
230
230
229
229
229
229
229
229
231
231
232
232
233
233
233
233
233
233
234
234
234
234
234
234
234
233
233
233
233
232
232
231
231
231
230
229
228
227
224
223
224
222
222
222
223
223
223
223
221
221
222
222
221
219
218
217
217
216
214
213
213
213
213
213
213
214
213
213
213
213
212
210
208
206
204
204
204
203
202
200
200
198
197
196
195
192
191
189
187
186
185
184
182
181
180
179
178
178
178
178
177
177
175
175
175
175
174
174
174
173
173
172
172
172
172
172
172
171
169
168
168
167
166
165
164
163
161
160
159
159
159
159
158
157
156
154
153
153
153
153
153
151
151
150
150
150
149
149
149
148
147
146
146
146
146
146
146
145
145
143
143
142
141
139
138
135
133
131
129
128
124
123
121
120
117
116
114
114
113
113
112
112
112
112
113
114
116
114
116
116
118
121
127
129
132
135
138
139
140
146
150
150
152
157
163
167
169
170
170
170
174
179
184
190
195
196
197
197
198
199
202
203
205
207
208
209
211
211
214
216
218
218
221
222
224
224
226
226
227
227
229
229
230
230
231
230
231
231
231
231
230
230
230
230
229
227
225
225
223
223
219
220
219
218
216
215
212
210
208
205
204
200
196
191
187
185
182
179
175
170
167
165
161
156
152
148
146
145
145
145
144
145
144
144
147
151
155
160
162
165
167
171
176
182
188
192
193
193
195
197
201
206
209
212
214
216
219
220
220
222
226
226
227
229
230
230
229
228
228
228
229
229
229
229
229
229
229
229
228
228
228
228
228
228
229
227
227
226
226
226
226
226
226
226
225
225
225
225
225
225
225
225
224
224
224
224
223
223
223
223
223
223
223
223
223
223
223
222
221
219
219
219
213
212
212
212
212
212
212
212
211
211
210
210
210
210
208
208
208
207
207
206
206
206
205
205
204
204
203
203
203
203
204
204
204
204
203
203
203
203
204
204
204
204
204
204
205
205
205
205
206
206
205
205
206
206
206
206
207
207
208
208
209
208
210
210
210
210
210
210
212
212
212
212
214
214
215
215
215
215
216
216
216
216
217
217
217
217
218
218
218
218
219
219
219
219
219
219
220
220
222
222
222
222
222
222
222
222
222
222
222
222
221
221
223
223
223
223
224
224
224
224
224
224
225
225
225
225
225
225
225
225
225
225
225
225
225
225
225
225
227
227
227
227
226
226
226
226
227
227
227
227
228
228
228
228
229
229
229
227
227
227
227
225
225
224
224
223
222
220
220
220
220
221
221
221
219
219
219
219
220
220
222
222
223
223
224
224
224
224
225
225
226
226
227
227
227
227
229
229
230
230
231
231
232
232
232
232
233
233
233
233
234
234
234
234
234
234
236
236
236
236
237
237
236
236
236
236
234
233
233
233
233
233
233
233
234
234
234
234
232
232
232
232
231
231
231
231
230
230
230
230
229
229
229
229
229
229
231
231
232
232
233
233
233
233
233
233
234
234
234
234
234
234
234
233
233
233
233
232
232
232
232
232
230
230
229
229
227
226
226
225
226
227
227
227
226
226
225
225
225
225
225
224
223
221
221
220
219
218
218
218
218
218
218
218
216
216
215
215
215
214
212
210
209
209
207
206
205
204
204
203
200
199
197
195
194
193
192
191
189
188
187
186
185
184
182
182
181
181
180
180
179
179
179
179
178
178
178
177
177
176
176
176
175
175
175
174
173
171
171
170
170
170
168
167
166
165
163
163
163
163
161
160
159
158
157
157
157
157
157
156
156
154
154
154
153
153
152
149
149
148
147
146
146
146
146
145
145
143
143
143
141
139
138
135
133
131
129
128
124
123
121
119
115
114
112
112
111
111
110
110
111
111
112
113
114
114
116
116
118
121
127
132
134
138
138
140
145
149
150
151
155
160
164
167
169
170
170
170
174
179
184
191
196
197
198
198
199
200
203
203
206
207
208
210
211
211
214
216
218
219
222
223
224
224
226
226
227
227
229
229
230
230
231
230
231
231
231
231
230
230
230
230
229
227
226
226
223
224
220
220
219
219
217
216
213
211
209
206
206
205
202
197
191
187
185
182
179
175
170
167
165
161
157
152
149
146
145
145
144
144
144
143
144
147
149
154
158
160
162
165
171
176
182
188
191
192
193
195
198
202
207
209
211
212
214
215
219
222
224
225
227
229
230
230
229
228
228
228
229
229
229
229
229
229
229
229
228
228
228
228
228
228
229
227
227
226
226
226
226
226
226
226
225
225
225
225
225
225
225
225
224
224
224
224
223
223
223
223
223
223
223
223
223
223
223
222
221
219
219
219
213
213
213
212
212
212
212
212
212
212
211
211
210
210
209
209
209
208
207
206
206
206
205
205
205
205
204
204
204
204
204
204
205
204
204
203
204
204
203
203
206
206
205
205
206
206
206
206
206
206
206
206
206
206
206
206
208
208
208
209
210
210
210
210
211
211
211
211
211
211
212
212
212
212
213
213
213
213
214
214
214
214
215
215
215
215
217
217
218
218
218
218
219
219
219
219
219
219
220
220
222
222
221
221
221
222
222
222
222
222
221
221
223
223
223
223
224
224
224
224
224
224
224
224
224
224
224
224
224
224
225
225
225
225
225
225
226
226
226
226
227
227
227
227
227
227
229
229
229
229
229
229
229
229
229
229
229
229
227
226
226
225
225
224
224
223
223
222
222
222
220
220
220
220
219
219
220
220
222
222
223
223
223
223
224
224
224
224
226
226
227
227
229
229
228
228
230
230
231
231
232
232
232
232
232
232
234
234
234
234
235
235
235
235
235
235
235
235
236
236
236
236
236
236
236
235
234
234
234
234
234
234
234
234
234
234
234
234
234
234
234
234
232
232
232
232
231
231
231
231
231
231
231
231
231
231
231
231
232
232
232
232
233
233
233
233
234
234
234
234
234
234
234
234
234
233
233
233
233
232
231
231
230
230
230
229
229
229
228
229
229
229
229
229
229
229
229
229
229
229
227
227
226
226
226
225
224
223
223
223
223
223
223
221
221
219
218
218
218
218
216
215
214
212
211
210
208
207
207
208
205
204
200
198
199
199
197
196
194
193
192
191
190
189
188
188
186
186
185
185
184
184
184
184
182
182
182
181
181
180
179
179
180
180
178
178
176
176
176
176
175
174
174
172
171
168
168
167
167
166
166
164
163
162
162
162
161
161
161
160
160
157
157
157
157
156
156
154
154
153
153
152
151
150
150
148
147
145
145
144
144
143
142
138
137
135
132
131
129
128
125
123
118
116
114
114
112
112
112
112
112
112
114
114
114
116
116
117
118
123
128
132
135
138
138
143
147
149
149
153
156
160
164
167
170
170
171
174
178
183
189
192
197
198
199
199
201
202
204
205
207
210
211
211
211
212
214
218
219
219
222
223
224
225
226
226
226
226
228
228
229
229
231
231
229
229
230
230
231
231
231
231
230
229
227
227
225
225
225
223
222
219
218
218
215
213
211
208
209
210
207
203
197
191
188
185
183
179
176
171
168
166
162
157
152
149
145
144
144
144
143
143
142
143
145
149
152
154
158
160
165
171
176
182
186
187
191
192
194
199
202
206
207
209
211
212
216
219
222
223
225
226
229
229
229
229
229
229
228
228
228
228
229
229
229
229
229
229
229
229
229
229
229
229
227
227
228
228
227
227
227
227
226
226
226
226
226
226
226
225
225
224
224
224
224
224
224
224
224
224
224
224
224
224
224
222
222
220
220
220
213
213
213
212
212
212
212
212
212
212
211
211
210
210
209
209
209
208
207
206
206
206
205
205
205
205
204
204
204
204
205
205
206
205
204
203
204
204
205
205
207
207
206
206
207
207
207
207
207
207
207
207
207
207
207
207
208
208
209
209
210
210
210
210
211
211
211
211
211
211
212
212
212
212
213
213
213
213
214
214
214
214
215
215
215
215
217
217
218
218
218
218
219
219
219
219
219
219
220
220
222
222
221
221
221
221
222
222
222
222
221
221
223
223
223
223
224
224
224
224
224
224
224
224
224
224
224
224
224
224
225
225
225
225
225
225
226
226
226
226
227
227
227
227
227
227
229
229
229
229
229
229
229
229
229
229
229
229
227
226
226
225
225
224
224
223
223
222
222
222
220
220
220
220
219
219
220
220
222
222
224
224
224
224
225
225
224
224
226
226
227
227
229
229
228
228
230
230
231
231
232
232
232
232
232
232
234
234
234
234
235
235
235
235
235
235
235
235
236
236
236
236
236
236
236
235
234
234
234
234
234
234
234
234
234
234
234
234
234
234
234
234
232
232
232
232
231
231
231
231
231
231
231
231
231
231
231
231
232
232
232
232
233
233
233
233
234
234
234
234
234
234
234
234
234
233
233
233
233
232
232
231
231
230
231
229
229
229
228
229
229
229
229
229
229
229
229
229
229
229
229
229
229
229
229
227
226
225
225
225
225
225
225
225
225
223
220
219
219
219
218
217
216
215
213
212
211
210
210
210
210
207
206
204
204
204
203
202
200
199
198
197
196
193
193
192
193
191
191
190
189
189
189
189
187
187
187
186
186
185
184
184
184
184
183
183
181
181
181
181
180
180
180
178
177
174
174
173
172
171
171
168
168
167
167
167
166
166
166
164
164
162
162
161
161
160
160
159
159
159
159
158
157
155
155
154
153
151
151
150
149
148
146
143
142
139
137
136
133
132
130
128
124
122
119
119
118
118
117
116
116
115
115
114
114
116
116
117
118
123
128
133
137
138
141
144
148
149
152
156
160
162
167
168
169
170
175
179
184
189
194
196
198
199
201
201
203
204
207
208
210
211
212
212
211
214
218
220
219
222
224
225
224
225
226
226
226
226
228
228
229
229
231
231
229
229
230
230
231
231
231
231
230
229
230
229
229
228
229
224
223
220
219
219
217
214
212
210
210
212
210
206
202
197
191
188
185
183
179
176
172
168
166
162
157
152
149
145
144
141
143
141
140
140
143
144
146
149
152
154
159
165
171
176
180
182
186
187
191
194
199
202
205
206
207
208
212
216
219
223
224
223
224
226
227
229
229
229
228
228
228
228
229
229
229
229
229
229
229
229
229
229
229
229
227
227
228
227
227
227
227
227
226
226
226
226
226
226
226
225
225
224
224
224
224
224
224
224
224
224
224
224
224
224
224
222
222
220
220
220
213
213
213
213
213
213
213
213
212
212
212
212
212
212
211
211
211
210
209
208
208
208
207
207
206
206
206
206
206
206
206
206
207
206
206
205
206
206
206
206
207
207
208
209
209
208
208
208
208
208
208
208
208
208
208
208
210
210
211
211
211
211
211
211
211
211
211
211
211
211
211
211
212
212
212
212
213
213
214
214
214
214
215
215
215
215
217
217
217
217
218
218
218
218
218
218
219
219
220
220
222
222
221
221
221
221
222
222
222
222
221
221
223
223
223
223
224
224
224
224
224
224
224
224
224
224
224
224
224
224
224
224
224
224
224
224
225
225
226
226
227
227
227
227
227
227
229
229
229
229
229
229
229
229
229
229
229
229
227
227
227
226
226
225
225
224
224
223
223
223
222
222
222
222
220
220
222
222
223
223
224
224
224
224
225
225
225
225
226
226
227
227
229
229
228
228
230
230
231
231
232
232
232
232
232
232
234
234
234
234
235
235
235
235
234
234
235
235
235
235
236
236
236
236
236
235
234
232
232
232
234
234
234
234
234
234
232
232
232
232
232
232
231
231
232
232
231
231
231
231
231
231
231
231
231
231
231
231
232
232
232
232
233
233
233
233
234
234
234
234
234
234
234
234
234
234
234
234
234
232
232
231
231
230
230
229
229
229
229
229
229
229
229
229
229
229
229
229
229
229
229
229
229
229
229
229
227
226
226
226
226
226
226
226
226
226
226
224
224
224
223
222
220
218
217
216
214
213
213
213
212
212
211
208
208
207
206
206
205
204
203
202
200
198
198
197
196
195
195
193
192
192
192
192
191
191
191
190
190
188
187
187
187
187
186
186
184
184
184
184
184
184
184
181
180
178
178
177
175
174
174
172
171
170
170
170
169
169
169
168
168
166
166
164
165
164
164
163
163
163
162
161
160
159
159
158
157
154
154
153
152
151
150
146
145
143
141
139
137
136
133
131
128
125
123
123
122
122
119
118
117
116
115
115
116
116
116
117
119
124
129
134
137
138
143
149
149
149
153
161
166
166
168
168
171
175
179
184
189
193
196
196
199
200
203
203
204
205
208
209
211
213
214
214
214
218
220
220
222
224
225
225
225
225
226
226
226
226
228
228
229
229
231
231
229
229
230
230
231
231
231
231
230
230
229
229
230
229
229
225
225
223
222
222
219
217
214
212
212
213
211
206
204
203
197
191
187
185
183
179
176
172
168
166
162
157
152
148
145
141
141
141
139
139
140
143
144
145
146
149
154
160
165
171
174
176
180
182
187
191
194
199
202
203
205
206
209
212
216
219
220
222
224
224
225
226
227
227
228
228
228
228
229
229
229
229
229
229
229
229
229
229
229
229
227
227
228
227
227
227
227
227
226
226
226
226
226
226
226
226
225
225
225
225
224
224
224
224
224
224
224
224
224
224
224
224
223
223
223
223
213
213
213
213
213
213
213
213
212
212
212
212
212
212
211
211
211
210
209
208
208
208
207
207
206
206
206
206
206
206
207
207
208
207
206
205
206
206
207
207
208
209
210
210
210
210
210
210
210
210
210
210
210
210
210
210
210
210
211
211
211
211
211
211
211
211
211
211
211
211
211
211
212
212
212
212
213
213
214
214
214
214
215
215
215
215
217
217
217
217
217
217
217
217
217
217
218
218
219
219
221
221
220
220
220
220
221
221
221
221
220
220
223
223
223
223
224
224
224
224
224
224
224
224
224
224
224
224
224
224
224
224
224
224
224
224
225
225
225
225
226
226
226
226
226
226
227
227
228
228
228
228
228
228
229
229
229
227
226
226
226
225
226
225
225
224
224
223
223
223
222
222
222
222
220
220
222
222
223
223
225
225
225
225
226
226
225
225
226
226
226
226
228
228
227
227
229
229
230
230
231
231
231
231
231
231
232
232
232
232
232
232
232
232
232
232
234
234
235
235
236
236
236
236
236
234
232
231
231
231
231
231
232
232
231
231
231
231
231
231
231
231
230
230
230
230
230
230
230
230
231
231
231
231
231
231
231
231
232
232
232
232
233
233
233
233
233
233
233
233
233
233
233
233
233
233
233
233
233
232
232
231
231
230
230
229
229
229
229
229
229
229
229
229
229
229
229
229
229
229
229
229
229
229
229
229
227
226
226
226
226
226
226
226
226
226
226
226
226
226
225
224
223
220
218
217
215
215
215
215
215
215
213
211
211
209
208
208
207
206
206
205
203
201
200
199
200
200
199
197
196
196
196
196
194
194
194
193
193
192
191
191
191
191
190
190
188
188
188
188
187
187
187
185
184
181
180
179
180
179
178
177
176
175
175
174
174
173
173
171
171
169
169
168
170
168
168
167
167
166
166
165
164
162
162
161
159
157
157
155
155
153
152
150
149
145
143
141
139
138
136
133
131
130
125
125
124
125
123
121
119
117
116
116
117
116
117
117
119
123
127
131
137
141
145
149
151
152
156
165
167
167
168
169
174
179
185
188
190
192
194
197
200
201
204
204
205
207
209
210
212
213
215
215
217
218
220
220
222
223
224
224
224
224
226
226
226
226
228
228
228
228
229
229
228
228
229
229
230
230
230
230
229
229
229
229
229
229
229
227
226
224
224
224
221
219
217
214
214
214
212
207
205
205
202
196
192
187
185
183
180
176
172
168
165
161
156
150
146
143
141
140
139
137
138
140
140
142
143
144
150
154
160
165
168
171
174
176
182
187
191
194
197
199
202
203
206
209
212
216
218
219
222
223
224
224
226
226
227
227
228
228
228
228
229
229
229
229
229
229
229
229
229
229
227
227
228
227
227
227
227
227
226
226
226
226
226
226
226
226
225
225
225
225
224
224
224
224
224
224
224
224
224
224
224
224
223
223
223
223
213
213
213
213
213
213
213
213
213
213
213
213
212
212
211
211
211
210
210
208
208
208
207
207
207
207
206
206
207
207
208
208
210
208
207
206
207
207
208
208
211
211
209
209
211
211
211
211
211
211
211
211
211
211
211
211
211
211
211
211
211
211
211
211
211
211
211
211
211
211
211
211
211
211
212
212
212
212
213
213
213
213
214
214
214
214
216
216
216
216
217
217
217
217
217
217
218
218
218
218
219
219
219
219
219
219
219
219
221
221
221
221
222
222
222
222
223
223
223
223
223
223
223
223
223
223
223
223
223
223
223
223
223
223
223
223
223
223
225
225
225
225
225
225
225
225
226
226
227
227
227
227
227
227
227
227
227
227
226
225
225
225
225
225
225
225
224
224
224
224
223
222
223
223
222
222
222
222
223
223
224
224
224
224
225
225
224
224
224
224
224
224
226
226
226
226
229
229
230
230
230
230
230
230
230
230
231
231
232
232
231
231
231
231
231
231
232
232
234
234
235
235
235
235
235
234
232
231
231
231
230
230
229
229
230
230
230
230
230
230
229
229
228
228
229
229
229
229
230
230
229
229
229
229
231
231
231
231
232
232
232
232
233
233
233
233
233
233
233
233
233
233
233
233
233
233
233
233
233
233
232
232
231
231
229
229
229
229
230
230
230
230
230
230
230
230
230
230
229
229
229
229
230
230
230
229
229
227
227
227
227
227
227
227
227
227
227
227
227
227
226
225
224
222
219
218
218
217
217
216
215
214
213
213
211
211
210
209
209
207
207
206
205
204
204
203
203
203
203
203
201
201
201
201
200
200
200
199
199
197
196
196
195
195
194
193
193
192
192
192
190
190
190
189
188
187
186
186
185
185
183
181
181
180
180
180
179
179
179
178
178
177
177
177
174
174
174
173
173
173
173
171
169
168
167
166
164
161
161
160
159
158
157
156
153
151
146
144
144
143
139
138
138
136
132
130
130
130
129
126
125
123
122
121
121
121
121
122
123
124
126
130
136
141
145
148
151
153
158
166
167
167
167
169
175
181
186
188
190
192
193
198
202
203
204
204
205
206
209
210
212
214
216
215
217
217
220
220
221
221
224
224
224
224
225
225
225
225
226
226
228
228
228
228
227
227
227
227
228
228
229
229
227
227
227
227
229
229
227
227
226
225
225
225
223
220
218
216
216
216
214
209
205
205
202
198
193
189
186
184
182
178
174
169
166
162
157
152
147
144
143
140
138
136
137
137
138
139
140
140
145
150
154
160
162
164
168
170
177
183
188
191
194
196
200
202
204
206
209
212
215
217
220
222
222
222
224
225
226
226
227
227
229
229
229
229
229
229
229
229
229
229
229
229
229
229
229
229
228
228
228
228
227
227
227
227
228
228
228
228
226
226
226
226
225
225
225
225
225
225
225
225
225
225
225
224
224
223
223
223
213
213
213
213
213
213
213
213
213
213
213
213
212
212
211
211
211
210
210
208
208
208
207
207
207
207
206
206
207
207
208
208
210
208
207
206
207
207
208
208
211
211
209
209
211
211
211
211
211
211
211
211
211
211
211
211
211
211
211
211
211
211
211
211
211
211
211
211
211
211
211
211
211
211
212
212
212
212
213
213
213
213
214
214
214
214
216
216
216
216
216
216
216
216
215
215
217
217
217
217
218
218
218
218
218
218
218
218
219
219
219
219
222
222
222
222
223
223
223
223
223
223
223
223
223
223
223
223
223
223
223
223
223
223
223
223
223
223
224
224
224
224
224
224
224
224
225
225
225
225
225
225
227
227
226
226
227
226
225
224
224
224
225
225
225
225
224
224
224
224
222
222
223
223
222
222
222
222
223
223
224
224
224
224
225
225
224
224
224
224
223
223
225
225
225
225
227
228
229
229
229
229
229
229
229
229
230
230
231
231
229
229
230
230
230
230
230
230
231
231
231
231
231
231
231
231
230
230
230
230
229
229
229
229
228
227
228
228
228
228
228
228
227
227
228
228
228
228
229
229
229
229
229
229
231
231
231
231
232
232
232
232
233
233
233
233
232
232
232
232
232
232
232
232
232
232
232
232
232
232
231
231
231
231
229
229
229
229
230
230
230
230
230
230
230
230
230
230
229
229
229
229
230
230
230
229
229
229
229
229
229
229
229
229
228
228
228
228
229
229
229
227
226
225
224
220
221
218
218
218
217
216
215
216
213
213
212
210
210
210
210
209
207
206
206
206
205
205
205
205
203
203
203
203
202
202
202
201
201
200
199
199
197
197
196
195
195
194
194
194
193
193
193
192
190
189
188
188
187
187
186
185
185
184
184
183
183
181
181
180
180
179
179
179
178
178
178
178
178
178
178
176
175
174
173
172
169
167
166
165
164
163
163
162
159
157
155
151
148
146
144
144
143
142
141
138
137
137
136
133
132
130
129
128
128
126
128
128
129
129
130
131
137
141
145
148
151
153
158
165
167
167
167
169
175
181
186
186
189
192
193
198
202
203
204
204
205
206
209
210
213
214
216
216
217
216
219
219
220
220
223
223
222
222
225
225
225
225
226
226
227
227
227
227
226
226
226
226
227
227
227
227
226
226
226
226
226
226
226
226
225
225
225
225
223
220
218
216
216
216
214
209
205
205
201
198
194
192
189
185
183
179
176
170
166
162
159
153
148
146
143
139
138
136
135
135
136
137
138
139
142
145
150
154
157
160
162
164
171
177
183
188
191
194
197
200
202
204
206
209
212
215
219
220
221
221
223
223
225
225
227
227
227
227
229
229
229
229
229
229
229
229
229
229
229
229
229
229
228
228
228
228
227
227
227
227
228
228
228
228
226
226
226
226
225
225
225
225
225
225
225
225
225
225
225
224
224
223
223
223
214
214
214
214
214
214
214
214
214
214
213
213
213
213
212
212
212
212
212
211
211
211
209
209
208
208
210
210
210
210
211
211
212
211
209
208
209
209
211
211
212
212
212
212
212
212
212
212
212
212
212
212
212
212
212
212
212
212
212
212
212
212
212
212
212
212
212
212
212
212
212
212
212
212
212
212
212
212
213
213
213
213
214
214
214
214
216
216
216
216
215
215
215
215
215
215
217
217
217
217
218
218
218
218
218
218
218
218
219
219
219
219
222
222
222
222
223
223
223
223
223
223
223
223
223
223
223
223
223
223
223
223
223
223
223
223
223
223
224
224
224
224
224
224
224
224
225
225
225
225
225
225
227
227
227
227
228
227
225
224
224
224
225
225
225
225
224
224
224
224
223
223
223
223
221
221
221
221
222
222
224
224
224
224
225
225
224
224
224
224
223
223
225
225
225
225
227
227
228
228
228
228
229
229
229
229
230
230
231
231
228
228
229
229
229
229
227
227
227
227
226
226
226
226
227
227
229
229
230
230
229
229
229
229
227
227
227
227
227
227
226
227
226
226
228
228
228
228
229
229
229
229
229
229
229
229
231
231
232
232
232
232
232
232
232
232
232
232
232
232
232
232
232
232
232
232
232
232
232
232
231
231
231
231
229
229
229
229
229
229
229
229
229
229
229
229
229
229
229
229
229
229
229
229
229
229
229
229
229
229
229
229
229
229
231
231
231
231
231
231
231
230
229
227
228
226
225
222
219
218
219
218
217
217
218
217
215
214
214
213
213
213
212
211
210
210
208
208
207
207
206
206
206
206
205
205
205
204
204
202
201
201
200
200
199
198
198
197
197
197
195
195
195
194
193
192
191
191
190
190
188
187
187
186
186
185
185
184
184
182
182
181
181
181
180
180
180
180
180
180
180
179
178
177
176
174
172
170
169
167
166
165
165
164
163
162
159
157
155
151
148
148
148
146
144
142
142
142
141
138
137
135
133
132
132
131
132
132
134
134
135
135
138
141
145
148
151
153
158
165
167
167
167
169
176
182
188
188
189
192
194
198
203
204
205
205
206
208
210
211
214
215
217
217
217
217
219
219
220
220
223
223
223
223
225
225
225
225
226
226
227
227
227
227
226
226
226
226
227
227
227
227
226
226
226
226
226
226
226
226
226
226
226
226
224
222
220
218
217
217
215
210
207
206
202
199
195
194
190
186
184
182
179
173
169
164
161
156
152
149
144
141
139
137
135
135
133
134
136
138
139
142
145
150
152
154
157
160
165
171
177
183
187
191
194
197
199
202
204
206
209
212
216
219
221
223
224
224
225
225
227
227
227
227
229
229
229
229
229
229
229
229
229
229
229
229
229
229
228
228
228
228
227
227
227
227
228
228
228
228
226
226
226
226
225
225
225
225
225
225
225
225
225
225
225
225
224
224
224
224
214
214
214
214
214
214
214
214
214
214
213
213
213
213
212
212
212
212
212
211
211
211
209
209
208
208
210
210
210
210
211
211
212
211
209
209
209
209
211
211
212
212
212
212
212
212
212
212
212
212
212
212
212
212
212
212
212
212
212
212
212
212
212
212
212
212
212
212
212
212
212
212
212
212
212
212
212
212
213
213
213
213
214
214
214
214
216
216
216
216
215
215
215
215
215
215
217
217
217
217
218
218
218
218
218
218
218
218
219
219
219
219
222
222
222
222
223
223
223
223
223
223
223
223
223
223
223
223
223
223
223
223
223
223
223
223
223
223
224
224
224
224
224
224
224
224
225
225
225
225
225
225
227
227
227
227
228
227
225
224
224
224
224
224
224
225
224
224
224
224
223
223
221
221
220
220
221
221
222
222
222
222
222
222
224
224
225
224
224
224
223
222
224
225
225
225
227
227
228
228
228
228
229
229
228
227
228
228
227
227
226
226
227
227
227
226
226
225
226
223
223
222
222
222
224
225
227
227
230
230
229
229
229
229
227
223
227
230
229
226
225
227
227
226
228
228
228
228
229
229
228
228
228
228
228
228
228
228
229
229
231
231
231
231
231
231
231
231
231
231
231
231
231
231
231
231
231
231
231
231
231
231
229
229
228
228
228
228
228
228
228
228
228
228
228
228
228
228
229
229
229
229
229
229
229
229
229
229
229
229
229
229
229
229
231
231
231
231
231
231
231
230
229
227
228
228
227
225
224
223
222
219
218
218
219
218
218
217
217
215
215
215
214
213
212
212
211
211
210
210
209
209
209
209
207
207
207
206
206
205
204
204
202
202
202
201
201
200
200
200
199
199
199
198
197
194
194
193
194
193
193
191
191
189
189
189
188
188
188
187
187
186
185
185
185
185
183
183
183
183
183
182
181
180
179
178
176
173
172
171
171
170
169
169
167
166
165
163
160
158
156
153
153
152
150
148
145
145
143
142
142
139
138
137
137
136
137
137
137
137
137
137
139
143
146
149
152
154
158
163
167
167
167
169
176
182
188
188
187
192
194
198
202
203
204
204
205
206
210
210
212
215
217
217
217
217
219
219
220
220
223
223
223
223
225
225
225
225
226
226
227
227
227
227
226
226
226
226
227
227
227
227
226
226
226
226
226
226
226
226
226
226
226
226
224
222
220
218
217
217
215
211
207
206
202
199
195
195
192
189
185
183
180
175
170
165
162
159
153
151
146
143
138
137
136
133
133
132
134
134
135
138
140
142
146
149
153
155
159
165
171
177
183
187
191
194
197
199
202
204
207
209
212
217
221
223
224
224
225
225
226
226
226
226
227
227
227
227
227
227
229
229
229
229
229
229
229
229
228
228
228
228
227
227
227
227
228
228
228
228
226
226
226
226
225
225
225
225
225
225
225
225
225
225
225
225
224
224
224
224
214
214
214
214
215
215
214
214
214
214
214
214
214
214
213
213
213
212
212
212
212
212
211
211
212
212
211
211
211
211
212
212
212
212
211
211
211
211
212
212
212
212
212
212
212
212
212
212
212
212
212
212
212
212
212
212
212
212
212
212
212
212
212
212
212
212
212
212
212
212
212
212
212
212
213
213
213
213
213
213
213
213
214
214
214
214
216
216
216
216
215
215
215
215
215
215
217
217
217
217
218
218
218
218
218
218
218
218
218
218
219
219
221
221
220
220
222
222
222
222
222
222
222
222
222
222
222
222
222
222
222
222
222
222
221
221
221
221
223
223
223
223
223
223
223
223
224
224
224
224
224
224
225
225
225
225
227
227
225
225
225
224
224
223
224
223
223
221
221
220
220
220
221
220
219
219
219
220
221
221
222
222
222
222
223
223
223
223
224
224
222
222
222
221
220
220
221
221
223
223
225
225
225
225
226
225
224
223
222
222
225
225
226
226
226
226
227
229
225
227
227
223
224
223
218
217
222
224
224
221
219
220
224
224
218
220
224
224
225
224
224
224
224
224
224
224
224
224
225
225
225
225
226
226
228
228
228
228
229
229
229
229
229
229
229
229
229
229
229
229
229
229
230
230
230
230
230
230
230
230
229
229
229
229
229
229
228
228
228
228
228
228
228
228
228
228
228
228
228
228
228
228
228
228
228
228
229
229
229
229
229
229
231
231
231
231
232
232
231
231
231
229
230
229
229
227
227
227
227
227
223
223
220
219
219
219
219
218
217
217
217
216
216
215
213
213
213
213
212
212
211
211
211
210
209
209
209
209
209
207
207
207
206
206
206
206
205
205
205
204
203
202
202
201
200
199
199
199
199
199
199
197
197
196
196
196
195
195
195
193
193
192
191
191
190
190
188
188
188
188
188
187
186
185
185
184
182
181
180
180
177
177
176
174
173
172
171
170
167
166
164
160
159
158
157
155
151
149
146
145
145
145
145
144
144
143
143
143
142
142
142
142
143
146
150
153
155
158
161
163
166
167
169
172
177
182
185
184
187
191
194
197
201
202
203
203
205
207
208
210
210
211
216
216
217
217
218
218
219
219
222
222
220
220
222
222
222
222
223
223
224
224
224
224
225
225
225
225
224
224
224
224
225
225
225
225
224
224
224
224
225
226
226
225
224
223
221
219
218
217
216
214
208
206
203
199
196
195
192
188
185
183
179
176
170
167
163
161
155
151
148
144
141
138
137
134
133
132
132
133
134
134
134
136
142
146
150
152
156
161
165
171
177
183
188
191
193
195
198
200
203
206
208
213
217
219
220
220
221
221
224
224
224
225
225
225
226
226
227
227
227
227
227
227
229
229
229
229
229
229
229
229
228
228
228
228
229
229
228
228
227
227
227
227
227
227
227
227
226
226
226
226
226
226
226
226
225
225
225
225
214
214
214
214
215
215
214
214
214
214
214
214
214
214
213
213
213
212
212
212
212
212
211
211
212
212
211
211
212
212
212
212
212
212
212
212
212
212
212
212
212
212
212
212
212
212
212
212
212
212
212
212
212
212
212
212
212
212
212
212
212
212
212
212
212
212
212
212
212
212
212
212
212
212
213
213
213
213
213
213
213
213
214
214
214
214
216
216
216
216
215
215
215
215
215
215
217
217
217
217
218
218
218
218
218
218
218
218
218
218
219
219
221
221
220
220
222
222
222
222
222
222
222
222
222
222
222
222
222
222
222
222
222
222
221
221
221
221
223
223
223
223
223
223
223
223
224
224
224
224
224
224
225
225
225
225
227
227
225
225
225
224
223
222
220
219
218
216
216
216
216
216
218
218
218
218
219
220
221
222
222
222
220
220
220
221
220
220
221
220
220
221
222
220
219
217
218
218
219
221
222
223
223
224
224
224
224
223
222
222
224
224
224
226
226
227
228
227
222
217
216
219
227
230
225
221
221
222
222
220
218
218
223
230
234
228
215
209
214
221
224
222
221
221
220
220
220
220
220
220
221
221
223
223
225
225
226
226
228
228
228
228
228
228
228
228
228
228
228
228
228
228
229
229
229
229
229
229
229
229
229
229
227
227
227
227
227
227
227
227
227
227
227
227
227
227
227
227
227
227
227
227
228
228
228
228
229
229
229
229
229
229
231
231
231
231
232
232
231
231
231
229
230
229
229
227
227
227
227
227
226
226
225
223
222
222
222
220
219
219
219
218
218
218
217
217
216
216
215
215
214
214
214
214
212
212
212
210
211
210
210
210
209
209
209
209
208
208
208
207
207
206
206
205
203
202
202
202
202
203
203
202
202
200
200
200
199
199
199
198
198
195
195
194
194
193
193
192
192
192
192
191
190
189
189
188
187
184
184
183
181
180
180
179
178
177
175
174
172
170
167
165
164
163
162
159
158
155
152
150
149
150
150
149
149
148
148
148
148
148
148
148
149
152
156
159
161
163
165
166
167
168
171
175
177
182
185
184
187
191
194
197
199
201
202
202
202
203
205
207
206
206
209
211
213
213
214
214
215
215
217
217
215
215
217
217
217
217
218
218
219
219
219
219
220
220
220
220
219
219
219
219
220
220
220
221
220
220
222
222
222
223
225
225
224
223
221
219
218
217
216
214
209
206
203
199
196
195
192
188
185
183
179
176
171
169
164
162
158
152
149
145
143
139
137
134
133
132
132
132
133
133
133
133
137
141
143
146
151
156
161
165
171
177
183
188
190
192
195
197
200
203
206
209
214
215
217
217
218
218
220
220
222
223
225
225
225
225
226
226
227
227
227
227
229
229
229
229
229
229
229
229
228
228
228
228
229
229
228
228
227
227
227
227
227
227
227
227
226
226
226
226
226
226
226
226
225
225
225
225
215
215
216
216
216
216
216
216
216
216
214
214
214
214
213
213
213
213
213
213
213
213
212
212
212
212
214
214
214
214
214
214
214
214
213
213
213
213
213
213
213
213
213
213
213
213
213
213
213
213
214
214
214
214
214
214
214
214
215
215
215
215
214
214
214
214
214
214
214
214
214
214
214
214
214
214
214
214
214
214
214
214
215
215
215
216
216
216
216
216
217
217
217
217
217
217
218
218
218
218
219
219
219
219
219
219
220
220
220
220
221
221
222
222
222
222
222
222
222
222
222
222
222
222
222
222
222
222
222
222
222
222
222
222
221
221
221
221
223
223
223
223
223
223
223
223
224
224
224
224
224
224
225
225
225
225
227
227
225
225
225
224
223
222
221
219
218
217
216
216
217
216
219
219
219
219
220
221
221
222
222
223
221
221
221
221
223
223
222
221
221
220
221
221
222
222
224
224
226
226
225
225
224
224
224
224
224
224
224
222
219
217
215
215
216
216
216
218
220
219
215
216
213
208
203
199
193
191
191
189
186
188
192
197
203
213
221
221
220
218
215
215
216
216
216
216
216
216
216
216
217
217
219
220
222
223
226
226
227
227
228
228
227
227
227
227
228
228
228
228
228
228
229
229
229
229
229
229
229
229
229
229
227
227
227
227
227
227
227
227
227
227
227
227
227
227
227
227
227
227
227
227
228
228
228
228
229
229
229
229
229
229
231
231
232
232
233
233
232
232
232
231
231
230
230
229
229
229
229
229
229
229
229
226
226
226
227
225
225
224
224
224
224
223
223
222
222
221
221
219
218
218
218
218
217
217
217
215
216
214
214
214
213
213
213
213
212
212
212
211
211
211
211
210
209
207
207
207
207
207
207
205
205
204
204
204
203
203
203
201
201
199
199
198
198
197
197
195
195
195
195
195
193
192
192
191
190
187
187
186
186
184
184
183
181
180
179
178
176
174
171
168
167
166
165
163
162
159
158
155
155
155
155
153
153
152
152
152
152
152
152
152
153
157
160
164
165
166
166
166
168
168
172
177
179
183
186
185
188
191
194
197
199
199
202
202
202
202
202
203
204
205
209
209
209
209
211
211
212
212
213
213
212
212
213
213
213
213
215
215
216
216
216
216
217
217
217
217
216
216
216
216
217
217
217
217
217
217
218
218
218
219
223
224
223
223
222
221
218
217
216
215
210
207
205
200
196
195
192
188
185
183
179
176
174
172
167
163
160
155
152
148
145
141
138
134
133
132
132
132
132
133
133
135
133
134
134
141
146
152
156
161
165
171
177
183
186
188
190
192
197
200
204
207
212
213
215
215
216
216
218
219
222
223
225
225
225
225
226
226
227
227
227
227
229
229
229
229
229
229
229
229
229
229
229
229
229
229
228
228
227
227
227
227
227
227
227
227
227
227
227
227
227
227
227
227
225
225
225
225
215
215
216
216
216
216
216
216
216
216
214
214
214
214
213
213
213
213
213
213
213
213
212
212
212
212
214
214
214
214
214
214
214
214
213
213
213
213
213
213
213
213
213
213
213
213
213
213
213
213
214
214
214
214
214
214
214
214
215
215
215
215
214
214
214
214
214
214
214
214
214
214
214
214
214
214
214
214
214
214
214
214
216
216
216
216
216
216
216
216
217
217
217
217
217
217
218
218
218
218
219
219
219
219
219
219
220
220
220
220
221
221
222
222
222
222
222
222
222
222
222
222
222
222
222
222
222
222
222
222
222
222
222
222
221
221
221
221
223
223
223
223
223
223
223
223
224
224
224
224
224
224
225
225
224
224
225
225
225
225
225
224
223
222
223
222
222
220
219
219
219
219
219
219
219
219
220
220
222
222
222
222
221
217
214
211
207
204
200
193
183
180
176
173
168
164
162
162
163
165
168
172
174
178
180
184
187
188
191
192
194
195
197
195
195
193
192
188
178
166
154
144
135
128
124
116
108
105
104
102
100
101
106
114
140
174
207
214
214
211
211
211
212
212
212
212
213
213
213
213
214
214
217
218
222
223
225
227
229
229
229
228
227
227
227
227
227
227
227
227
227
227
227
227
228
228
228
228
228
228
228
228
226
226
226
226
226
226
226
226
226
226
226
226
226
226
226
226
226
226
226
226
227
227
227
227
228
228
228
228
229
229
231
231
229
229
231
231
231
231
231
229
230
229
230
229
229
229
229
229
229
229
229
227
227
226
227
227
227
225
225
225
225
224
224
223
223
222
222
221
219
219
219
219
218
218
218
217
216
215
215
216
214
214
213
213
212
212
213
212
212
213
213
212
211
210
209
209
209
209
208
206
206
205
205
205
204
204
204
203
202
200
200
199
199
198
198
197
197
197
197
196
194
193
193
192
191
189
189
187
187
186
186
184
182
181
180
180
178
176
173
171
170
168
167
165
165
164
163
160
159
159
159
158
158
157
157
157
156
156
156
156
156
159
162
164
165
165
166
166
169
170
176
181
181
183
185
184
186
190
192
196
197
198
201
201
201
201
201
202
203
203
204
206
206
208
209
209
210
210
211
211
210
210
211
211
211
211
212
212
214
215
215
215
216
216
216
216
215
215
214
214
215
215
215
215
216
216
216
216
217
218
221
222
222
222
221
221
218
217
216
215
210
207
205
200
196
195
192
188
185
183
179
176
174
174
169
164
159
156
152
148
145
142
138
134
132
131
131
131
131
132
132
133
132
133
133
135
141
146
152
156
161
165
172
177
180
182
184
187
191
197
200
205
209
210
212
212
213
213
217
217
219
222
223
224
223
225
226
226
227
227
227
227
229
229
229
229
229
229
229
229
229
229
229
229
229
229
228
228
227
227
228
228
227
227
227
227
227
227
227
227
227
227
227
227
225
225
225
225
215
215
216
216
216
216
216
216
216
216
214
214
214
214
213
213
213
213
213
213
213
213
212
212
213
213
214
214
215
215
215
215
215
215
214
214
214
214
214
214
215
215
214
214
214
214
214
214
214
215
215
215
215
215
215
215
216
216
216
216
216
216
215
215
215
215
215
215
215
215
215
215
215
215
216
216
216
216
215
215
215
216
216
216
215
215
217
217
217
217
217
217
217
217
217
217
218
218
219
219
221
221
220
220
220
220
221
221
221
221
222
222
222
222
222
222
223
223
223
223
223
223
223
223
223
223
223
223
223
223
222
222
222
222
222
222
222
222
223
223
223
223
223
223
223
223
224
224
224
224
224
224
224
224
224
224
225
224
224
224
224
224
223
223
223
223
222
222
222
219
216
217
218
218
215
211
216
208
201
194
181
173
169
163
152
141
130
128
126
122
118
114
109
106
103
101
100
100
101
101
102
102
102
102
103
103
103
103
105
106
108
110
111
110
105
101
99
101
103
105
106
104
98
93
91
93
95
99
104
108
108
101
103
110
108
109
132
166
192
205
212
207
203
205
212
218
220
220
220
221
221
218
211
207
205
211
222
225
228
228
229
229
227
227
226
226
227
227
226
226
226
226
226
226
227
227
227
227
227
227
225
225
226
226
225
225
225
225
225
225
225
225
225
225
225
225
225
225
226
226
226
226
227
227
227
227
229
229
229
229
229
229
229
229
229
229
230
230
229
229
231
229
229
228
228
228
230
228
230
230
228
228
228
227
226
226
226
226
226
226
226
226
226
225
225
225
223
223
223
222
220
220
220
220
219
219
219
218
218
217
216
216
216
216
215
215
214
214
215
214
215
214
215
213
212
211
210
210
210
210
208
208
208
207
207
206
205
205
205
204
204
203
203
203
201
201
201
200
200
200
200
199
198
197
197
196
194
192
192
191
190
189
189
188
187
186
184
184
183
182
180
177
176
175
174
172
170
170
169
167
165
165
165
164
164
163
163
163
162
162
162
162
160
162
163
164
165
166
168
168
169
173
179
182
182
182
184
184
185
190
192
195
196
197
197
197
197
197
197
197
198
198
199
202
202
202
203
203
205
205
207
207
207
207
208
208
208
209
210
212
212
212
213
214
214
214
216
214
214
213
214
214
214
214
216
216
214
214
214
214
216
216
217
218
218
218
218
218
217
216
216
214
210
207
205
201
198
195
192
188
185
183
179
176
175
172
169
162
159
155
151
147
144
141
137
133
131
130
130
130
130
130
130
130
131
131
131
131
136
142
146
152
155
160
165
170
175
178
181
184
187
192
196
200
205
208
211
210
212
213
216
217
218
219
220
220
223
224
225
226
226
226
228
228
228
228
228
228
229
229
229
229
229
229
229
228
228
228
228
229
229
229
229
229
227
227
227
227
227
227
227
227
227
227
227
227
227
227
227
227
215
215
216
216
216
216
216
216
216
216
214
214
214
214
213
213
213
213
213
213
213
213
212
212
213
213
214
214
215
215
215
215
215
215
214
214
214
214
214
214
215
215
214
214
215
215
215
215
216
216
216
216
216
216
216
216
217
217
215
215
216
216
216
216
216
216
216
216
216
216
216
216
216
216
216
217
218
217
217
217
218
218
218
218
218
218
219
219
219
219
218
218
218
218
219
219
219
219
221
221
222
222
222
222
222
222
222
222
222
222
223
223
223
223
222
222
223
223
223
223
223
223
223
223
223
223
223
223
223
223
222
222
222
222
222
222
222
222
223
223
223
223
223
223
223
223
224
224
224
224
224
224
224
224
223
223
223
223
224
224
224
224
223
223
223
223
224
225
225
227
225
217
204
196
183
164
148
141
134
128
120
115
108
102
94
92
91
94
93
93
92
91
92
94
96
96
99
99
101
101
102
102
102
102
102
102
100
101
101
98
97
96
95
95
98
100
101
100
100
99
98
95
95
96
99
100
101
104
108
112
109
103
111
117
107
103
109
127
150
176
198
207
211
211
214
214
211
210
210
207
205
207
215
223
227
223
215
214
221
225
225
225
224
224
224
224
224
224
224
224
224
224
224
224
224
224
224
224
224
224
224
224
223
223
223
223
223
223
223
223
222
222
223
223
223
223
223
223
223
223
223
223
224
224
225
225
226
225
226
226
227
227
227
227
227
227
227
227
228
228
228
228
228
227
228
228
230
228
230
230
228
228
228
227
226
225
226
226
226
226
227
226
226
225
225
225
223
223
224
224
223
223
223
223
221
221
221
220
220
219
219
219
218
218
218
218
217
217
217
217
218
217
218
215
214
213
213
213
212
212
212
212
211
211
211
210
210
208
208
207
207
206
206
206
205
205
205
205
205
205
205
203
203
202
202
201
200
197
197
195
195
193
193
192
191
190
189
189
188
187
184
182
181
180
178
176
176
175
174
171
170
170
170
169
169
167
167
167
166
166
166
166
166
166
166
166
168
170
173
172
170
175
181
182
182
182
183
183
185
187
190
191
192
193
192
192
192
192
192
192
193
193
193
196
196
198
199
199
200
200
202
202
202
202
205
205
205
205
207
207
208
208
210
210
210
210
212
211
211
210
211
211
211
211
212
212
212
212
213
213
213
213
216
216
216
216
216
216
216
214
214
213
210
207
205
201
198
195
192
188
185
183
179
176
175
172
168
162
156
154
149
146
143
139
135
132
130
129
129
129
128
128
128
128
130
130
130
129
131
136
142
146
152
155
160
165
170
175
179
181
184
187
192
196
199
204
209
211
210
212
215
216
217
218
219
219
219
220
222
224
225
226
227
227
228
228
228
228
229
229
229
229
229
229
229
229
228
228
229
229
229
229
229
229
227
227
227
227
227
227
227
227
227
227
227
227
227
227
227
227
214
214
215
215
215
215
215
215
215
215
213
213
213
213
213
213
213
213
213
213
213
213
212
212
213
213
214
214
215
215
215
215
215
215
214
214
214
214
214
214
215
215
215
215
217
217
217
217
218
218
218
217
218
218
218
218
218
218
219
219
219
219
219
219
219
219
219
219
219
219
219
219
219
219
219
219
219
219
219
219
219
219
219
219
219
219
219
219
219
219
219
219
220
220
220
220
221
221
221
221
223
223
223
223
223
223
223
223
222
222
223
223
224
224
223
223
224
224
224
224
224
224
223
223
222
222
222
222
223
223
222
222
222
222
222
222
222
222
223
223
223
223
223
223
223
223
224
224
224
224
224
224
224
224
223
223
223
223
224
224
225
224
223
223
223
224
222
217
208
200
190
176
157
143
127
113
105
104
101
96
96
96
98
98
98
97
100
101
102
102
102
102
103
101
100
98
98
98
100
101
102
102
102
102
101
100
98
97
97
98
99
100
103
103
103
102
103
102
100
99
98
98
103
106
109
107
106
108
114
114
110
105
118
128
119
111
117
115
115
129
153
179
183
174
172
168
164
162
162
163
171
182
194
208
220
223
221
219
219
220
220
220
219
220
220
221
221
223
223
224
224
224
223
224
224
224
224
224
224
224
224
224
222
221
221
221
221
221
221
221
221
221
222
222
222
222
223
223
223
223
222
222
223
223
224
224
225
225
226
226
227
227
227
227
226
226
227
227
227
227
228
227
227
226
227
227
228
228
230
230
228
228
228
227
226
225
226
226
227
227
229
227
227
226
226
226
227
227
225
225
224
224
224
224
224
224
224
223
223
223
223
223
221
223
223
224
223
223
222
220
219
219
219
218
217
217
217
218
216
216
217
217
217
216
216
214
215
214
214
212
212
210
210
211
210
210
210
210
210
210
210
209
208
206
206
205
204
202
202
201
199
198
198
197
196
195
193
193
193
191
189
187
186
184
183
181
181
179
178
176
174
174
174
173
173
172
172
172
171
171
171
171
171
171
172
172
172
172
175
174
175
179
181
182
183
183
183
183
184
187
189
190
190
190
189
189
189
187
187
187
189
189
190
191
193
194
195
195
196
196
198
198
198
198
200
200
200
200
202
202
203
203
206
207
207
207
209
207
207
206
208
208
208
208
209
209
209
209
210
210
210
211
214
213
214
214
214
214
214
213
213
213
210
207
205
201
198
195
192
188
185
183
179
176
174
171
168
161
156
153
148
145
142
138
134
131
129
128
128
128
126
126
126
126
128
128
128
128
129
131
135
142
146
152
155
160
165
170
175
179
181
184
187
192
196
199
205
209
210
210
213
216
217
218
219
219
219
219
220
222
222
223
224
227
228
228
228
228
229
229
229
229
227
227
229
229
228
227
229
229
229
229
229
229
227
227
227
227
227
227
227
227
227
227
227
227
227
227
227
227
214
214
215
215
215
215
215
215
215
215
213
213
213
213
213
213
213
213
213
213
213
213
212
212
213
213
214
214
215
215
215
215
215
215
214
214
214
214
214
214
215
215
215
215
217
217
217
217
218
218
218
217
218
218
218
218
218
218
219
219
219
219
219
219
219
219
219
219
219
219
219
219
219
219
219
219
220
220
220
220
220
220
220
220
220
220
220
220
220
220
220
220
220
220
221
221
221
221
221
221
223
223
223
223
223
223
222
222
222
222
223
223
223
223
223
223
224
224
224
224
224
224
222
222
222
222
222
222
222
222
222
222
222
222
222
222
222
222
223
223
223
223
223
223
223
223
224
224
224
223
222
223
225
227
223
223
223
223
224
224
225
225
223
223
223
222
216
200
177
154
131
115
104
92
85
88
97
99
97
94
97
99
100
99
99
97
94
93
94
92
91
91
91
92
94
96
99
99
100
101
102
102
102
102
101
99
96
94
97
100
100
102
103
103
106
106
105
103
107
107
107
108
114
117
116
115
115
117
121
122
116
110
119
130
130
122
120
116
115
114
107
111
112
108
101
97
97
98
98
99
103
109
116
127
151
174
197
211
218
216
216
217
215
217
218
219
219
222
221
222
222
222
221
222
220
222
222
222
220
220
220
220
220
220
220
220
220
220
220
220
219
219
220
220
220
220
220
220
222
222
220
220
222
222
223
223
224
224
225
225
226
226
226
226
226
226
226
226
227
227
227
227
227
226
227
227
228
228
230
230
228
228
228
227
226
225
226
226
227
227
229
227
227
226
226
226
226
227
227
227
225
225
225
225
225
225
225
224
224
224
224
225
224
225
225
226
225
225
224
223
222
221
221
219
218
218
219
219
217
218
219
218
218
218
218
217
217
217
217
216
216
214
214
214
213
214
214
214
214
214
214
212
211
210
210
209
209
206
206
205
204
203
203
202
200
199
198
198
197
196
194
191
190
189
188
185
185
184
183
181
179
179
180
179
179
178
178
177
176
176
176
176
174
174
174
174
174
174
175
175
177
179
181
183
183
183
183
183
184
186
187
187
187
187
186
185
186
185
185
185
186
186
186
188
191
192
194
193
194
194
195
195
195
195
198
198
198
198
200
200
201
201
203
205
205
205
206
205
205
204
205
205
205
205
207
207
207
207
207
207
209
209
211
211
212
212
212
212
213
212
212
212
210
207
203
201
198
195
192
188
185
183
179
176
174
171
167
161
156
153
148
145
142
138
134
131
129
128
128
128
126
126
126
126
128
128
128
128
128
129
131
135
141
146
152
155
160
165
170
175
179
181
184
187
191
196
200
205
207
209
212
214
216
217
219
221
219
219
219
219
220
220
223
225
227
227
228
228
229
229
229
229
227
227
227
227
227
227
229
229
229
229
229
229
227
227
227
227
227
227
227
227
227
227
227
227
227
227
227
227
213
213
213
213
214
214
213
213
213
213
213
213
213
213
212
212
212
212
212
212
212
212
212
212
212
212
213
213
213
213
213
213
213
213
214
214
214
214
214
214
215
216
217
217
218
218
218
218
219
218
218
218
218
218
218
217
220
220
219
219
221
221
220
220
220
220
220
220
220
220
220
220
221
221
220
220
220
220
220
220
220
220
220
220
220
220
220
220
222
222
220
220
222
222
222
222
223
223
223
223
223
223
224
224
223
223
223
223
222
222
223
223
224
224
224
224
224
224
224
224
223
223
223
223
221
221
221
221
223
223
223
223
224
224
224
224
224
224
224
224
224
224
224
224
224
224
224
224
224
223
222
222
225
226
225
223
223
222
221
221
223
222
224
206
188
161
150
131
107
98
101
103
105
99
94
94
94
94
95
95
95
95
94
93
90
89
90
90
90
91
91
90
90
91
94
95
99
99
100
100
101
101
100
100
100
98
96
96
101
104
107
104
102
103
108
110
106
108
115
116
113
115
122
125
120
121
126
123
120
123
122
115
112
113
119
115
113
111
110
107
107
106
104
103
103
103
103
103
102
102
100
101
100
100
95
105
115
125
176
182
202
216
208
212
214
218
220
220
221
220
222
218
216
212
216
217
217
217
217
217
217
217
219
219
219
219
217
217
217
217
218
218
218
218
219
219
219
219
219
219
219
219
220
220
222
222
222
223
224
224
225
225
225
225
225
225
226
226
226
226
227
226
226
226
227
227
227
227
227
227
228
228
227
226
226
226
226
226
227
227
227
227
227
227
227
227
226
226
226
226
226
226
226
226
225
225
225
225
225
225
225
225
225
225
225
225
225
225
225
224
224
223
222
220
220
219
218
219
219
219
218
218
218
217
217
217
217
217
217
217
217
216
216
215
216
214
214
213
213
213
213
213
212
212
213
211
211
211
210
208
207
207
205
205
203
202
202
200
202
199
197
195
193
192
191
190
188
188
188
185
184
184
185
184
184
183
183
181
180
179
179
179
178
178
178
178
178
178
178
178
179
180
181
182
184
182
182
183
184
185
185
186
185
185
186
184
184
184
184
184
184
184
185
185
187
188
191
192
191
191
193
193
193
193
196
196
196
196
198
198
199
199
202
202
203
204
205
204
204
203
204
204
204
204
205
205
206
206
206
206
206
207
206
207
209
209
209
209
208
208
208
207
207
205
204
201
197
195
192
189
185
182
179
175
173
169
166
159
155
153
148
145
142
138
134
131
129
128
128
128
126
126
125
125
126
126
126
126
127
127
130
132
137
142
146
152
155
160
165
171
175
178
181
183
187
191
196
200
204
206
208
211
213
214
218
218
219
219
219
219
219
220
222
222
223
224
227
228
228
228
228
228
227
227
227
227
227
227
229
229
227
227
227
227
228
228
228
227
227
227
227
227
227
227
227
226
226
225
225
225
213
213
213
213
214
214
213
213
213
213
213
213
213
213
212
212
212
212
212
212
212
212
212
212
212
212
213
213
213
213
213
213
213
213
214
214
214
214
215
215
216
216
217
217
218
218
218
218
219
218
218
218
218
218
217
217
220
220
219
219
221
221
220
220
220
220
220
220
220
220
220
220
221
221
220
220
221
221
221
221
221
221
222
222
222
222
222
222
222
222
223
223
222
222
223
223
223
223
223
223
223
223
224
224
224
224
223
223
224
224
225
225
224
224
225
225
224
224
224
224
224
224
223
223
224
224
224
224
223
223
224
224
224
224
224
224
224
224
224
224
224
224
224
224
224
224
224
224
224
226
227
226
222
218
217
216
214
210
228
220
213
203
185
158
131
117
104
101
102
105
105
100
97
94
94
94
94
94
95
95
95
95
94
94
94
95
95
93
90
88
89
91
97
98
97
96
99
99
100
100
101
101
100
100
100
98
97
98
103
109
114
111
107
107
112
113
107
110
123
126
121
121
123
121
114
120
128
123
109
111
114
113
107
99
97
98
101
102
103
104
108
105
103
103
103
102
101
99
99
99
99
99
100
100
102
103
104
104
92
118
153
188
223
223
222
216
207
215
226
232
208
211
217
220
219
216
215
215
215
215
215
215
218
217
219
219
217
217
217
217
216
217
218
218
219
219
219
219
218
218
219
219
220
220
222
222
222
222
223
223
224
224
224
224
225
225
225
225
226
226
226
226
226
226
227
227
227
227
227
227
228
228
227
226
226
226
226
226
227
227
227
227
227
227
227
227
226
226
227
227
227
227
227
227
226
226
226
226
226
226
225
226
225
225
224
224
224
224
225
224
224
223
223
222
221
221
220
220
219
220
218
218
218
218
218
218
218
218
218
218
218
218
217
217
215
216
214
214
214
214
214
214
213
213
214
214
213
212
212
211
210
209
209
208
206
205
203
203
204
202
199
197
196
195
193
192
190
190
190
188
188
188
189
188
187
186
186
184
183
182
182
182
180
180
180
180
180
180
179
179
180
181
181
182
182
182
182
182
184
184
184
184
184
183
184
184
183
184
184
184
184
184
183
184
184
186
186
188
189
189
191
191
191
191
193
193
193
193
196
196
197
197
199
199
200
202
203
202
202
201
202
202
202
202
203
203
204
204
204
204
204
204
204
205
204
204
204
204
203
203
203
203
202
201
201
200
197
195
192
189
185
182
179
175
173
169
165
159
155
153
148
145
142
138
134
131
129
128
128
128
126
126
125
125
126
126
125
125
125
127
128
130
132
137
141
146
152
155
160
165
170
175
178
181
183
187
192
196
199
200
203
205
208
210
213
214
216
217
219
219
219
219
220
219
221
222
224
225
225
225
227
227
227
227
225
225
225
227
227
227
227
227
227
227
228
228
228
228
227
227
227
227
227
227
227
226
226
225
225
225
213
213
213
213
214
214
213
213
213
213
212
212
212
212
212
212
212
212
212
212
212
212
212
212
212
212
213
213
214
214
214
214
214
214
215
215
215
215
216
216
217
217
217
217
219
219
219
219
220
219
219
218
219
219
219
219
220
220
222
222
222
222
221
221
221
221
221
221
221
221
221
221
221
221
222
222
221
221
221
221
221
221
222
222
222
222
222
222
222
222
223
223
223
223
223
223
225
225
224
224
224
224
225
225
226
226
226
226
227
227
229
229
229
227
226
226
226
226
226
226
226
226
227
227
227
227
227
227
227
226
225
225
225
225
225
225
225
225
225
225
225
225
224
224
224
224
224
224
224
226
227
226
222
219
232
228
223
217
207
188
165
151
124
110
95
95
92
94
100
101
98
93
91
92
93
93
94
94
95
95
95
95
94
94
94
96
98
97
94
90
90
92
97
98
97
96
99
99
100
101
102
102
101
101
100
98
99
98
103
110
117
117
111
112
117
118
112
115
123
125
121
117
114
109
107
113
120
114
102
102
107
116
110
96
96
99
101
102
105
107
104
101
101
103
102
99
98
97
96
97
97
98
98
101
103
104
104
104
95
101
97
112
124
155
189
202
223
222
216
216
219
218
213
210
213
216
215
215
215
215
214
215
214
215
215
216
215
215
215
215
215
215
216
216
217
217
218
218
218
218
217
217
218
218
219
219
220
222
223
223
224
224
224
224
224
224
225
225
225
225
226
225
225
225
226
226
226
226
227
227
226
226
226
226
226
226
226
226
227
227
227
227
227
227
227
227
229
229
227
227
227
227
227
227
227
227
227
227
227
227
226
226
225
225
224
224
224
224
224
224
224
224
223
223
222
222
222
222
222
222
222
222
222
222
222
222
222
222
223
223
223
223
222
222
221
221
220
220
220
220
220
221
220
220
220
220
219
218
217
215
217
215
213
212
211
211
209
208
208
207
205
202
200
199
198
197
195
195
195
192
192
192
193
192
192
191
191
188
187
186
186
186
185
185
185
185
185
185
185
184
182
181
181
181
184
184
184
184
183
184
183
183
181
181
183
183
181
181
182
182
183
183
184
184
183
183
183
185
185
185
186
186
186
186
189
189
189
189
191
191
192
192
195
196
197
197
198
198
198
197
199
199
199
199
200
200
200
200
200
200
202
202
202
202
202
202
202
202
201
201
201
201
201
200
200
200
197
195
192
189
185
182
179
175
172
168
165
159
155
152
147
144
141
137
133
131
129
128
128
126
125
125
125
125
124
124
124
124
124
125
127
128
130
132
137
141
146
152
155
160
164
170
175
178
181
183
187
192
195
197
199
201
203
205
208
210
213
215
217
218
219
219
219
219
220
221
221
222
223
224
225
225
225
225
225
225
225
225
225
226
227
227
227
227
228
228
228
228
227
227
227
227
227
227
227
226
226
225
225
225
213
213
213
213
214
214
213
213
213
213
212
212
212
212
212
212
212
212
212
212
212
212
212
212
212
212
213
213
214
214
214
214
214
214
215
215
215
215
216
216
217
217
217
217
219
219
219
219
220
219
219
218
219
219
219
219
220
220
222
222
222
221
221
221
221
221
221
221
221
221
221
221
221
221
222
222
222
222
222
222
222
222
223
223
223
223
223
223
223
223
223
223
223
223
224
224
225
225
224
224
224
224
225
226
226
227
228
228
230
230
231
231
231
230
227
227
226
226
226
226
227
227
228
228
230
230
230
230
228
227
226
226
225
225
225
225
225
225
225
225
225
225
224
224
224
223
223
226
226
222
220
221
227
231
234
220
203
196
163
143
114
94
92
92
92
92
104
100
94
90
89
91
92
92
93
93
94
94
95
95
95
95
94
94
94
94
94
96
100
102
100
97
94
92
94
94
99
99
101
102
102
102
103
103
101
100
100
99
101
107
115
115
112
113
116
117
114
114
114
116
115
110
108
106
105
106
112
114
110
101
101
113
110
95
96
100
100
102
103
103
99
97
98
101
98
96
94
92
92
93
96
97
98
100
89
98
110
119
97
109
109
102
85
104
123
146
189
213
220
223
215
216
219
220
218
216
215
215
212
214
213
214
213
214
214
214
214
214
214
214
213
213
214
214
216
216
217
217
215
215
215
215
216
216
217
217
217
218
219
219
220
220
222
222
222
222
222
222
223
223
223
223
223
223
224
224
223
223
224
224
226
226
226
226
226
226
226
226
227
227
227
227
227
227
227
227
229
229
229
229
229
229
229
229
229
229
228
228
228
227
227
226
226
225
225
224
224
224
224
224
224
224
224
224
223
223
224
224
224
224
224
224
224
224
224
224
224
224
225
225
225
225
224
224
224
224
223
223
223
223
223
223
222
222
222
222
221
220
219
218
219
218
215
213
212
213
212
210
210
210
208
205
204
203
202
199
198
198
197
195
195
195
196
194
194
193
193
191
190
188
188
188
187
187
187
187
187
187
186
185
184
182
181
181
184
184
184
184
183
182
182
181
179
179
180
180
180
181
181
181
181
181
181
181
181
181
181
181
183
183
184
184
184
184
186
186
186
188
189
190
190
190
191
192
193
195
196
195
195
194
196
196
196
196
198
199
197
197
197
197
198
198
198
198
199
199
199
199
199
199
199
199
200
200
200
199
197
195
192
189
185
182
179
175
172
168
163
158
155
152
147
144
141
137
133
131
129
128
128
126
125
125
125
125
123
123
123
123
123
123
125
127
127
130
132
137
142
146
152
155
159
163
169
174
177
180
182
187
189
192
195
197
199
200
203
205
207
210
212
215
217
218
219
219
219
219
219
220
222
222
222
223
223
224
224
224
225
225
226
226
226
226
226
226
226
226
226
227
226
226
226
226
226
226
226
225
225
224
224
224
213
213
213
213
213
213
213
213
213
213
213
213
213
213
213
213
213
213
213
213
214
214
213
213
214
214
214
214
214
214
214
214
214
214
216
216
216
216
216
216
217
217
217
217
219
219
219
219
220
219
219
218
219
219
219
219
221
221
221
221
223
223
223
223
223
223
223
223
223
223
223
223
223
223
223
223
223
223
223
223
223
223
223
223
223
223
223
223
223
223
224
224
224
224
225
225
225
225
225
225
225
225
226
226
227
227
227
228
228
230
231
231
230
230
228
227
227
227
227
227
227
227
228
228
228
228
228
228
228
228
227
226
226
226
226
226
226
226
225
225
225
225
225
225
225
224
224
227
228
224
226
225
224
231
203
173
142
114
103
100
98
94
92
90
92
92
94
94
94
94
94
91
93
93
94
94
94
94
95
95
95
95
95
95
95
94
94
96
102
105
104
101
98
96
97
97
100
100
102
103
105
105
104
104
104
105
103
103
103
106
107
107
108
108
111
112
112
106
106
113
117
111
107
105
104
103
107
113
111
100
99
105
103
97
97
100
101
101
102
101
99
98
99
99
98
97
95
94
91
91
91
99
110
112
112
107
103
96
91
92
96
97
115
111
103
101
110
137
175
193
218
225
219
205
209
209
205
204
208
211
211
210
212
212
212
213
212
212
212
212
212
212
212
212
213
213
213
213
214
214
214
214
215
215
216
216
216
217
218
218
219
219
219
219
220
220
220
220
222
222
222
222
221
221
223
223
223
223
224
224
225
225
225
225
226
226
226
226
228
228
228
228
227
227
227
227
228
228
228
228
229
229
229
229
228
228
228
228
228
229
228
228
226
226
225
225
225
225
225
225
225
225
225
225
225
225
225
225
225
225
225
225
225
225
225
225
225
225
225
225
225
225
225
225
224
224
224
224
224
224
224
224
223
223
223
223
223
223
223
223
221
219
217
216
214
213
212
211
212
211
210
209
208
207
205
205
204
203
202
201
199
198
198
196
196
195
195
193
192
190
190
190
189
189
189
189
189
189
188
187
186
185
185
185
184
182
182
181
181
182
182
179
180
180
181
180
181
180
181
181
181
181
180
180
180
182
182
182
181
181
184
184
184
184
186
186
186
186
188
188
188
189
191
191
192
193
194
193
193
193
195
195
195
195
195
196
196
196
195
195
196
196
196
196
198
198
198
197
197
197
197
198
198
198
198
199
197
195
192
189
185
182
179
175
172
169
164
159
155
153
148
145
142
138
134
131
129
129
128
128
126
125
123
123
122
122
122
122
123
123
124
125
127
128
131
134
138
141
146
150
153
157
162
168
172
175
179
181
185
189
192
195
197
198
200
203
205
207
209
212
214
215
217
218
219
219
219
219
221
221
222
221
223
223
223
223
224
224
225
225
225
225
226
226
226
226
226
226
226
226
226
226
226
226
226
225
225
224
224
224
213
213
213
213
213
213
213
213
213
213
213
213
213
213
213
213
213
213
213
213
214
214
213
213
214
214
214
214
214
214
214
214
214
214
216
216
216
216
216
216
217
217
217
217
219
219
219
219
220
219
219
218
219
219
219
219
221
221
221
221
223
223
223
223
223
223
223
223
223
223
223
223
223
223
223
223
223
223
223
223
223
223
223
223
223
223
223
223
223
223
224
224
224
224
225
225
225
225
225
225
226
226
227
227
227
227
228
228
228
228
230
230
230
230
228
227
227
227
227
227
227
227
228
228
228
228
228
228
228
228
227
226
226
226
226
226
226
226
225
225
225
225
225
225
225
227
227
220
220
230
236
234
212
185
153
133
117
113
89
95
103
108
90
90
92
92
94
93
94
94
94
94
93
93
94
94
94
94
95
95
95
95
95
95
95
95
96
97
99
102
101
104
109
109
105
102
102
102
103
104
105
107
105
103
104
105
104
106
107
105
104
104
105
106
108
110
111
107
107
116
118
112
110
108
103
102
108
112
110
104
101
101
101
101
101
101
101
101
101
101
102
103
104
105
105
104
103
102
100
100
101
102
103
103
102
98
95
92
115
109
102
99
100
99
94
89
95
94
110
147
179
213
225
203
222
223
214
205
208
210
210
210
211
210
211
211
211
210
210
211
211
210
210
210
212
212
212
212
212
211
213
213
214
214
215
215
215
215
217
217
218
218
218
218
219
219
219
219
220
220
220
220
220
220
222
222
221
221
224
224
224
224
225
225
226
226
226
226
228
228
228
228
227
227
227
227
228
228
228
228
229
229
229
229
228
228
228
228
229
229
228
228
226
226
225
225
225
225
225
225
225
225
225
225
225
225
225
225
225
225
225
225
225
225
225
225
225
225
225
225
225
225
225
225
224
224
224
224
224
224
224
224
223
223
223
223
223
223
223
224
221
221
223
219
219
214
213
213
214
213
213
214
212
211
210
210
209
209
208
207
205
203
203
202
203
202
201
199
197
196
196
196
195
195
195
195
195
195
194
193
192
191
189
188
186
184
184
182
182
181
183
182
182
180
181
180
181
180
180
180
180
180
179
179
178
179
179
180
180
180
182
182
182
182
185
185
185
185
187
187
188
188
189
189
191
192
193
192
192
192
194
194
194
194
195
195
195
194
194
194
194
194
194
194
194
194
194
194
195
195
195
195
195
196
196
197
197
196
192
189
185
182
179
175
172
169
164
159
155
153
148
145
142
138
134
131
129
129
128
128
126
125
123
123
121
121
121
121
121
121
123
123
125
128
130
132
134
138
141
146
148
152
156
161
165
170
175
178
181
186
190
192
194
197
199
200
202
205
207
209
211
212
215
216
216
217
219
219
219
219
221
221
221
221
223
223
223
223
224
224
224
224
224
224
224
224
224
224
224
224
224
224
224
224
224
223
223
222
221
221
216
214
214
214
214
214
214
214
214
214
213
213
213
213
213
213
213
213
213
213
213
213
213
213
214
214
215
215
216
216
216
216
216
216
217
217
217
217
217
217
217
217
218
218
219
219
219
219
220
219
219
218
219
219
219
219
222
222
221
223
223
224
224
224
224
224
224
224
224
224
223
223
223
223
223
223
223
223
223
223
223
223
223
223
223
223
223
223
223
223
224
224
224
224
225
225
226
226
226
226
227
227
228
228
228
228
228
228
228
228
230
230
230
230
228
228
228
228
228
228
228
228
228
228
228
228
228
228
228
228
227
227
227
227
227
227
227
227
226
226
226
226
225
226
225
227
227
221
220
226
215
197
163
129
112
108
105
109
108
102
96
91
89
90
92
92
94
94
94
94
95
94
94
93
94
94
95
95
96
96
96
96
96
97
98
99
98
97
98
99
99
103
109
110
109
105
107
105
105
105
105
105
104
103
99
99
103
106
108
107
106
106
107
107
109
110
111
110
112
118
116
107
107
107
102
100
104
109
111
105
103
100
102
102
102
100
99
99
100
100
102
103
104
105
105
104
103
102
101
103
103
99
95
93
93
92
91
92
95
102
110
112
106
100
94
89
80
99
101
101
128
135
167
213
210
211
217
214
210
209
209
209
210
210
209
209
209
209
209
209
210
210
210
210
210
210
210
210
212
212
212
212
213
213
214
214
215
215
216
216
217
217
218
218
218
218
219
219
220
220
220
220
220
220
222
222
222
222
224
224
224
224
225
225
226
226
226
226
227
227
227
227
227
227
227
227
229
229
229
229
229
229
229
229
228
228
228
228
229
229
228
228
226
226
225
225
225
225
225
225
225
225
225
225
225
225
225
225
225
225
225
225
224
224
225
225
225
225
225
225
225
225
225
225
225
225
225
225
225
225
225
225
224
224
224
224
224
224
224
224
224
224
224
223
221
219
218
216
218
218
218
217
216
213
213
212
213
212
212
210
209
207
208
207
206
205
205
202
202
200
199
199
200
200
199
199
199
199
198
197
195
193
192
191
189
188
186
186
186
186
186
185
185
184
184
183
183
182
182
180
180
180
179
179
179
179
179
180
181
180
182
182
182
182
185
185
185
185
187
187
188
188
189
191
191
191
192
192
192
192
194
194
194
194
194
194
195
195
195
195
195
195
195
195
194
194
194
194
194
194
194
194
194
194
194
195
195
194
192
188
185
184
180
178
174
171
166
162
157
153
149
145
141
138
134
132
130
130
128
128
128
125
123
123
123
121
121
121
121
121
123
123
124
128
131
132
132
133
138
140
143
148
152
155
159
165
171
175
178
181
187
190
192
194
197
199
200
203
205
207
208
210
211
212
214
215
217
218
219
219
219
219
221
221
222
222
223
223
223
223
223
223
223
223
223
223
223
223
223
223
223
223
223
223
223
222
222
221
220
220
216
214
214
214
214
214
214
214
214
214
213
213
213
213
213
213
213
213
213
213
213
213
213
213
214
214
215
215
216
216
216
216
216
216
217
217
217
217
217
217
217
217
218
218
219
219
219
219
220
219
219
218
219
219
219
219
222
222
221
223
223
223
224
224
224
224
224
224
224
224
223
223
223
223
223
223
223
223
223
223
223
223
223
223
223
223
223
223
223
223
224
224
224
224
225
225
226
226
226
226
227
227
227
227
228
228
228
228
228
228
230
230
230
230
228
228
228
228
228
228
228
228
228
228
228
228
228
228
228
228
227
227
227
227
227
227
227
227
227
224
224
229
231
226
225
222
223
230
229
220
167
134
105
93
102
97
91
89
93
97
100
104
90
91
92
92
94
94
94
94
95
94
93
94
95
94
94
95
96
96
97
96
96
96
96
98
101
100
97
97
100
102
101
101
104
104
108
105
104
104
103
103
103
101
99
99
101
104
105
106
107
107
109
109
109
110
111
111
112
116
111
104
105
105
101
98
100
104
105
102
100
97
102
104
102
98
98
98
98
98
98
97
95
94
95
97
97
94
91
91
105
99
93
89
89
92
92
94
97
97
93
91
116
112
105
102
101
94
90
99
111
104
99
119
160
188
205
223
208
209
209
209
208
209
211
210
209
209
209
208
208
209
209
209
210
209
210
211
211
211
211
211
212
212
213
213
213
213
214
215
216
216
217
217
217
217
218
218
219
219
219
219
219
219
220
220
220
220
223
223
224
224
225
225
225
225
226
225
226
225
226
226
226
226
227
227
227
227
227
227
227
227
227
227
227
227
227
227
228
228
226
226
226
226
225
225
225
225
225
225
225
225
225
225
225
225
225
225
225
225
225
225
224
224
225
225
225
225
225
225
225
225
225
225
225
225
225
225
225
225
225
225
224
224
224
224
224
224
224
224
224
224
224
224
224
223
221
221
219
219
219
218
217
214
214
213
214
213
213
211
211
210
210
209
209
207
208
205
204
203
202
202
203
203
202
202
200
200
199
198
196
194
193
192
189
188
188
188
187
187
188
187
186
185
184
183
183
182
182
180
180
180
179
179
179
179
179
179
180
180
182
182
182
182
185
185
185
185
187
187
188
188
189
191
191
191
192
192
192
191
192
192
192
192
193
193
194
194
194
194
195
195
195
193
193
193
193
193
192
192
193
193
193
193
193
193
194
193
191
188
185
184
181
179
175
172
167
163
158
153
150
145
141
139
136
133
130
130
128
128
128
125
123
123
123
121
121
120
121
121
123
123
123
126
127
128
129
133
134
136
139
142
147
150
154
158
165
171
175
178
182
187
190
192
194
197
199
200
203
205
206
207
208
210
211
212
215
216
216
217
219
219
219
219
221
221
222
222
223
223
223
223
223
223
223
223
223
223
223
223
223
223
223
223
223
222
222
221
220
220
216
216
216
214
214
214
214
214
214
214
214
214
214
214
214
214
214
214
214
214
214
214
214
214
216
215
215
215
216
216
217
217
217
217
217
217
217
217
216
216
216
216
218
218
219
219
219
219
220
219
219
218
219
219
219
221
222
223
223
223
224
224
224
224
224
224
224
224
224
224
223
223
223
223
224
224
224
224
224
224
224
224
224
224
224
224
224
224
224
224
225
225
225
225
226
226
226
226
225
225
226
226
227
227
227
227
228
228
228
228
230
230
229
229
228
228
229
229
228
228
228
228
228
228
228
228
228
228
228
228
227
227
227
227
227
227
227
229
229
225
225
231
232
227
222
232
233
214
184
144
118
102
94
105
96
96
96
95
94
93
96
94
92
92
92
92
94
95
95
96
94
96
94
94
95
94
96
96
97
97
98
97
97
97
98
98
100
100
98
98
102
102
100
100
101
103
103
104
103
102
103
103
102
102
102
102
103
104
105
107
108
110
111
109
109
106
106
105
106
108
104
101
101
99
95
93
95
96
96
98
97
93
94
100
99
97
97
95
96
94
94
93
92
91
89
90
94
92
87
89
95
100
107
107
103
100
99
98
95
94
94
95
98
100
103
105
105
107
109
110
112
111
112
111
94
111
146
180
203
210
212
207
206
207
212
213
211
208
208
208
208
207
209
209
208
209
210
210
210
210
211
211
212
212
212
212
212
212
213
213
214
214
215
216
217
217
218
218
218
218
218
218
219
219
221
220
220
220
222
222
223
223
224
224
225
225
225
225
225
224
225
225
225
225
226
226
226
226
227
227
227
227
227
227
227
227
227
227
227
227
226
226
225
225
224
224
224
224
224
224
224
224
224
224
224
224
224
224
225
225
225
225
225
225
225
225
225
225
225
225
225
225
225
225
225
225
225
225
225
225
225
225
224
224
224
224
224
224
224
224
224
224
224
224
224
224
224
223
220
220
220
219
218
217
216
216
215
215
214
212
212
212
212
211
211
210
210
207
206
205
205
205
204
204
204
203
202
202
200
198
197
196
193
192
191
189
191
191
191
191
189
188
187
186
185
184
184
183
182
182
182
180
180
180
180
180
180
180
180
181
181
181
182
182
184
184
184
185
187
188
188
189
191
191
192
192
192
191
191
191
191
191
191
191
192
192
193
193
193
193
193
193
193
193
193
192
192
192
191
191
191
191
192
192
193
192
193
192
191
187
186
184
182
181
178
175
170
165
160
157
152
149
145
144
141
137
133
131
130
128
127
125
124
124
123
123
121
120
122
122
123
123
124
124
125
126
128
131
133
135
136
138
140
143
148
153
159
164
169
172
176
181
184
187
189
193
196
198
201
203
204
205
206
207
209
210
211
212
213
214
217
218
217
217
217
217
219
219
220
220
220
220
220
220
221
221
221
221
220
220
220
220
221
221
221
221
220
220
220
220
216
216
216
214
214
214
214
214
214
214
214
214
214
214
214
214
214
214
214
214
214
214
214
214
216
216
215
215
216
216
217
217
217
217
217
217
217
217
216
216
216
216
218
218
219
219
219
219
220
219
219
218
219
219
219
221
222
223
223
223
224
224
224
224
224
224
224
224
224
224
223
223
223
223
224
224
224
224
224
224
224
224
224
224
224
224
224
224
224
224
225
225
225
225
226
226
226
226
225
225
226
226
226
226
227
227
228
228
228
228
230
230
229
229
228
228
229
229
228
228
228
228
228
228
228
228
228
228
228
228
227
227
227
227
227
227
227
225
225
232
232
220
219
227
231
221
198
164
131
110
105
109
103
90
96
96
97
96
94
93
94
94
92
92
92
92
94
95
95
96
94
96
95
95
95
94
96
96
97
98
99
98
98
97
98
98
99
99
99
99
102
102
102
102
101
102
101
102
101
101
102
102
102
100
104
105
105
105
106
106
107
107
109
106
105
103
102
101
101
99
98
97
95
92
91
90
90
89
89
96
98
91
84
90
94
95
95
96
96
96
96
99
102
97
88
81
82
87
91
92
96
100
107
110
111
111
111
111
96
96
97
97
98
100
102
103
103
105
106
108
109
110
110
111
109
107
103
111
146
175
203
208
210
208
211
211
209
208
208
207
207
206
208
208
207
207
208
208
210
210
210
210
211
211
211
211
211
211
212
212
213
213
214
214
216
216
217
217
217
217
217
217
218
218
219
219
219
219
222
222
222
222
224
224
224
224
225
224
224
222
224
224
224
224
225
225
226
226
226
226
226
226
226
226
226
226
226
226
226
226
225
225
225
225
224
224
224
224
224
224
224
224
224
224
224
224
224
224
225
225
225
225
225
225
225
225
225
225
225
225
225
225
225
225
225
225
225
225
225
225
225
225
224
224
224
224
224
224
224
224
224
224
224
224
224
224
224
224
223
223
223
222
220
219
218
218
217
217
216
216
215
215
215
214
214
213
213
211
210
208
208
208
207
207
207
206
205
204
203
200
199
198
196
195
194
193
193
193
194
194
193
192
191
189
188
187
186
185
184
184
184
183
183
183
182
182
182
182
182
184
184
184
184
184
185
185
185
186
187
188
189
191
191
191
192
192
192
191
191
189
189
189
189
189
191
191
192
192
192
192
193
193
193
192
192
191
191
191
190
190
191
191
191
191
192
191
192
191
189
187
186
184
184
182
179
176
171
168
165
162
157
153
151
149
148
144
139
133
131
129
128
128
125
124
123
124
124
123
123
123
124
124
124
124
125
125
126
128
131
133
134
135
136
138
142
149
154
159
163
166
170
175
179
181
183
187
190
193
195
197
200
202
204
205
206
207
209
210
211
212
213
214
214
214
214
214
215
215
216
216
216
216
216
216
217
217
217
217
217
217
217
217
217
217
217
217
217
217
217
217
217
216
216
214
214
214
214
214
214
214
215
215
215
215
216
216
215
215
216
216
216
216
216
216
217
217
217
217
218
218
218
218
218
218
217
217
217
217
216
216
216
216
218
218
219
219
219
219
220
219
219
218
220
220
219
220
222
223
223
224
224
225
225
225
225
225
225
225
225
225
225
225
225
225
224
224
224
224
224
224
224
224
224
224
224
224
224
224
224
224
225
225
225
225
226
226
226
226
225
225
226
226
227
227
227
227
228
228
228
228
230
230
229
229
229
229
229
229
229
229
229
229
228
228
228
228
228
228
228
228
227
227
227
227
227
227
227
225
226
232
232
226
226
229
215
195
138
118
97
96
101
109
104
91
97
96
95
94
94
93
94
94
92
92
93
93
96
96
97
97
97
97
98
97
97
96
97
97
98
99
100
100
100
99
99
99
102
101
101
100
101
102
102
102
101
101
101
101
100
100
100
100
102
104
106
106
106
104
103
105
104
104
103
102
100
98
97
95
94
93
93
92
91
89
88
89
89
91
89
94
96
87
82
89
94
94
96
97
98
100
101
104
106
101
92
85
88
95
102
102
98
99
106
110
111
111
109
107
106
104
103
102
100
99
99
99
100
100
101
102
103
104
105
107
111
109
105
103
107
126
147
176
195
203
210
207
208
208
208
207
207
207
208
208
208
208
209
209
210
210
210
210
210
210
210
210
210
210
210
211
212
213
213
214
215
216
216
217
217
217
217
217
218
218
219
219
219
219
222
222
222
222
224
224
224
224
225
224
224
223
224
224
224
224
225
225
226
226
226
226
226
226
226
226
226
226
226
226
226
226
225
225
225
225
224
224
224
224
224
224
224
224
224
224
224
224
224
224
225
225
225
225
225
225
225
225
225
225
225
225
225
225
225
225
225
225
225
225
225
225
225
225
224
224
224
224
224
224
224
224
224
224
224
224
224
224
224
224
224
224
224
223
223
220
220
219
220
219
219
218
218
218
218
216
217
215
215
212
212
211
210
210
209
209
210
208
208
207
207
204
202
201
201
200
201
200
200
200
199
199
199
198
196
195
195
194
193
192
191
190
190
189
189
189
188
188
188
188
188
188
188
188
188
188
189
189
189
189
191
191
191
191
192
192
192
192
192
192
192
191
191
191
191
191
191
191
192
192
192
192
193
193
193
192
192
191
191
191
191
191
191
191
192
192
192
191
191
189
189
188
187
186
186
185
183
179
176
171
169
167
162
157
155
154
151
149
144
138
134
131
130
130
129
125
124
124
124
124
124
124
124
124
125
125
125
125
125
126
128
131
132
133
134
135
139
144
149
154
159
161
165
170
174
176
179
182
186
188
190
193
195
197
202
203
203
204
206
207
209
210
211
212
212
212
212
212
213
213
214
214
214
214
214
214
215
215
215
215
215
215
215
215
215
214
214
214
214
214
214
214
216
216
216
214
214
214
214
214
214
214
215
215
215
216
216
216
216
216
216
216
216
216
216
216
217
217
217
217
218
218
218
218
218
218
217
217
217
217
216
216
216
216
218
218
219
219
219
219
220
219
219
218
220
219
219
220
222
223
223
223
224
224
224
224
224
224
224
224
224
224
224
224
224
224
224
224
224
224
224
224
224
224
224
224
224
224
224
224
224
224
225
225
225
225
226
226
226
226
225
225
226
226
227
227
227
227
228
228
228
228
230
230
229
229
229
229
229
229
229
229
229
229
228
228
228
228
228
228
228
228
227
227
227
227
227
227
227
230
229
223
223
231
234
192
145
122
117
112
103
97
92
87
90
99
94
93
93
93
92
92
93
93
92
92
93
93
97
97
97
97
97
98
97
95
96
95
96
95
98
99
100
100
100
99
100
100
102
101
100
99
100
101
101
100
98
97
98
98
97
98
98
99
102
105
106
106
104
102
100
100
99
99
98
97
97
95
94
92
91
90
89
87
89
89
90
90
90
93
90
89
87
83
88
97
96
94
95
98
101
103
104
104
106
107
105
101
102
103
105
109
97
98
106
106
103
99
100
101
104
103
102
101
100
99
98
98
97
97
99
98
99
100
102
100
100
103
113
118
111
109
107
130
157
175
189
197
206
208
208
207
204
207
207
207
207
207
209
209
209
209
209
208
209
209
209
209
209
209
209
209
211
212
212
213
214
215
216
216
216
216
216
216
217
217
218
218
218
218
220
220
220
220
224
224
224
224
225
224
224
223
224
224
224
224
225
225
225
225
225
225
225
225
225
225
225
225
225
225
225
225
225
225
224
224
224
224
224
224
224
224
224
224
224
224
224
224
224
224
224
224
224
224
224
224
224
224
224
224
224
224
224
224
224
224
225
225
225
225
225
225
225
225
224
224
224
224
224
224
224
224
224
224
224
224
224
224
224
224
224
224
224
223
223
220
220
219
220
219
219
219
218
218
218
217
217
215
215
212
212
211
210
210
209
209
211
210
209
208
208
207
205
203
202
202
204
202
202
202
202
202
202
200
199
198
198
196
195
194
193
192
192
191
191
191
191
191
191
191
191
191
191
191
191
191
192
192
192
192
192
192
192
192
192
192
192
192
192
192
192
191
191
191
191
191
191
191
192
192
192
192
193
193
193
192
192
191
191
191
191
191
191
191
192
192
192
191
191
189
189
188
187
186
186
185
183
179
177
172
170
168
167
162
160
157
155
154
149
144
138
134
131
131
131
130
127
126
125
124
124
124
124
124
125
125
125
125
125
125
126
127
128
129
132
133
136
139
142
148
153
156
161
165
169
172
174
177
181
183
186
188
190
193
196
197
199
202
204
205
206
207
207
210
210
211
211
211
212
212
213
213
213
213
213
213
213
213
213
214
214
214
214
214
213
213
213
213
213
213
213
213
217
216
217
216
216
216
216
216
216
216
216
216
216
216
215
215
215
215
215
215
215
215
215
215
216
216
218
218
219
219
219
219
219
219
218
218
218
218
218
218
218
218
218
218
219
219
219
219
220
219
219
218
219
219
219
219
221
221
221
223
223
224
223
223
223
223
224
224
224
224
224
224
224
224
224
224
224
224
224
224
224
224
224
224
224
224
224
224
224
224
224
224
224
224
225
225
226
226
226
226
227
227
227
227
228
228
228
228
228
228
230
230
229
229
229
229
229
229
229
229
229
229
228
228
228
228
228
228
228
228
227
227
227
227
227
228
228
228
228
226
226
213
187
139
103
85
90
94
99
97
91
84
84
93
90
91
92
91
91
91
92
92
92
92
93
93
99
99
98
98
97
97
97
96
95
94
95
95
97
99
102
101
102
100
102
103
103
102
98
97
98
100
100
98
97
96
97
98
98
99
101
101
101
102
104
103
99
98
98
95
94
94
94
92
94
94
91
91
90
89
87
87
88
90
91
90
90
95
95
88
84
86
90
95
95
92
94
98
102
103
104
105
109
115
113
107
105
100
99
105
101
97
90
89
93
96
96
96
97
99
99
99
99
99
98
98
97
97
97
98
98
98
99
99
99
100
100
100
101
102
104
102
106
125
160
188
201
200
200
197
202
205
205
205
207
207
208
208
208
207
208
208
209
209
209
209
209
209
209
209
211
211
212
212
213
214
214
215
215
215
215
215
217
217
218
218
218
217
218
217
219
220
224
225
224
224
224
224
224
224
224
224
225
225
224
224
225
225
224
224
224
224
224
224
223
223
223
223
223
223
223
223
223
223
223
223
223
223
223
223
223
223
223
223
223
223
223
223
224
224
224
224
224
224
224
224
224
224
224
224
224
224
224
224
225
225
225
225
225
225
225
225
224
224
224
224
224
224
224
224
224
224
224
224
224
224
224
224
224
224
224
224
223
223
223
223
222
220
220
220
219
219
219
219
218
218
216
215
214
213
213
212
211
212
212
212
211
210
210
210
209
207
205
203
203
203
202
202
202
202
201
200
200
199
198
196
195
194
194
193
193
192
192
192
192
192
192
192
192
192
192
192
192
192
192
192
192
192
193
194
193
193
193
193
193
193
193
192
192
192
192
192
192
192
192
192
193
193
193
193
193
193
193
192
192
191
191
191
191
191
191
191
192
192
192
192
191
191
191
188
188
187
186
186
183
180
178
175
172
170
169
167
163
160
157
156
153
149
144
138
135
136
136
136
133
131
127
126
127
127
127
127
127
127
127
127
126
126
125
126
128
129
131
133
134
136
139
142
147
151
154
159
163
165
167
171
174
177
179
182
186
189
191
193
196
199
202
203
203
203
205
205
206
206
208
208
208
209
212
212
212
212
212
212
212
212
212
212
212
212
212
212
212
212
212
212
212
212
212
212
217
217
217
217
217
217
217
217
217
217
216
216
216
216
215
215
215
215
215
215
215
215
215
215
216
216
218
218
219
219
219
219
219
219
218
218
218
218
218
218
218
218
218
218
219
219
219
219
220
219
219
218
219
219
219
219
221
221
221
221
223
223
222
222
222
222
223
223
223
223
223
223
223
223
224
224
224
224
224
224
224
224
224
224
224
224
224
224
224
224
224
224
224
224
225
225
226
226
226
226
227
227
227
227
228
228
228
228
228
228
230
230
229
229
229
229
229
229
229
229
229
229
228
228
228
228
228
228
228
228
227
227
227
227
228
228
228
228
223
239
227
176
133
111
105
100
99
98
97
94
93
92
88
85
86
88
91
91
91
91
92
91
93
93
94
94
100
99
99
98
98
97
98
97
97
97
97
98
99
99
102
101
102
100
102
103
101
101
98
98
100
100
100
102
102
103
105
105
106
106
108
106
104
101
100
97
95
95
95
91
90
89
89
89
90
90
90
90
90
92
93
92
92
90
90
89
92
96
100
93
91
91
87
86
89
91
94
98
102
102
102
104
107
114
109
103
99
95
100
113
106
101
95
93
94
96
97
97
97
97
97
97
98
98
98
98
97
97
98
98
98
98
99
99
100
100
99
99
99
99
98
97
98
106
118
136
156
178
204
210
207
202
205
204
205
205
207
207
208
207
207
207
208
208
208
208
208
208
208
208
210
211
211
212
212
213
213
214
214
214
214
214
216
216
217
217
217
217
217
217
217
219
223
223
222
221
221
222
223
223
224
224
225
225
224
224
224
224
223
223
223
223
223
223
222
222
222
222
222
222
222
222
223
223
223
223
223
223
223
223
223
223
223
223
223
223
223
223
223
223
223
223
223
223
223
223
223
223
223
223
223
223
224
224
224
224
225
225
225
225
225
225
224
224
224
224
224
224
224
224
224
224
224
224
224
224
224
224
224
224
224
224
223
223
223
223
223
223
223
223
222
222
223
224
222
222
220
219
216
215
215
214
215
216
216
216
216
215
215
216
215
211
209
207
206
206
205
205
205
205
204
202
202
201
200
199
198
196
196
195
195
194
194
194
194
194
194
194
194
194
194
194
194
194
195
195
195
195
196
196
195
196
196
196
195
195
195
194
194
194
194
194
194
194
194
194
195
195
195
195
195
195
195
194
194
193
193
193
192
192
192
192
192
192
192
192
191
191
191
188
188
187
186
186
182
181
180
180
179
172
169
170
167
163
160
157
156
153
149
144
142
143
143
144
141
136
133
131
131
131
131
131
132
132
132
131
131
128
126
126
128
129
131
133
136
137
138
139
144
147
151
155
159
162
164
167
171
173
175
179
182
186
188
191
193
195
198
199
199
199
200
200
201
201
203
203
203
206
209
210
211
211
211
211
211
211
211
211
210
210
210
210
211
211
211
211
211
211
211
211
219
217
218
217
217
217
217
217
217
217
217
217
218
218
218
218
218
218
218
218
218
218
218
218
219
219
219
219
219
219
219
219
219
219
218
218
218
218
218
218
218
218
218
218
219
219
219
219
220
219
219
218
219
219
219
219
220
220
221
221
223
223
222
222
222
222
223
223
223
223
223
223
223
223
224
224
224
224
224
224
224
224
224
224
224
224
224
224
224
224
224
224
224
224
225
225
226
226
226
226
227
227
228
228
228
228
228
228
228
228
230
230
229
229
229
229
229
229
229
229
229
229
228
228
228
228
228
228
228
228
227
227
227
227
228
228
228
228
224
217
179
131
107
104
105
103
97
94
92
91
90
94
92
88
86
89
90
91
92
91
93
91
93
94
95
95
101
100
99
99
100
99
98
100
102
104
102
101
101
100
103
102
102
100
99
99
100
101
102
100
101
100
102
104
104
105
108
108
108
108
108
106
101
97
95
94
93
92
92
91
90
89
89
89
89
89
90
90
92
93
95
96
96
94
92
89
92
99
100
93
91
91
87
86
89
91
97
100
100
100
100
100
100
104
104
100
102
100
105
119
112
108
102
99
97
97
97
97
97
97
96
96
97
97
97
98
97
96
98
98
99
99
100
100
100
101
100
100
100
99
97
105
111
108
95
92
109
141
175
195
203
201
203
205
207
207
207
207
208
207
207
207
208
208
208
208
208
208
208
208
210
211
211
211
212
213
213
213
214
214
214
214
216
216
217
217
217
217
217
217
217
219
222
221
221
218
218
219
222
223
224
224
225
225
224
224
224
223
223
223
223
223
223
223
222
222
222
222
222
222
222
222
223
223
221
221
222
222
222
222
222
222
222
222
223
223
223
223
223
223
223
223
223
223
223
223
223
223
223
223
223
223
223
223
224
224
224
224
224
224
224
224
224
224
224
224
224
224
224
224
224
224
224
224
224
224
224
224
224
224
224
224
224
224
224
224
224
224
224
224
224
224
224
224
224
224
223
221
221
218
217
217
217
219
219
218
217
217
217
216
216
216
214
211
210
210
209
209
208
208
207
206
206
205
205
203
202
201
202
202
202
201
201
200
199
199
199
199
197
197
198
198
199
199
199
199
199
199
199
199
199
199
199
199
199
199
199
199
199
199
199
199
199
199
199
199
199
199
199
199
199
199
199
198
198
196
198
194
194
193
194
194
193
193
193
193
192
192
192
191
191
190
188
187
185
184
182
182
183
179
172
171
168
167
163
160
157
156
153
149
147
148
148
148
146
143
141
136
136
137
136
136
136
136
137
137
134
132
129
128
130
131
133
135
136
137
138
138
140
143
146
151
155
157
159
163
166
169
171
174
178
181
184
186
188
191
193
194
194
195
195
196
196
198
199
200
200
201
205
207
207
207
207
207
207
207
207
207
207
207
207
207
207
207
207
206
206
206
206
206
219
219
218
218
218
218
218
218
218
218
218
218
218
218
218
218
218
218
218
218
218
218
218
218
219
219
219
219
219
219
219
219
219
219
218
218
218
218
218
218
218
218
218
218
219
219
219
219
220
219
219
218
219
219
219
219
220
220
221
221
223
223
222
222
222
222
223
223
223
223
223
223
223
223
224
224
224
224
224
224
224
224
224
224
224
224
224
224
224
224
224
224
224
224
225
225
226
226
226
226
227
227
228
228
228
228
228
228
228
228
230
230
229
229
229
229
229
229
229
229
229
228
228
228
228
228
228
228
228
227
226
226
229
232
231
227
227
227
212
154
109
104
111
104
99
95
91
91
92
91
90
90
92
90
89
89
91
92
93
92
95
92
94
94
96
96
101
100
99
99
100
99
99
99
105
106
104
104
102
102
103
102
102
100
100
99
97
98
102
102
102
101
101
102
102
102
103
102
102
100
99
99
97
96
95
94
93
92
92
92
91
90
88
86
87
92
94
94
90
91
95
98
100
100
99
95
94
97
99
92
89
91
94
95
94
95
98
99
99
99
99
98
95
103
102
103
113
110
104
110
115
112
107
101
97
100
96
97
94
95
94
94
95
97
100
102
96
96
98
98
99
99
100
100
101
101
101
100
100
97
96
97
99
99
101
104
106
109
108
123
179
201
202
203
205
206
207
207
208
208
208
207
208
208
208
208
208
208
208
208
210
211
211
211
212
213
213
213
214
214
214
214
216
216
217
217
217
217
217
217
217
219
220
220
218
216
216
217
221
220
224
224
225
225
224
224
224
223
223
223
223
223
223
223
222
222
222
222
222
222
222
222
223
223
221
221
222
222
222
222
222
222
222
222
223
223
223
223
223
223
223
223
223
223
223
223
223
223
223
223
223
223
223
223
224
224
224
224
224
224
224
224
224
224
224
224
224
224
224
224
224
224
224
224
224
224
224
224
224
224
224
224
224
224
224
224
224
224
224
224
224
224
224
224
224
224
223
223
223
222
221
220
219
219
219
218
218
218
218
217
217
216
216
214
214
213
211
211
211
211
209
208
208
207
207
206
205
203
204
204
204
203
203
202
202
202
200
200
200
200
200
200
202
202
202
202
202
202
202
202
201
202
202
202
201
201
201
201
201
201
201
201
201
201
201
201
201
201
201
201
201
201
201
200
200
199
199
198
197
195
194
194
193
193
193
193
192
192
192
191
191
190
188
187
185
184
184
184
183
182
179
175
171
169
167
163
160
158
156
152
152
152
152
152
151
148
146
143
142
142
142
142
141
141
142
141
139
136
134
132
133
135
136
136
137
137
138
137
138
139
143
146
150
152
155
158
162
164
166
170
173
177
179
181
184
186
188
189
191
192
192
193
194
195
196
198
198
199
201
202
204
204
204
204
205
205
205
205
205
205
205
205
205
205
205
204
204
204
204
204
220
219
219
217
218
218
218
218
219
219
218
218
219
219
219
219
219
219
219
219
219
219
219
219
219
219
219
219
220
220
220
220
220
220
219
219
219
219
219
219
219
219
219
219
219
219
219
219
219
219
219
219
219
219
219
219
221
221
222
222
223
223
222
222
223
223
223
223
223
223
223
223
223
223
224
224
224
224
224
224
224
224
224
224
224
224
224
224
224
224
225
225
225
225
226
226
226
226
226
226
226
226
227
227
227
227
228
228
228
228
228
228
228
228
228
228
229
229
228
228
228
228
228
228
228
228
228
228
229
227
226
227
230
234
232
223
213
195
136
115
109
102
105
100
96
93
92
92
92
90
90
87
90
90
90
89
91
91
92
93
94
96
96
97
97
96
101
100
101
100
101
101
100
100
105
104
105
104
103
102
102
100
100
100
103
100
99
99
102
103
102
100
102
102
102
101
100
99
98
95
95
94
94
94
93
91
91
91
92
91
91
89
87
86
91
98
100
94
90
90
95
100
102
104
100
96
95
96
95
92
92
94
98
98
96
96
98
99
99
99
99
96
91
91
93
94
92
78
81
95
99
113
117
112
118
105
98
88
91
91
91
91
94
99
104
108
96
96
96
96
96
97
99
99
104
97
87
86
87
93
94
92
91
91
91
91
96
82
82
96
93
111
134
152
184
192
203
211
203
203
207
209
208
208
208
208
208
208
209
209
209
209
209
211
212
212
212
213
213
213
213
213
214
214
215
215
216
216
217
217
222
212
208
204
130
87
148
226
212
221
226
231
216
219
222
223
222
222
221
221
223
223
223
223
223
223
223
223
222
222
221
221
221
221
221
221
222
222
222
222
220
220
222
222
222
222
223
223
222
222
222
222
222
222
222
222
222
222
222
222
222
222
222
222
223
223
223
223
223
223
223
223
223
223
223
223
223
223
223
223
224
224
224
224
224
224
224
224
225
225
225
225
225
225
224
224
224
224
222
222
223
223
223
223
223
223
224
224
223
223
223
222
219
219
219
219
219
218
218
218
217
217
217
218
216
216
212
211
212
212
210
210
210
210
210
209
209
208
208
207
206
206
206
206
205
202
202
202
202
202
202
202
202
202
202
202
203
203
203
203
203
203
203
203
204
204
204
204
204
204
204
204
204
204
204
204
203
203
203
203
204
204
204
203
202
201
200
199
198
196
196
196
195
195
195
195
194
194
194
193
192
191
191
188
187
186
185
185
184
183
182
179
175
173
170
167
166
163
159
157
158
158
158
158
155
153
151
149
149
149
149
147
146
145
145
145
144
141
139
137
137
137
138
138
139
139
139
139
139
141
143
145
149
150
153
155
158
159
162
166
169
173
175
178
180
182
186
187
188
188
190
190
191
192
194
195
197
197
198
199
200
200
200
200
202
202
202
202
202
202
202
202
202
202
202
202
202
200
200
200
220
220
219
219
219
219
219
219
219
219
220
220
219
219
219
219
219
219
219
219
219
219
219
219
219
219
219
219
220
220
220
220
220
220
219
219
219
219
219
219
219
219
219
219
219
219
219
219
219
219
219
219
219
219
219
219
221
221
222
222
223
223
222
222
223
223
223
223
223
223
223
223
223
223
224
224
224
224
224
224
224
224
224
224
224
224
224
224
224
224
225
225
225
225
226
226
226
226
226
226
226
226
227
227
227
227
228
228
228
228
228
228
228
228
228
228
229
229
228
228
228
228
228
228
228
228
228
228
229
231
232
231
227
223
226
222
187
124
103
106
113
103
100
96
93
92
92
92
92
90
90
88
89
89
90
89
91
90
91
94
96
101
99
98
99
97
100
100
101
100
101
101
101
101
102
102
104
103
102
100
99
99
100
99
102
100
100
100
102
103
99
100
103
100
102
100
100
99
98
97
95
95
93
93
91
90
89
89
89
86
85
86
91
93
98
104
101
92
94
97
100
104
105
101
92
89
89
93
92
91
92
94
94
95
95
96
96
98
98
98
98
98
103
102
100
97
82
73
70
75
80
81
136
131
103
103
103
103
92
92
92
93
95
101
104
103
98
96
94
91
90
88
87
88
92
92
88
85
82
87
93
90
79
79
79
79
92
85
85
92
94
91
86
84
87
108
139
160
201
206
209
203
204
209
209
208
208
208
209
209
209
209
209
211
212
212
212
213
213
213
213
213
214
214
215
215
216
216
217
217
224
205
216
166
102
95
114
211
232
227
219
213
215
219
222
223
221
222
221
221
223
223
223
223
223
223
223
223
222
222
221
221
221
221
221
221
222
222
222
222
220
220
222
222
222
222
223
223
222
222
222
222
222
222
222
222
222
222
222
222
222
222
222
222
223
223
223
223
223
223
223
223
223
223
223
223
223
223
223
223
224
224
224
224
224
224
224
224
225
225
225
225
225
225
224
224
224
224
222
222
223
223
223
223
223
223
223
224
223
223
223
222
220
219
219
219
220
219
219
219
218
217
217
218
218
217
217
214
214
213
213
213
213
213
213
212
211
210
210
209
208
208
208
208
208
206
205
202
205
205
205
205
203
203
203
203
204
204
204
204
205
205
205
205
205
205
205
205
205
205
205
205
205
205
205
205
204
204
204
204
205
205
205
204
204
202
201
201
200
199
198
198
197
197
197
197
195
195
195
194
193
192
192
189
189
188
189
189
187
186
186
182
181
179
177
173
171
169
166
164
164
164
164
164
161
158
155
153
153
153
153
152
151
150
150
150
147
145
143
141
142
142
143
143
143
143
144
144
145
145
148
149
150
152
155
156
157
159
161
166
169
173
175
178
180
182
186
187
187
187
188
188
188
190
192
193
193
194
197
197
197
197
197
197
199
199
199
199
199
199
199
199
199
199
199
199
199
198
198
198
222
221
221
220
220
220
220
220
220
220
221
221
221
221
221
221
221
221
221
221
221
221
221
221
221
221
221
221
221
221
221
221
221
221
220
220
220
220
220
220
220
220
220
220
220
220
220
220
220
220
220
220
221
221
220
220
221
221
222
222
223
223
222
222
223
223
223
223
223
223
223
223
223
223
224
224
224
224
224
224
224
224
224
224
224
224
224
224
224
224
225
225
225
225
226
226
226
226
226
226
226
226
227
227
227
227
228
228
228
228
228
228
228
228
228
228
229
229
228
228
228
228
228
228
228
228
228
228
229
231
232
231
226
222
216
197
145
92
98
113
117
105
96
93
92
92
93
93
92
90
90
88
90
90
91
91
90
89
90
93
100
103
100
99
100
98
99
100
103
101
101
102
101
103
103
103
103
100
100
98
98
98
99
100
102
100
100
100
102
99
98
98
100
98
99
98
98
97
95
94
93
93
92
91
89
89
89
89
90
86
85
86
91
93
98
104
101
94
93
97
97
97
97
92
85
82
88
93
91
91
92
94
94
95
95
96
96
98
97
97
97
97
114
106
97
90
75
74
65
52
68
61
123
140
103
103
103
102
100
99
99
101
104
102
100
97
95
95
94
91
90
88
87
88
92
92
88
82
78
80
88
91
91
91
91
89
87
92
92
84
81
82
86
87
82
84
91
96
117
151
188
205
204
206
209
208
209
209
209
209
209
209
211
211
212
212
213
213
213
213
213
213
214
214
215
215
216
216
217
217
218
213
206
122
86
88
70
151
222
221
223
222
238
228
213
204
222
222
221
221
222
222
223
223
223
223
223
223
222
222
221
221
221
221
220
220
220
220
220
220
219
219
220
220
222
222
223
223
222
222
222
222
222
222
222
222
222
222
222
222
222
222
221
221
223
223
222
222
222
222
222
222
223
223
223
223
223
223
223
223
224
224
224
224
224
224
224
224
225
225
225
225
225
225
224
224
224
224
222
222
222
222
223
223
223
223
223
223
223
223
222
222
222
222
220
220
220
220
220
219
217
219
219
219
219
219
217
217
216
216
215
215
215
215
215
214
214
212
212
212
212
212
212
212
212
210
208
206
207
207
207
207
207
207
207
207
206
206
206
206
207
207
208
208
208
208
208
208
208
208
208
208
208
208
207
207
208
208
207
207
208
208
208
207
207
206
206
205
202
201
201
201
200
200
201
201
200
200
200
199
198
196
196
194
193
192
190
190
191
190
190
186
186
182
181
179
177
173
171
169
169
169
169
169
166
164
161
158
158
158
158
157
155
154
154
154
152
149
147
145
145
145
146
146
146
146
148
148
149
149
150
150
151
152
153
155
155
158
160
165
168
172
174
175
178
180
183
185
186
187
188
188
188
188
188
190
191
193
194
195
196
196
196
196
198
198
198
198
198
198
198
198
198
198
198
196
196
195
195
195
222
222
221
221
221
221
221
221
221
221
221
221
221
221
221
221
221
221
221
221
221
221
221
221
221
221
221
221
221
221
221
221
221
221
220
220
220
220
220
220
220
220
220
220
220
220
220
220
220
220
220
220
221
221
220
220
221
221
221
221
222
222
222
222
222
223
223
223
223
223
223
223
223
223
224
224
224
224
224
224
224
224
224
224
224
224
224
224
224
224
225
225
225
225
226
226
226
226
226
226
226
226
227
227
227
227
228
228
228
228
228
228
228
228
228
228
229
229
228
228
228
228
228
228
228
228
228
228
229
227
227
228
233
235
193
146
117
115
101
116
117
106
92
96
96
91
91
91
92
91
90
89
90
90
91
91
91
88
89
94
103
105
101
100
101
98
99
99
103
103
103
101
103
101
102
100
100
99
98
95
97
97
98
98
100
100
100
100
102
99
98
98
98
97
96
95
95
94
93
92
92
91
91
89
89
89
89
90
91
90
90
90
87
84
89
98
103
99
96
92
86
83
85
85
87
87
88
89
92
93
95
97
100
100
98
97
97
97
97
97
97
97
107
97
83
73
79
83
69
44
62
58
85
129
118
109
97
87
103
103
103
105
107
104
97
94
94
95
96
95
95
97
98
97
94
89
84
79
75
77
80
85
82
79
79
79
83
97
97
84
103
103
104
105
89
90
91
92
81
96
110
134
186
204
207
209
209
209
209
209
209
209
211
211
212
212
213
213
213
213
213
213
214
214
215
215
216
216
217
217
208
230
184
100
93
70
45
86
221
229
214
203
209
216
225
232
222
221
221
222
223
223
223
223
223
223
223
223
222
222
221
221
221
221
220
220
220
220
220
219
219
218
219
219
220
220
222
222
222
222
222
222
222
222
222
222
222
222
222
222
222
222
221
221
223
223
222
222
222
222
222
222
223
223
223
223
223
223
223
223
224
224
224
224
224
224
224
224
225
225
225
225
225
225
224
224
224
224
222
222
222
222
223
223
223
223
223
223
223
223
222
222
222
222
220
220
222
222
222
220
219
219
219
219
219
219
217
217
217
217
216
216
216
216
216
215
215
214
214
214
214
214
213
213
213
212
211
209
209
209
209
209
209
209
209
209
209
209
209
209
210
210
211
210
210
210
210
210
211
211
211
211
211
211
209
209
210
210
209
209
210
210
210
210
209
209
208
207
206
205
204
204
204
204
204
204
202
202
202
201
200
199
199
196
196
195
193
193
194
193
193
190
189
186
185
182
181
179
177
173
173
173
173
173
171
168
166
164
162
162
162
160
159
158
158
158
156
154
152
149
150
150
151
151
151
151
152
151
152
152
152
153
153
153
156
156
157
158
161
165
168
171
173
175
178
180
183
185
185
185
187
187
187
187
188
188
188
190
191
192
193
193
194
194
194
194
195
195
194
194
194
194
194
194
194
193
193
192
192
192
223
223
221
221
221
221
221
221
221
221
221
221
221
221
221
221
221
221
221
221
221
221
221
221
222
222
221
221
222
222
222
222
222
222
221
221
221
221
221
221
221
221
221
221
221
221
221
221
221
221
221
221
221
221
221
221
221
221
222
222
222
222
222
222
222
222
223
223
223
223
223
223
223
223
224
224
224
224
224
224
224
224
224
224
224
224
224
224
224
224
225
225
225
225
226
226
226
226
226
226
226
226
227
227
227
227
228
228
228
228
228
228
228
228
228
228
228
228
228
228
228
228
228
228
228
228
228
228
228
228
228
227
227
216
161
113
103
129
107
110
101
92
89
99
99
90
91
91
92
92
91
92
91
92
91
92
92
92
94
100
105
103
101
99
100
100
100
101
105
106
103
102
102
100
100
99
99
98
98
98
98
98
99
99
100
100
101
101
100
98
98
98
98
96
96
94
94
93
92
91
91
91
90
88
90
90
90
90
91
90
90
91
90
86
87
93
94
93
93
91
86
83
84
86
87
86
89
89
92
92
94
97
102
103
87
98
98
86
97
99
99
98
92
107
107
92
59
54
52
51
50
67
43
121
141
110
117
109
104
104
104
105
105
99
96
95
94
96
96
96
95
93
93
93
81
81
85
86
91
91
94
103
110
106
100
94
84
98
98
85
87
90
93
93
90
90
88
87
102
96
89
92
135
159
201
225
205
199
198
195
211
212
212
213
212
213
213
214
214
214
214
214
214
214
214
214
215
215
216
216
208
204
121
99
107
61
55
62
159
206
236
231
221
226
228
225
221
221
220
220
221
222
222
222
223
223
223
223
222
222
221
221
220
220
219
219
219
219
219
219
217
217
219
219
220
220
222
222
222
222
222
222
222
222
222
222
222
222
222
222
222
222
221
221
221
221
221
221
221
221
221
221
221
221
222
222
222
222
223
223
223
223
224
224
224
224
224
224
225
225
225
225
225
225
224
224
224
224
222
222
223
223
222
222
222
222
223
223
223
223
223
223
221
221
221
221
222
222
222
222
220
219
220
220
220
220
220
220
219
219
218
218
217
217
218
217
216
214
214
214
214
214
214
214
213
211
211
210
209
209
209
209
209
209
210
210
210
210
211
211
211
210
210
211
211
211
211
211
211
211
211
211
211
211
211
211
211
211
211
211
212
212
212
210
210
210
209
208
209
208
206
206
206
206
204
204
202
202
202
201
200
199
199
197
196
195
196
196
194
193
193
193
191
189
187
186
185
183
181
179
177
177
178
178
175
173
171
168
168
168
168
166
165
164
164
164
162
160
157
155
153
153
154
154
155
155
156
155
156
155
156
156
157
158
158
158
159
160
162
165
167
169
172
173
175
178
181
182
184
184
185
185
186
186
187
187
188
187
190
191
192
192
193
193
194
194
194
194
194
194
194
194
194
194
194
193
193
192
192
192
223
223
221
221
221
221
221
221
221
221
221
221
221
221
221
221
221
221
221
221
221
221
221
221
222
222
221
221
222
222
222
222
222
222
221
221
221
221
221
221
221
221
221
221
221
221
221
221
221
221
221
221
221
221
221
221
221
221
222
222
222
222
222
222
222
222
223
223
223
223
223
223
223
223
224
224
224
224
224
224
224
224
224
224
224
224
224
224
224
224
225
225
225
225
226
226
226
226
226
226
226
226
227
227
227
227
228
228
228
228
228
228
228
228
228
228
228
228
228
228
228
228
228
228
228
228
228
228
228
232
234
228
201
160
127
110
103
109
109
101
92
87
92
99
100
92
90
90
91
92
92
94
92
92
92
91
93
98
101
104
102
100
101
101
102
102
102
103
105
106
103
100
100
99
99
98
98
98
98
99
99
99
100
100
102
102
101
100
98
98
98
98
98
96
94
93
94
92
91
90
90
90
90
89
90
90
90
90
91
90
87
88
93
99
101
96
87
83
84
89
92
93
94
91
83
81
87
90
91
91
92
92
95
97
87
98
98
86
93
99
100
99
84
97
110
112
108
92
73
62
40
75
43
89
126
95
103
113
100
100
100
100
98
95
96
97
96
96
96
94
93
93
93
93
86
95
107
113
128
128
119
111
128
124
118
113
89
96
96
88
83
82
85
85
83
82
79
73
99
100
98
93
62
93
136
183
208
213
210
212
212
212
212
213
212
213
213
214
214
214
214
214
214
214
214
214
215
215
215
216
222
193
100
113
90
60
69
60
136
204
242
228
218
218
224
235
220
220
220
220
221
221
222
222
223
223
223
223
222
222
221
221
220
220
219
219
219
219
219
218
217
216
217
217
219
219
220
220
222
222
222
222
222
222
222
222
222
222
222
222
222
222
221
221
221
221
221
221
221
221
221
221
221
221
222
222
222
222
223
223
223
223
224
224
224
224
224
224
225
225
225
225
225
225
224
224
224
224
222
222
223
223
222
222
222
222
223
223
223
223
223
223
221
221
221
221
222
222
222
222
220
219
220
220
220
220
221
221
219
219
219
219
219
219
219
218
217
215
216
216
216
216
215
216
214
214
214
213
211
211
211
210
210
209
210
210
210
210
211
211
210
210
210
210
211
211
211
211
211
211
211
211
211
211
211
211
211
211
211
211
212
212
212
212
212
212
212
210
211
209
208
208
208
208
206
206
205
205
205
204
202
201
201
199
198
197
197
197
195
195
194
195
194
194
192
189
188
186
185
184
183
183
184
184
181
179
175
173
173
173
173
171
169
168
168
168
167
164
162
160
158
158
159
159
159
159
160
159
159
158
159
160
162
163
164
164
164
164
165
166
168
169
171
172
174
176
180
181
183
183
185
185
185
185
187
187
187
187
190
190
191
191
193
193
193
193
194
194
193
193
193
193
193
193
193
192
192
190
190
190
225
224
223
223
223
223
223
223
223
223
223
223
223
223
223
223
223
223
223
223
223
223
223
223
223
223
224
224
225
225
225
225
225
225
223
223
223
223
224
224
224
224
224
224
224
224
224
224
224
224
224
224
224
224
223
223
223
223
222
222
222
222
222
222
222
223
223
223
223
223
223
223
223
223
224
224
224
224
224
224
224
224
224
224
224
224
224
224
224
224
225
225
225
225
226
226
226
226
226
226
226
226
227
227
227
227
228
228
228
228
228
228
228
228
228
228
228
228
228
228
228
228
229
229
229
229
228
228
229
233
228
204
160
124
108
109
107
103
101
92
88
89
99
92
92
96
93
91
92
92
95
95
92
94
95
93
98
104
105
103
101
104
105
106
107
107
108
107
105
102
100
100
100
99
99
98
99
99
99
99
101
102
103
102
103
103
100
98
98
97
97
97
97
96
94
94
93
92
91
90
90
90
90
89
90
91
91
91
92
91
90
89
97
101
104
96
84
78
80
84
89
93
95
91
83
81
87
90
91
91
92
92
94
94
89
98
98
88
91
93
99
101
90
92
105
119
126
117
108
95
62
61
52
73
100
102
91
98
93
93
93
93
94
95
97
97
95
95
95
95
94
95
92
93
83
92
96
98
107
119
110
91
93
89
83
78
95
88
88
95
106
95
80
72
67
79
93
104
85
78
68
69
91
92
90
94
160
207
219
221
211
212
212
213
213
214
214
216
215
215
214
214
214
213
214
213
215
215
215
216
215
146
91
119
84
68
86
80
134
152
138
101
131
135
165
205
220
220
220
220
221
221
222
221
222
222
222
222
222
222
221
221
220
220
219
219
219
219
219
218
218
217
218
218
219
219
220
220
222
222
222
222
222
222
222
222
222
222
222
222
222
222
221
221
221
221
221
221
221
221
221
221
221
221
222
222
222
222
223
223
223
223
224
224
224
224
224
224
225
225
225
225
225
225
224
224
224
224
222
222
222
222
222
222
222
222
222
222
223
223
223
223
221
221
221
221
221
221
221
221
220
220
221
221
221
221
221
221
222
222
220
220
220
220
220
220
219
218
218
218
218
218
218
218
218
218
218
217
216
215
216
214
214
212
212
212
211
211
211
211
213
213
213
213
213
213
213
213
213
213
213
213
213
213
213
213
213
213
213
213
214
214
214
214
215
215
215
214
215
215
213
213
213
213
212
212
211
211
211
211
209
208
208
206
205
201
200
199
201
201
200
197
196
196
195
193
193
190
188
186
186
186
186
186
185
183
181
179
179
179
179
176
175
174
174
174
173
170
168
166
164
164
165
165
165
165
166
165
165
164
165
166
167
169
170
170
169
169
169
169
171
171
171
171
173
175
179
180
182
183
185
185
185
185
187
187
187
187
190
190
191
191
193
193
193
193
194
194
193
193
193
193
193
193
193
192
192
190
190
190
226
226
224
224
225
225
225
224
223
224
225
225
225
225
225
225
225
225
225
225
225
225
225
225
225
225
224
225
225
225
225
225
225
225
224
223
223
223
223
223
223
224
224
224
224
224
224
224
224
224
224
224
224
224
224
223
223
224
222
222
222
222
222
222
223
223
223
223
223
223
223
223
223
223
224
224
224
224
224
224
224
224
224
224
224
224
224
224
224
224
225
225
225
225
226
226
226
226
226
226
226
226
227
227
227
227
228
228
228
228
228
228
228
228
228
228
228
228
228
228
228
229
229
229
229
230
231
228
228
231
204
167
131
112
105
101
98
100
96
87
87
89
100
90
90
100
91
91
91
91
95
97
95
93
96
98
102
106
104
100
101
105
106
107
109
110
110
107
103
100
98
99
99
98
99
98
99
99
99
99
101
102
103
103
103
100
99
99
97
96
96
96
96
94
94
93
92
90
91
90
89
89
86
88
90
92
94
93
91
91
95
95
95
98
99
91
85
84
83
84
86
90
90
87
87
87
89
89
91
91
91
91
92
92
90
98
98
87
93
91
92
99
107
93
92
106
100
112
127
130
112
39
69
66
79
118
93
77
88
93
93
89
95
95
95
96
98
96
98
95
93
96
92
93
117
116
105
94
86
114
117
98
111
106
100
97
98
85
85
96
92
99
108
115
86
76
65
69
91
87
82
76
78
83
88
93
90
153
207
220
210
211
211
213
210
212
214
216
215
215
214
214
216
219
217
210
215
215
215
215
162
80
104
125
95
88
110
101
88
80
75
75
111
93
104
137
220
220
220
220
221
221
221
220
222
222
222
220
221
221
220
220
220
220
219
219
219
218
218
218
217
217
217
217
218
218
219
219
219
219
220
220
221
221
221
220
220
220
220
220
220
220
220
220
220
220
220
220
220
220
220
220
221
221
222
222
222
222
223
223
223
223
223
223
223
223
224
224
224
224
225
225
225
225
224
224
224
224
222
222
222
222
222
222
222
222
222
222
223
223
223
223
221
221
221
221
221
221
221
221
220
220
221
221
221
221
221
221
222
222
220
220
220
220
220
220
219
218
218
218
218
218
218
218
218
218
218
218
217
217
217
216
215
214
212
212
212
212
212
212
213
213
213
213
213
213
213
213
213
213
213
213
213
213
213
213
213
213
213
214
216
216
216
216
216
216
216
216
217
216
215
215
215
215
214
214
213
213
213
213
212
211
211
208
207
204
202
201
202
202
201
198
196
196
195
195
194
192
191
190
188
188
188
188
187
186
185
183
182
182
182
180
179
178
178
178
176
174
171
169
168
168
169
168
169
169
170
169
169
169
170
170
171
172
173
173
172
172
173
173
172
172
173
173
174
176
179
180
182
182
184
184
184
184
186
186
186
186
188
188
190
191
193
193
193
193
194
194
193
193
192
192
192
192
192
190
190
189
189
189
227
227
226
226
226
226
226
226
227
227
226
226
226
226
226
226
226
226
226
226
226
226
226
226
226
226
226
226
226
226
226
226
226
226
225
225
225
225
225
225
225
225
224
224
224
224
224
224
224
224
224
224
224
224
224
223
223
223
223
223
223
223
223
223
223
223
224
224
224
224
224
224
224
224
224
224
224
224
224
224
224
224
224
224
224
224
223
223
223
223
225
225
225
225
226
226
226
226
226
226
226
226
227
227
227
227
228
228
228
228
228
228
228
228
228
228
228
228
229
229
229
229
229
229
229
231
232
229
228
222
176
136
112
108
104
101
99
101
97
90
88
89
96
91
91
98
93
92
93
94
96
100
100
99
97
100
103
106
103
100
103
105
107
107
110
111
111
109
104
98
98
98
98
98
98
98
98
98
100
100
102
103
104
104
104
102
101
98
96
94
93
93
94
94
93
91
90
89
90
90
87
84
86
87
91
95
99
97
93
93
97
97
94
96
91
87
85
86
86
87
89
90
88
85
88
89
88
88
90
90
91
91
93
92
92
85
99
87
95
105
88
95
93
118
120
101
101
91
98
122
148
116
88
40
88
121
106
94
86
95
95
87
94
96
95
95
100
112
101
84
104
98
94
104
130
110
102
110
114
114
114
114
130
124
116
111
102
95
88
92
62
83
98
97
79
60
51
61
77
77
77
75
73
77
84
87
96
91
117
184
210
212
210
208
211
212
215
216
216
216
216
217
217
219
215
207
207
231
210
161
92
103
117
127
118
102
85
82
79
79
79
80
82
87
94
97
121
187
221
228
221
221
221
220
217
216
216
219
219
220
222
222
220
220
220
219
217
217
218
217
217
216
217
217
217
216
216
217
219
219
219
219
219
219
219
219
219
219
219
219
219
219
219
219
219
219
219
219
219
219
220
220
220
220
222
222
222
222
222
222
221
221
223
223
223
223
223
223
224
224
224
224
224
224
224
224
222
222
222
222
222
222
222
222
223
223
223
223
223
223
223
223
223
223
223
223
223
223
223
223
221
221
221
221
223
223
223
223
222
222
222
222
222
222
222
220
221
220
220
220
219
219
219
219
218
218
218
218
218
218
217
215
214
213
213
214
213
213
213
213
213
213
213
213
213
213
213
213
213
213
214
214
214
215
215
216
215
215
215
216
217
217
217
217
217
217
217
217
217
217
217
217
216
216
215
215
214
214
214
213
212
212
211
208
207
206
205
205
204
203
202
201
198
197
197
196
195
194
193
193
193
193
193
192
192
189
187
186
186
186
186
183
182
181
181
181
180
177
175
174
173
174
174
173
173
173
174
173
173
173
174
174
175
176
176
176
176
176
176
176
178
178
179
179
180
180
182
182
182
182
183
183
185
185
185
185
186
186
187
188
189
189
192
192
192
192
192
192
192
192
192
192
192
192
192
190
189
188
188
188
228
228
227
227
227
227
227
227
227
227
227
227
227
227
227
227
227
227
227
228
228
228
227
227
226
226
226
226
226
226
226
226
226
226
224
225
225
225
225
225
225
225
224
224
224
224
224
224
224
224
224
224
224
224
224
224
224
224
223
223
223
223
223
223
223
223
224
224
224
224
224
224
224
224
224
224
224
224
224
224
224
224
224
224
224
224
223
223
223
223
225
225
225
225
226
226
226
226
226
226
226
226
227
227
227
227
228
228
228
228
228
228
228
228
228
228
228
228
229
229
229
229
229
229
229
229
231
233
225
202
145
113
104
106
104
101
102
102
99
93
89
89
93
92
93
95
94
92
92
94
96
99
101
100
99
101
102
102
101
102
106
107
107
109
110
109
109
106
102
97
96
97
97
97
98
98
98
98
100
101
103
103
103
101
98
101
100
98
95
93
92
92
94
93
92
90
89
86
88
89
87
84
86
87
93
94
94
95
100
101
101
96
90
91
87
85
85
92
96
93
87
85
85
87
88
88
88
88
90
90
90
90
91
91
93
85
100
88
95
107
91
94
100
128
134
113
113
101
102
121
136
131
129
90
88
122
106
94
89
95
95
91
92
94
94
95
100
105
101
93
104
99
100
109
109
101
97
100
115
115
114
116
121
121
117
115
109
101
96
89
95
80
79
87
101
92
89
90
87
83
83
83
71
66
61
56
87
90
99
105
167
207
219
221
222
221
217
215
216
217
220
222
219
207
200
205
235
216
157
93
86
84
81
84
87
87
84
80
79
79
79
80
83
87
94
97
84
149
210
220
222
222
222
222
224
224
225
223
222
220
220
220
220
220
220
219
217
216
217
217
216
216
216
216
215
215
216
216
217
217
218
218
218
218
218
218
218
218
218
218
218
218
218
218
217
217
218
218
218
218
219
219
220
220
222
222
222
222
222
222
221
221
221
221
221
221
223
223
223
223
224
224
224
224
224
224
222
222
222
222
222
222
222
222
223
223
223
223
223
223
223
223
223
223
223
223
223
223
223
223
221
221
221
221
223
223
223
223
222
222
222
222
222
222
222
220
221
221
221
221
220
220
220
220
218
218
218
218
218
218
217
215
214
213
213
214
214
214
214
214
213
213
213
213
213
213
213
213
213
213
214
214
214
215
215
216
215
216
216
217
218
218
218
218
218
218
218
218
217
217
217
217
217
216
215
216
214
214
214
213
212
212
211
210
208
208
207
207
205
204
203
203
200
199
199
198
198
197
197
197
196
196
196
196
195
193
190
189
189
189
189
187
186
184
184
184
183
181
179
177
178
179
179
178
178
176
178
178
178
178
179
179
180
180
180
180
180
180
181
181
182
182
185
185
186
186
187
187
187
187
187
187
187
187
187
187
187
187
188
188
189
189
192
192
192
192
192
192
192
192
190
190
190
190
190
189
188
187
187
187
231
231
230
230
230
230
230
230
230
230
230
230
230
230
230
230
230
230
230
230
229
230
230
230
228
228
230
230
228
228
228
228
228
228
228
228
228
228
228
228
226
226
227
228
227
227
226
226
226
226
226
226
226
226
226
226
225
225
226
226
225
225
225
225
225
225
225
225
225
225
225
225
225
225
225
225
225
225
224
224
224
224
224
224
224
224
223
223
223
223
225
225
225
225
226
226
226
226
226
226
226
226
227
227
227
227
228
228
228
228
228
228
228
228
228
228
228
228
229
229
229
229
229
229
229
229
232
234
210
164
122
104
101
105
104
101
102
102
102
98
90
90
95
94
94
96
96
94
94
95
96
96
101
101
101
101
103
104
105
106
109
109
110
110
107
104
104
102
97
94
96
98
97
97
98
98
101
100
101
101
103
102
98
93
95
100
101
99
95
92
92
92
93
93
92
90
87
84
84
84
86
87
88
90
94
94
94
99
105
107
99
91
87
86
87
83
87
96
100
94
85
80
84
87
88
88
88
88
90
90
90
90
91
91
95
85
99
89
92
106
89
102
102
127
130
107
103
88
85
98
108
130
148
111
88
121
106
95
96
89
89
95
96
95
95
95
97
95
99
106
105
101
107
111
95
103
106
103
114
114
114
114
115
118
121
124
118
108
101
96
102
84
74
79
100
107
111
107
95
95
94
94
81
77
71
67
55
65
71
75
88
155
208
224
211
213
218
220
220
221
223
222
218
212
220
234
226
177
118
79
103
96
87
80
88
85
80
77
78
79
79
80
83
87
95
97
96
113
155
205
225
222
221
222
211
212
214
215
217
218
221
221
220
220
220
219
217
216
218
217
217
216
216
215
215
215
216
216
217
217
218
218
218
218
218
218
217
217
217
217
217
217
217
217
217
217
217
217
218
218
219
219
220
220
222
222
222
222
222
222
221
221
221
221
221
221
223
223
223
223
224
224
224
224
224
224
222
222
222
222
222
222
222
222
223
223
223
223
223
223
223
223
223
223
223
223
223
223
223
223
221
221
221
221
223
223
223
223
222
222
222
222
222
222
222
222
222
222
222
222
222
222
220
220
221
221
220
220
218
218
218
217
215
215
216
216
215
215
215
215
214
214
214
214
214
214
214
214
215
215
215
215
215
215
216
216
217
217
218
218
219
219
220
220
220
220
220
220
218
218
217
217
218
218
217
217
215
215
216
216
215
215
215
215
212
211
211
210
210
209
209
207
206
205
205
204
202
201
201
201
202
202
202
202
199
196
195
193
193
193
193
190
189
188
188
188
187
185
182
181
181
182
182
181
181
180
181
181
181
181
182
182
183
183
183
183
183
183
185
185
186
186
188
188
189
189
190
190
190
190
190
190
191
191
191
191
191
191
191
191
191
191
192
192
192
192
192
192
192
192
190
190
190
190
190
189
188
187
187
187
231
231
230
230
229
229
229
229
229
230
230
230
230
230
230
230
230
230
230
230
229
229
230
230
228
228
230
230
228
228
228
228
228
228
227
228
228
228
228
228
226
226
227
227
226
226
226
226
226
226
226
226
226
226
226
226
225
225
226
226
225
225
225
225
225
225
225
225
225
225
225
225
225
225
225
225
225
225
224
224
224
224
224
223
223
223
223
223
223
223
224
225
225
225
226
226
226
226
226
226
226
226
227
227
227
227
228
228
228
228
228
228
228
228
228
228
228
228
229
229
229
229
229
226
229
233
233
223
182
126
111
99
101
106
105
101
102
102
101
100
94
92
95
94
94
96
96
94
95
97
98
98
99
101
101
102
103
105
109
108
109
109
110
105
103
100
100
98
95
94
96
98
96
96
97
98
101
102
102
101
99
98
96
94
98
100
97
96
95
91
91
91
93
93
92
90
86
82
80
83
88
89
87
88
95
97
99
101
104
102
95
89
85
85
84
83
87
93
93
90
89
86
87
87
88
88
88
88
90
90
90
90
91
91
97
85
99
90
88
100
92
114
134
157
156
133
120
101
99
107
87
117
138
94
88
121
106
95
100
85
85
99
95
95
95
95
98
89
96
118
104
107
113
103
96
117
124
115
113
113
113
111
111
115
123
130
124
118
108
101
82
91
90
77
76
96
104
94
104
104
104
101
98
100
107
111
86
95
94
92
85
101
132
155
177
192
210
222
224
223
223
223
224
223
211
192
145
110
83
90
90
90
87
87
85
81
75
74
79
80
80
80
83
87
95
97
121
93
101
168
219
223
221
222
222
222
222
222
221
221
221
221
220
216
218
217
216
216
218
217
217
216
215
215
215
215
216
217
217
217
218
218
218
218
218
217
217
217
217
217
217
217
217
217
218
217
217
217
218
218
219
219
219
219
220
220
220
220
220
220
221
221
221
221
221
221
223
223
223
223
224
224
224
224
224
224
222
222
222
222
222
222
222
222
223
223
223
223
223
223
223
223
223
223
223
223
223
223
223
223
221
220
221
221
222
222
223
223
222
222
222
222
222
222
222
222
222
222
222
222
222
222
220
220
221
221
220
220
218
218
218
217
215
215
216
216
215
215
215
215
214
214
214
214
214
214
214
214
215
215
215
215
215
215
216
216
217
217
218
218
218
218
219
220
220
220
220
220
218
218
217
217
218
218
217
217
215
215
215
216
214
215
215
215
215
214
212
211
211
210
210
208
207
207
207
206
205
204
204
204
204
204
204
203
203
200
199
196
195
195
195
193
193
192
192
192
190
188
186
183
185
186
186
185
185
183
185
185
185
185
186
186
186
186
187
187
187
187
187
187
188
188
190
190
192
192
193
193
193
193
193
193
193
193
193
193
193
193
193
192
192
191
192
192
192
192
192
192
190
190
189
189
189
189
189
188
187
186
186
186
232
232
230
230
231
231
231
231
231
231
231
231
231
231
231
231
231
231
231
231
231
231
231
230
230
230
230
230
229
229
229
229
229
229
228
228
228
228
229
229
229
229
228
228
227
227
227
227
227
227
227
227
227
227
227
227
227
227
226
226
226
226
226
226
226
226
226
226
226
226
226
226
226
226
225
225
225
225
224
224
224
224
224
224
224
224
224
224
224
224
226
226
226
226
227
227
227
227
227
227
227
227
228
228
228
228
230
230
230
230
230
230
230
230
230
230
230
230
230
230
230
230
228
223
227
239
230
199
150
108
99
99
104
107
102
99
98
98
100
100
97
96
94
94
94
96
97
95
98
98
100
101
101
101
102
102
104
106
110
111
109
106
106
104
100
98
97
96
94
96
97
98
96
94
95
98
102
104
102
101
98
95
96
95
95
95
96
95
94
92
92
92
92
92
91
89
87
82
79
80
85
87
88
89
95
100
102
100
97
94
89
88
87
86
85
82
84
86
86
87
90
90
88
86
88
88
88
88
89
90
91
91
91
91
97
74
88
90
104
103
93
115
142
183
162
145
123
117
96
114
102
130
119
71
107
104
76
124
100
66
76
124
110
98
98
110
95
91
92
105
118
117
118
114
114
115
115
115
122
132
127
107
124
129
134
140
147
137
124
111
87
94
97
78
71
75
81
86
94
99
106
110
112
110
106
108
115
103
103
115
113
116
105
94
91
104
129
155
182
192
196
191
170
147
124
105
92
90
89
89
72
78
86
91
78
79
82
83
82
82
84
91
96
98
96
97
97
101
96
109
140
208
231
215
216
218
220
220
223
217
208
205
208
216
216
216
216
216
218
218
217
217
217
217
217
217
217
217
218
217
217
217
217
217
217
217
217
217
217
217
217
217
217
217
216
216
217
217
217
217
218
218
219
219
220
220
220
220
220
220
222
222
222
222
221
221
223
223
223
223
224
224
224
224
224
224
223
223
223
223
223
223
223
223
223
223
223
223
223
223
223
223
223
223
223
223
223
223
223
221
220
220
220
220
222
222
222
222
220
220
220
220
221
221
221
221
221
221
221
221
220
220
219
219
219
219
218
218
218
218
218
218
217
216
216
216
216
216
215
215
215
215
214
214
214
214
214
214
214
214
214
214
214
214
214
214
215
215
217
217
218
218
219
219
219
219
221
221
219
219
219
219
219
219
218
218
217
217
217
217
216
215
215
214
214
213
213
214
212
211
211
210
209
209
209
206
205
203
203
203
204
203
203
204
204
202
201
199
197
197
197
196
196
196
196
196
195
193
190
189
191
192
192
192
191
191
191
190
190
189
190
190
191
191
191
191
191
191
192
192
192
192
193
193
194
194
195
195
196
196
196
196
195
195
195
195
195
196
196
194
194
193
193
193
193
193
192
192
192
192
191
191
191
191
191
190
189
187
187
187
232
232
230
230
231
231
231
231
231
231
231
231
231
231
231
231
231
231
231
231
231
231
230
230
230
230
230
230
230
230
230
230
230
230
229
229
230
230
230
230
230
230
229
229
229
229
229
229
229
228
228
228
228
228
228
228
228
228
226
226
227
227
227
227
227
227
227
227
227
227
227
227
227
227
226
226
226
226
226
226
226
226
225
225
225
225
225
225
225
225
226
226
227
227
227
227
227
227
227
227
227
227
228
228
228
228
230
230
230
230
230
230
230
230
230
230
230
230
230
230
230
230
229
226
228
235
215
161
126
112
96
103
102
104
100
97
97
97
97
97
98
98
96
96
97
97
98
98
101
100
103
103
104
102
102
104
107
109
109
109
105
103
103
100
100
97
97
96
97
97
97
96
97
96
97
99
102
102
100
97
96
95
95
95
95
95
93
94
92
92
91
91
91
92
91
89
85
81
79
82
86
87
90
91
95
100
104
100
90
86
85
88
87
87
86
81
82
86
86
86
89
90
88
86
88
88
88
88
90
91
91
91
91
91
94
77
91
87
96
107
95
109
151
172
148
140
119
123
113
140
135
147
123
76
108
87
55
115
75
61
75
107
116
96
83
87
94
89
87
95
103
110
123
127
124
124
124
124
111
121
128
126
129
134
140
144
154
144
130
120
93
95
94
82
85
82
74
71
83
89
95
100
106
109
110
106
101
112
112
101
113
121
128
124
130
131
121
118
121
121
114
113
111
104
87
79
81
88
92
94
74
78
82
84
75
83
94
99
84
85
88
93
97
97
96
95
96
100
105
99
123
170
214
232
225
222
220
220
217
219
226
232
232
226
218
215
216
219
218
218
217
217
217
217
217
217
217
217
217
217
217
217
217
217
217
217
217
217
217
217
217
217
217
217
216
216
217
217
217
217
218
218
218
218
219
219
219
219
220
220
220
220
222
222
221
221
223
223
223
223
224
224
224
224
224
224
223
223
223
223
223
223
223
223
223
223
223
223
223
223
223
223
223
223
223
223
223
223
223
221
220
219
220
220
220
220
222
222
220
220
220
220
221
221
221
221
221
221
221
221
220
220
219
219
219
219
218
218
218
218
218
218
217
216
216
216
216
216
215
215
215
215
214
214
214
214
214
214
214
214
214
214
214
214
214
214
215
215
217
217
217
217
219
219
219
219
221
220
219
219
219
219
219
219
219
219
218
218
218
218
217
217
217
214
214
213
213
213
212
212
212
211
211
210
210
209
207
206
206
206
206
206
206
206
206
205
204
201
201
201
201
200
201
201
201
201
200
197
196
195
196
197
197
197
196
196
196
194
194
193
194
194
194
194
196
196
195
195
195
195
195
195
196
196
198
198
199
199
199
199
199
199
199
199
199
199
199
199
199
198
198
197
197
197
197
197
196
196
194
194
193
193
193
193
193
192
191
190
190
190
233
233
232
232
232
232
232
232
232
232
232
232
232
232
232
232
232
232
232
232
232
232
232
232
232
232
231
231
231
231
231
231
231
231
232
232
232
232
232
232
232
232
230
230
230
230
230
230
230
230
230
230
229
229
229
229
229
229
229
229
228
228
228
228
228
228
228
228
228
228
228
228
228
228
227
227
227
227
226
226
226
226
225
225
225
225
225
225
225
225
227
227
227
227
228
228
228
228
228
228
228
228
229
229
229
229
230
230
230
230
230
230
230
230
230
230
230
230
230
230
230
230
231
233
230
223
178
130
110
116
99
101
101
102
99
97
97
97
97
98
98
98
97
97
98
98
99
99
101
101
103
104
105
105
104
106
109
109
109
105
102
99
98
100
98
96
94
96
96
94
96
96
99
100
102
102
101
100
100
97
97
97
96
95
94
94
93
94
92
91
91
91
90
92
91
89
85
82
83
85
91
93
95
94
94
93
95
94
88
86
87
88
88
89
87
81
81
89
90
87
90
87
86
85
88
89
88
88
90
92
91
91
91
91
88
84
98
81
84
107
93
95
164
160
134
133
119
123
113
140
141
142
117
83
111
97
57
101
79
81
79
78
103
83
71
74
88
85
81
81
102
110
123
127
136
135
135
136
117
116
121
132
134
139
146
150
161
151
137
127
106
98
93
86
84
81
74
72
75
80
83
88
92
95
101
102
95
106
107
95
88
92
103
114
124
126
125
127
131
139
146
146
137
128
122
119
113
102
88
77
90
87
84
82
72
72
76
80
84
89
93
97
98
97
98
99
100
100
107
112
114
129
171
208
229
230
232
230
226
224
217
209
204
209
217
221
220
219
219
218
218
217
217
217
217
216
216
216
217
217
217
217
217
217
217
217
217
217
217
217
217
217
217
217
216
216
217
217
217
217
218
218
218
218
218
218
218
218
219
219
220
220
222
222
221
221
223
223
223
223
224
224
224
224
224
224
223
223
223
223
223
223
223
223
223
223
223
223
223
223
223
223
223
223
223
223
223
223
223
221
220
219
220
220
220
220
220
220
220
220
220
220
221
221
221
221
220
220
220
220
219
219
219
219
218
218
218
218
218
218
218
218
217
217
217
217
216
216
215
215
215
215
214
214
214
214
214
214
214
214
214
214
214
214
214
214
215
215
217
217
217
217
219
219
219
219
220
220
219
219
219
219
221
221
221
221
219
219
219
219
218
218
218
215
215
214
214
214
215
215
215
214
212
211
212
212
212
210
212
212
211
211
211
211
211
209
208
207
206
206
206
206
206
205
205
204
204
203
200
200
199
200
200
200
199
199
199
198
198
197
198
198
198
198
199
199
199
199
200
200
200
200
200
200
202
202
203
203
202
202
202
202
203
203
203
203
202
202
202
201
201
200
200
200
200
200
199
199
198
198
197
197
197
197
197
196
194
193
193
193
233
233
232
232
232
232
232
232
232
232
232
232
232
232
232
232
232
232
232
232
232
232
232
232
232
232
231
231
231
231
231
231
231
231
232
232
232
232
232
232
232
232
230
230
230
230
230
230
230
230
230
230
229
229
229
229
229
229
229
229
229
229
229
229
229
229
229
229
229
229
229
229
229
229
228
228
228
228
227
227
227
227
226
226
226
226
226
226
226
226
227
227
228
228
228
228
228
228
228
228
228
228
229
229
229
229
230
230
230
230
230
230
230
230
230
230
230
230
230
230
230
229
230
239
234
208
143
112
104
108
101
99
100
101
99
97
97
97
97
98
100
100
98
98
100
100
100
100
102
103
104
104
105
105
106
108
109
107
106
103
99
97
97
97
94
94
94
96
96
94
92
95
99
104
105
103
100
97
97
98
100
98
97
95
93
93
94
94
92
91
90
90
89
91
91
85
82
84
86
87
91
101
104
100
94
88
85
85
88
93
92
91
90
91
90
85
86
92
92
91
89
86
86
86
88
89
88
86
89
92
91
89
89
91
83
90
100
77
76
108
98
88
162
147
122
135
123
114
95
114
118
118
105
89
112
126
83
90
108
111
89
55
79
69
69
80
73
80
76
76
117
115
117
112
145
145
145
144
137
117
111
121
139
143
150
154
166
157
145
134
115
104
96
84
71
74
79
84
82
80
77
78
79
81
87
90
94
89
90
97
107
98
98
110
111
113
117
122
123
120
117
120
130
136
139
145
149
147
137
129
117
111
104
98
110
100
86
76
89
94
98
100
99
98
100
101
96
102
104
111
102
115
124
139
187
209
232
233
211
182
141
118
130
165
206
228
227
219
219
218
218
217
217
217
216
217
217
217
218
217
217
217
217
217
217
217
217
217
217
217
217
217
217
217
216
216
217
217
217
217
218
218
218
218
218
218
218
218
219
219
220
220
222
222
221
221
223
223
223
223
224
224
224
224
224
224
223
223
223
223
223
223
223
223
223
223
223
223
223
223
223
223
223
223
223
223
223
223
223
221
220
219
220
220
220
220
220
220
220
220
220
220
221
221
221
221
220
220
220
220
219
219
219
219
218
218
218
218
218
218
218
218
217
217
217
217
216
216
215
215
215
215
214
214
214
214
214
214
214
214
214
214
214
214
214
214
215
215
217
217
217
217
219
219
219
219
220
220
219
219
219
219
221
221
221
221
219
219
219
219
218
218
218
215
215
214
214
214
214
215
215
213
213
212
213
213
213
213
214
214
214
214
214
214
213
212
211
209
210
210
210
209
209
207
206
206
206
205
204
202
201
202
202
202
201
201
200
200
200
200
200
200
200
200
201
201
202
202
203
203
203
203
203
203
204
204
205
205
205
205
205
205
205
205
205
205
205
205
205
203
203
202
202
202
202
202
201
201
200
200
199
199
199
199
199
198
197
196
196
196
233
233
233
233
233
233
233
233
233
233
233
233
233
233
233
233
233
233
233
233
233
233
233
233
233
233
233
233
233
233
233
233
233
233
232
232
232
232
232
232
232
232
231
231
231
231
231
231
231
231
231
231
231
231
231
231
231
231
230
230
230
230
230
230
230
230
230
230
230
230
229
229
229
230
229
229
229
229
228
228
228
228
228
228
228
228
228
228
230
230
228
228
228
228
230
230
230
230
230
230
230
230
230
230
230
230
231
231
231
231
231
231
231
231
231
231
231
231
231
231
231
231
227
239
226
178
119
108
110
100
97
97
100
100
98
97
96
96
97
98
101
101
100
98
100
100
100
100
103
103
104
105
106
106
108
109
109
107
105
101
97
94
94
93
92
92
93
94
94
93
93
96
101
105
103
100
98
94
96
97
98
97
96
93
93
93
92
92
91
91
90
89
89
89
89
82
80
91
97
94
95
110
112
105
93
89
84
83
88
92
96
95
92
91
92
91
90
92
92
92
87
86
86
87
87
89
89
85
85
91
91
84
84
91
80
95
100
76
82
106
102
77
123
149
148
123
140
111
109
101
98
99
89
74
117
134
121
82
138
99
78
85
82
100
80
74
90
77
73
88
106
70
54
69
74
80
97
112
127
107
104
118
118
139
153
152
160
175
188
141
125
110
100
89
82
73
76
77
79
77
75
74
72
75
77
81
84
81
84
93
104
100
101
106
109
109
110
110
114
119
122
123
128
134
140
142
141
151
140
116
107
100
95
95
96
99
100
96
102
92
92
103
113
95
86
91
93
95
97
98
112
106
97
98
113
224
208
174
134
90
86
80
94
118
164
219
230
217
216
227
218
218
218
218
218
217
217
218
218
217
218
218
217
217
217
217
217
217
217
217
217
218
218
217
216
216
217
217
217
217
217
217
217
217
218
218
218
218
219
219
219
219
220
220
220
220
221
221
221
221
222
222
222
222
222
222
223
223
223
223
223
223
223
223
223
223
223
223
223
223
223
223
221
221
221
221
221
221
221
220
220
219
219
219
219
219
220
220
219
219
219
219
219
219
219
219
219
219
219
219
219
219
218
218
218
218
217
217
217
217
217
217
216
216
216
216
215
215
214
214
214
214
213
213
213
213
213
213
213
213
214
214
215
215
215
215
216
216
216
216
217
217
218
218
218
218
219
219
219
219
219
219
219
219
219
219
219
219
219
218
218
217
217
217
216
216
216
216
214
214
214
214
214
214
214
214
214
216
216
216
216
216
214
214
214
214
213
212
212
212
212
212
210
209
208
208
208
207
206
206
206
206
206
206
204
203
202
201
202
201
202
202
202
202
204
204
205
205
205
205
205
205
206
206
206
206
206
206
206
206
206
206
206
206
206
206
206
206
206
206
204
204
204
204
204
204
203
203
204
204
202
202
201
201
201
200
199
198
198
198
233
233
233
233
233
233
233
233
233
233
233
233
233
233
233
233
233
233
233
233
233
233
233
233
233
233
233
233
233
233
233
233
233
233
232
232
232
232
232
232
232
232
231
231
231
231
231
231
231
231
231
231
231
231
231
231
231
231
230
230
231
231
231
231
231
231
231
231
231
230
230
230
230
230
230
230
230
230
230
230
230
230
230
230
230
230
230
230
230
230
230
230
230
230
230
230
230
230
230
230
230
230
230
230
230
230
231
231
231
231
231
231
231
231
231
231
231
231
231
231
231
231
230
229
201
149
107
111
114
97
94
97
99
99
98
97
96
96
97
98
102
102
101
100
101
101
101
101
104
104
105
105
107
107
108
108
108
104
103
99
94
92
94
93
93
92
94
94
94
94
96
101
103
100
99
96
94
92
95
96
96
96
94
94
93
93
92
92
91
91
89
88
87
86
86
84
86
98
109
107
101
107
110
102
93
91
90
86
85
89
95
95
91
87
86
86
87
87
89
89
86
86
87
87
87
86
89
86
86
89
89
85
85
89
83
93
96
80
79
99
102
86
104
153
165
134
135
116
133
136
143
132
104
78
97
117
127
114
137
84
102
95
104
78
86
84
85
78
77
83
83
50
39
57
53
65
76
78
61
70
92
114
131
126
135
154
168
189
202
166
130
116
105
95
90
81
74
73
73
72
73
71
72
74
76
78
79
82
89
91
91
92
97
99
104
105
105
105
108
111
116
121
122
120
121
120
115
108
108
114
110
100
91
87
96
91
91
96
114
123
115
100
81
94
95
85
98
104
110
112
99
84
65
55
104
208
170
108
87
81
91
71
80
100
140
192
224
217
212
211
216
218
218
218
218
217
218
217
218
217
218
218
217
217
217
217
217
217
217
217
217
217
218
217
216
216
217
217
217
217
217
217
217
217
218
218
218
218
219
219
219
219
220
220
220
220
221
221
221
221
222
222
222
222
222
222
223
223
223
223
223
223
223
223
223
223
223
223
223
223
223
223
221
221
221
221
221
221
221
220
220
219
219
219
219
219
220
220
219
219
219
219
219
219
219
219
219
219
219
219
219
219
218
218
218
218
217
217
217
217
217
217
216
216
216
215
215
215
214
214
214
214
213
213
213
213
213
213
213
213
214
214
215
215
215
215
216
216
216
216
217
217
218
218
218
218
219
219
219
219
219
219
219
219
219
219
219
219
219
218
218
217
217
217
216
216
216
216
214
214
214
214
215
215
215
215
214
216
216
216
216
216
214
214
214
214
213
212
213
213
213
213
213
213
210
210
209
208
209
208
209
209
210
209
209
206
204
203
203
203
203
203
205
205
206
206
207
207
207
207
207
207
209
209
208
208
208
208
208
208
208
208
208
208
208
208
208
208
208
208
207
207
207
207
207
207
206
206
206
206
205
205
204
204
204
202
201
200
200
200
233
233
233
233
233
233
233
233
233
233
233
233
233
233
233
233
233
233
233
233
233
233
233
233
233
233
233
233
233
233
233
233
233
233
233
233
233
233
233
233
232
232
233
233
232
232
232
232
232
232
232
232
232
232
232
232
232
232
232
232
231
231
231
231
231
231
230
230
230
230
230
230
230
230
231
231
231
231
231
231
231
231
231
231
231
231
231
231
231
231
232
232
231
231
232
232
232
232
232
232
232
232
232
232
232
232
232
232
232
232
232
232
232
232
232
232
232
232
231
231
231
231
236
219
175
114
99
108
110
99
96
98
99
99
97
97
96
96
98
99
102
102
101
100
101
101
101
101
104
104
105
107
108
108
109
109
108
103
99
97
93
92
93
93
93
93
94
94
96
98
100
103
101
96
96
94
93
93
94
94
94
95
95
95
92
92
92
92
91
91
89
88
86
83
83
91
100
102
107
111
110
108
103
91
89
93
91
90
90
88
91
89
86
84
83
83
84
84
85
85
86
86
86
86
87
86
89
90
90
86
85
89
87
87
88
86
89
87
78
90
99
102
98
134
147
127
133
117
143
151
166
151
116
85
87
104
123
134
127
84
114
117
111
84
93
90
78
85
83
75
66
39
36
59
88
109
112
95
69
79
83
81
132
122
126
139
133
166
162
149
146
125
110
101
95
90
82
75
71
71
73
72
74
77
81
83
84
86
92
95
93
93
92
94
95
96
97
98
102
104
108
110
109
106
100
98
101
108
119
136
130
116
98
91
95
78
78
95
93
118
133
134
107
108
93
73
98
105
112
117
110
95
81
72
98
166
116
71
72
75
95
77
83
90
126
173
230
232
221
210
218
218
218
218
218
217
217
218
215
217
218
218
217
217
217
217
217
217
217
217
217
217
218
217
216
216
217
217
217
217
217
217
217
217
217
217
217
217
218
218
219
219
220
220
220
220
221
221
221
221
222
222
222
222
222
222
223
223
223
223
223
223
223
223
223
223
223
223
223
223
223
223
221
221
221
221
221
221
221
220
220
219
219
219
219
219
219
219
219
219
219
219
219
219
219
219
218
218
218
218
218
218
218
218
217
217
217
217
217
217
217
217
216
216
216
215
215
215
214
214
214
214
213
213
213
213
213
213
213
213
214
214
215
215
215
215
216
216
216
216
217
217
218
218
218
218
219
219
219
219
219
219
219
219
219
219
219
219
219
218
218
217
217
217
217
217
217
217
215
215
215
215
215
215
215
215
216
216
216
216
216
216
214
214
216
216
215
215
215
215
215
216
216
216
216
215
215
215
214
213
214
214
214
214
211
211
208
206
208
208
208
208
208
208
209
209
210
210
211
211
211
211
211
211
211
211
211
211
210
210
210
210
212
212
212
212
212
212
212
212
211
211
211
211
210
210
209
209
209
209
208
208
207
207
207
206
205
204
204
204
233
233
233
233
233
233
233
233
233
233
233
233
233
233
233
233
233
233
233
233
233
233
233
233
233
233
233
233
233
233
233
233
233
233
233
233
233
233
233
233
232
232
233
233
232
232
232
232
232
232
232
232
232
232
232
232
232
232
232
232
232
232
232
232
232
232
232
232
232
232
231
231
231
231
232
232
232
232
232
232
232
232
232
232
232
232
232
232
232
232
232
232
232
232
232
232
232
232
232
232
232
232
232
232
232
232
232
232
232
232
232
232
232
232
232
232
232
232
231
231
231
231
238
192
141
106
107
103
100
103
100
98
98
98
97
97
96
96
98
99
102
102
102
101
102
102
102
102
105
105
106
107
108
108
109
108
104
100
96
94
92
91
92
93
93
93
94
96
98
100
101
101
96
93
93
93
93
93
92
92
94
94
93
94
93
92
92
92
91
91
90
89
85
79
82
102
111
100
96
108
118
114
100
88
88
91
91
91
91
90
90
88
85
83
84
85
85
85
85
85
85
85
86
86
87
85
86
92
90
83
82
90
87
82
93
83
85
88
79
83
98
111
108
105
105
108
136
115
132
134
152
141
115
88
85
102
119
132
114
98
109
138
97
114
93
89
74
89
88
74
68
43
47
73
66
94
91
61
86
104
108
95
122
132
131
118
110
158
144
137
156
130
117
105
100
95
90
81
75
76
76
77
78
83
85
87
89
90
95
98
99
96
94
93
94
95
94
94
100
101
101
104
103
97
89
84
107
144
167
169
155
138
116
105
94
70
69
96
106
102
111
129
119
107
103
112
93
91
98
101
98
93
90
91
98
115
66
65
73
56
77
81
93
89
112
154
196
209
204
191
218
218
218
218
218
218
218
218
212
214
214
216
215
216
217
217
217
217
217
217
217
218
218
217
216
216
216
216
216
216
216
216
216
216
216
216
216
217
217
218
217
217
219
219
219
219
220
220
220
220
221
221
221
221
221
221
221
221
220
220
220
220
220
220
220
220
220
220
220
220
220
220
220
220
220
220
220
220
220
220
220
219
219
219
219
219
219
219
219
219
219
219
219
219
219
219
218
218
218
218
218
218
218
218
217
217
217
217
217
216
217
217
216
216
216
215
215
215
214
214
214
214
213
213
213
213
213
213
213
213
214
214
215
215
215
215
216
216
216
216
217
217
218
218
218
218
219
219
219
219
219
219
219
219
219
219
219
219
219
218
218
217
217
217
217
217
217
217
216
215
215
216
216
216
216
216
216
216
216
216
216
216
214
214
216
216
216
216
217
217
217
217
217
217
217
217
216
216
216
216
215
215
215
215
214
214
211
210
210
210
210
210
211
211
212
212
212
212
213
213
213
213
213
213
213
213
213
213
213
213
213
213
214
214
214
214
215
214
214
214
213
213
213
213
213
213
212
212
211
211
210
210
209
209
209
208
207
206
206
206
233
233
233
233
233
233
233
233
233
233
233
233
233
233
233
233
233
233
233
233
233
233
233
233
233
233
234
234
234
234
234
234
234
234
234
234
234
234
234
234
234
234
233
233
233
233
233
233
233
233
233
233
233
233
233
233
233
233
233
233
233
233
233
233
233
233
233
233
233
233
233
233
233
233
232
232
232
232
232
231
231
232
232
232
232
232
232
232
232
232
232
232
232
232
232
232
232
232
232
232
232
232
232
232
232
232
232
232
232
232
232
232
232
232
232
232
232
232
232
232
232
232
230
169
117
100
113
97
93
104
103
98
98
98
98
98
98
98
98
99
100
100
100
100
101
101
101
101
104
105
107
107
108
108
109
107
104
99
95
95
94
94
94
94
95
95
94
96
98
99
100
99
96
93
95
95
95
93
93
92
93
93
93
94
93
92
93
93
93
92
92
90
85
81
87
110
115
103
100
109
112
104
93
89
91
92
92
93
96
96
91
88
84
83
84
85
86
86
85
85
86
86
86
88
88
86
86
92
89
83
83
89
86
80
79
81
84
88
83
82
85
98
111
87
99
102
126
130
123
121
156
139
101
71
72
83
96
107
98
123
144
147
66
81
73
88
74
78
100
79
70
67
40
51
43
62
67
54
54
105
134
138
138
137
179
142
143
132
132
149
147
143
124
111
95
89
84
78
78
78
79
78
79
83
86
90
90
92
94
96
98
96
95
93
91
89
91
92
100
98
96
91
98
84
82
97
127
155
176
175
160
139
119
113
92
58
51
76
128
122
126
121
104
91
86
94
88
82
76
67
69
84
91
84
91
73
66
78
87
64
64
88
109
109
109
109
124
124
124
124
132
178
210
228
212
226
224
210
209
209
210
212
214
216
217
217
217
217
217
217
218
218
216
216
216
216
216
216
215
215
216
215
216
216
216
216
216
216
217
217
217
218
218
219
219
219
220
220
220
220
221
221
221
221
220
220
220
220
219
219
219
219
219
219
219
219
219
219
219
219
219
219
220
220
220
220
220
220
220
219
219
219
219
219
219
219
219
219
217
217
217
217
218
218
218
218
217
217
217
217
217
217
217
217
215
216
216
216
216
215
215
215
214
214
214
214
214
214
213
213
213
213
212
212
212
212
212
212
212
212
212
212
213
213
213
213
214
214
214
214
215
215
216
216
216
216
218
218
219
219
219
219
219
219
219
219
220
220
220
218
218
217
217
217
217
217
217
217
217
217
217
217
217
217
217
217
217
217
217
217
216
216
217
217
217
217
217
217
218
218
218
218
219
219
219
218
217
217
217
217
215
215
215
215
215
214
214
213
211
211
211
211
212
212
212
212
213
213
213
213
213
213
213
213
213
213
213
213
213
213
214
214
214
214
216
216
216
215
215
214
214
213
213
213
213
213
213
213
212
212
212
212
211
211
211
210
208
207
207
207
233
233
233
233
233
233
233
233
233
233
233
233
233
233
233
233
233
233
233
233
233
233
233
233
233
233
234
234
234
234
234
234
234
234
234
234
234
234
234
234
234
234
233
233
233
233
233
233
233
233
233
233
233
233
233
233
233
233
233
233
233
233
233
233
233
233
233
233
233
233
233
233
233
233
231
231
231
231
231
231
231
231
232
232
232
232
232
232
232
232
232
232
232
232
232
232
232
232
232
232
232
232
232
232
232
232
232
232
232
232
232
232
232
232
232
232
232
232
232
232
232
232
203
148
110
100
111
95
92
101
101
98
98
98
98
98
98
98
98
99
99
99
100
100
101
101
101
101
104
104
105
105
106
107
107
104
101
96
95
96
96
95
94
94
95
95
94
96
99
101
100
100
97
94
95
95
96
95
95
92
92
93
93
94
93
92
93
93
92
91
92
90
88
89
98
105
104
111
116
115
100
86
84
90
95
95
96
97
102
100
93
88
84
82
83
84
85
85
85
85
86
86
86
88
89
89
88
89
85
84
85
85
83
82
83
85
88
89
87
85
82
85
90
105
121
92
112
122
129
127
135
121
89
61
77
85
94
101
112
105
137
107
99
84
93
78
75
86
109
82
97
100
54
33
57
61
58
48
67
101
119
127
134
120
159
158
175
128
88
136
148
148
136
120
107
102
97
87
81
79
79
79
78
80
85
88
89
90
92
92
93
93
94
92
91
89
91
93
97
98
98
98
115
108
107
112
102
97
107
125
125
118
112
112
96
71
64
82
102
113
126
126
103
106
95
76
83
87
91
87
85
94
87
71
76
88
87
74
76
76
76
76
106
106
106
105
76
76
76
76
73
142
194
218
217
217
208
199
206
209
210
212
214
215
217
217
217
217
217
217
218
218
216
216
216
216
214
214
214
214
214
214
215
215
215
215
214
214
216
216
217
217
218
218
217
217
219
219
219
219
220
220
220
220
219
219
219
219
218
218
218
218
218
218
218
218
218
218
218
218
218
218
219
219
219
219
219
219
219
219
219
219
219
219
219
219
219
219
217
217
217
217
218
218
218
218
217
217
217
217
217
217
217
217
216
216
216
216
215
215
215
215
214
214
214
214
214
214
213
213
213
213
212
212
212
212
212
212
212
212
212
212
213
213
213
213
214
214
214
214
215
215
216
216
216
216
218
218
219
219
219
219
219
219
219
219
220
220
220
218
218
217
217
217
217
217
217
217
217
217
217
217
217
217
217
217
217
217
217
217
216
216
217
217
217
217
218
218
219
219
219
219
220
220
220
219
218
217
217
217
215
215
215
215
216
215
215
215
214
214
214
214
214
214
214
214
215
215
215
215
215
215
215
215
215
215
215
215
216
216
217
217
217
217
218
218
217
217
217
216
216
215
215
215
215
215
215
215
214
214
214
214
213
213
213
212
211
210
210
210
233
233
233
233
233
233
233
233
233
233
233
233
233
233
233
233
233
233
233
233
233
233
233
233
233
233
234
234
234
234
234
234
234
234
234
234
234
234
234
234
234
234
234
234
234
234
234
234
234
234
234
234
234
234
234
234
234
234
234
234
234
234
234
234
234
234
234
234
234
234
234
234
234
234
233
233
233
233
233
233
233
233
233
233
233
233
233
233
233
233
233
233
233
233
233
233
233
233
233
233
233
233
233
233
233
233
233
233
233
233
233
233
233
233
233
235
233
234
232
232
232
232
169
129
108
103
102
96
94
98
99
99
99
100
98
98
98
98
100
100
101
101
100
100
102
102
101
101
103
104
104
102
102
104
106
103
97
94
95
96
97
97
96
95
96
96
95
97
99
102
102
102
96
95
96
96
97
96
94
92
93
94
95
95
93
93
93
93
92
90
87
87
90
97
101
94
101
116
116
100
88
85
86
89
95
95
92
93
97
98
93
88
84
82
84
85
86
86
87
87
88
88
88
88
88
89
90
88
83
89
88
84
81
85
88
89
89
89
88
88
85
82
80
109
132
94
104
112
127
140
121
113
85
63
86
88
91
93
102
89
115
81
99
84
93
78
75
101
123
84
114
139
84
31
37
33
37
47
86
94
97
109
77
73
102
117
170
174
113
156
134
138
134
115
109
102
98
89
80
79
79
80
78
78
82
85
86
86
88
87
89
89
91
91
90
90
91
94
95
98
104
109
118
122
118
107
83
73
79
96
91
91
93
93
102
90
83
89
101
112
112
92
89
109
121
118
96
103
102
95
92
101
93
77
86
96
93
78
76
76
76
77
100
100
99
98
87
86
86
86
68
106
161
192
203
195
192
201
210
213
214
214
215
216
217
217
218
218
217
217
217
218
217
217
216
216
214
214
214
214
214
214
215
215
214
215
215
215
216
216
217
217
218
218
217
217
219
219
219
219
220
220
220
220
219
219
219
219
217
217
217
217
217
217
218
218
218
218
218
218
218
218
219
219
219
219
219
219
219
219
219
219
219
219
219
219
219
219
218
218
218
218
218
218
218
218
217
217
217
217
217
217
217
217
216
216
216
216
215
215
215
215
214
214
214
214
214
214
213
213
213
213
212
212
212
212
212
212
212
212
212
212
213
213
213
213
214
214
214
214
215
215
216
216
217
217
218
218
219
219
219
219
219
219
219
219
220
220
220
218
218
217
217
217
217
217
217
217
217
217
217
217
217
217
217
217
217
217
217
217
217
217
218
218
218
218
219
219
220
220
220
220
222
222
223
222
220
219
218
218
219
219
217
217
217
217
217
217
218
218
218
218
218
218
218
218
218
218
218
218
218
218
218
218
217
217
217
217
218
218
219
219
219
219
220
220
220
220
220
220
220
219
219
219
219
219
217
217
219
219
218
218
216
216
216
215
214
213
213
213
233
233
233
233
233
233
233
233
233
233
233
233
233
233
233
233
233
233
233
233
233
233
233
233
233
233
234
234
234
234
234
234
234
234
234
234
234
234
234
234
234
234
234
234
234
234
234
234
234
234
234
234
234
234
234
234
234
234
234
234
234
234
234
234
234
234
234
234
234
234
234
234
234
234
233
233
233
233
233
233
233
233
233
233
233
233
233
233
233
233
233
233
233
233
233
233
233
233
233
233
233
233
233
233
233
233
233
233
233
233
233
233
233
233
233
237
231
234
232
230
235
232
139
120
109
100
97
98
98
97
98
99
99
100
99
100
100
100
100
100
101
101
100
100
102
102
101
101
103
103
102
102
101
101
103
101
92
90
91
95
97
97
96
95
96
96
95
97
101
101
103
99
95
93
96
96
96
94
94
93
93
93
95
95
94
93
93
93
92
87
84
85
91
98
101
95
98
109
104
82
78
92
93
96
99
95
86
85
89
90
90
84
82
82
85
85
86
86
87
87
88
88
88
88
88
89
90
86
85
89
88
83
82
86
89
89
89
89
89
88
87
86
88
95
120
105
104
108
122
140
123
117
95
77
91
88
88
87
73
87
92
84
66
82
73
87
75
110
132
84
109
159
112
46
44
43
66
98
98
90
82
96
103
100
90
94
137
198
129
120
115
117
117
105
102
97
92
84
77
77
77
76
75
76
77
80
81
86
85
85
85
86
89
90
91
91
93
97
94
98
109
116
106
117
111
92
90
105
108
100
100
100
100
103
105
103
96
93
82
98
104
101
89
81
85
99
123
117
102
87
76
91
98
91
104
88
82
90
88
65
64
89
95
97
95
95
95
94
94
94
109
98
111
146
178
173
188
211
216
215
216
218
216
214
214
217
218
216
216
216
217
217
217
217
216
216
214
214
214
214
214
214
215
215
214
214
215
215
216
216
217
217
217
217
216
216
217
217
217
217
219
219
219
219
219
219
217
216
216
216
216
216
216
216
217
217
217
217
217
217
218
218
217
217
219
219
219
219
219
219
219
219
219
219
219
219
219
219
218
218
218
218
218
218
218
218
217
217
217
217
217
217
217
217
216
216
216
216
215
215
215
215
214
214
214
214
214
214
213
213
213
213
212
212
212
212
212
212
212
212
212
212
213
213
213
213
214
214
214
214
215
215
216
216
217
217
218
218
219
219
219
219
219
219
219
219
220
220
220
218
218
217
217
217
217
217
217
217
217
217
217
217
217
217
217
217
217
217
217
217
217
217
218
218
218
218
219
219
220
220
220
220
222
222
223
222
220
219
217
217
219
219
219
219
219
219
219
217
218
218
218
218
218
218
218
218
218
218
218
219
219
219
219
219
219
219
219
219
219
219
219
219
220
220
220
220
220
220
220
220
220
219
219
219
219
219
217
217
219
219
218
218
216
216
216
215
214
214
214
214
233
233
233
233
233
233
233
233
233
233
233
233
233
233
233
233
233
233
233
233
233
233
233
233
233
233
234
234
234
234
234
234
234
234
234
234
234
234
234
234
234
234
234
234
234
234
234
234
234
234
234
234
234
234
234
234
234
234
234
234
234
234
234
234
234
234
234
234
234
234
234
234
234
234
234
234
234
234
234
234
234
234
234
234
234
234
234
234
234
234
234
234
234
234
234
234
234
234
234
234
234
234
234
234
234
234
234
234
234
234
234
234
234
232
233
238
230
235
230
228
234
176
118
109
102
96
96
98
98
98
99
99
101
101
102
102
103
103
102
102
102
102
102
102
102
102
102
102
102
104
104
102
100
102
102
97
91
87
90
95
98
98
97
96
96
96
96
98
100
103
103
99
94
91
94
97
94
93
93
92
95
95
95
95
94
93
92
92
92
87
83
85
92
96
96
95
97
102
97
84
81
90
97
102
104
94
86
84
85
88
88
82
81
85
87
87
87
87
88
88
88
88
88
88
88
89
89
86
84
89
89
83
82
84
88
89
89
89
88
88
87
86
85
81
86
93
97
98
98
97
114
98
80
65
86
83
74
66
80
84
77
69
66
69
75
80
88
103
144
126
98
122
131
120
110
94
94
110
94
93
94
96
122
117
103
89
86
121
149
109
98
102
108
112
124
106
84
76
74
74
74
72
74
77
78
76
81
84
85
84
85
86
90
92
95
102
110
116
98
97
91
87
79
105
105
80
69
79
93
104
93
89
89
93
120
100
92
101
99
88
102
92
92
89
82
79
81
102
116
115
68
72
79
83
85
87
86
87
86
82
76
72
89
98
84
95
98
87
101
90
96
84
99
144
125
161
198
205
211
217
221
217
216
214
211
213
214
215
217
217
216
216
216
216
215
215
215
215
215
215
215
215
216
216
215
215
216
216
216
216
216
216
217
217
217
217
218
218
217
217
219
219
219
218
218
216
216
216
216
215
215
215
216
216
216
216
215
215
216
216
217
217
217
217
218
218
217
217
218
218
218
218
218
218
218
218
218
218
217
217
217
217
216
216
217
217
216
216
215
215
216
216
216
216
214
214
214
214
214
214
214
214
213
213
213
213
213
213
212
212
212
212
210
210
212
212
212
212
212
212
212
212
213
213
213
213
214
214
214
214
215
215
215
215
216
216
217
217
218
218
218
218
219
219
219
219
220
220
220
218
218
217
217
217
217
217
217
217
217
217
217
217
217
217
217
217
217
217
217
217
217
217
217
217
218
218
218
218
219
219
220
220
222
223
223
222
222
220
221
222
220
220
220
220
220
220
220
219
219
219
219
219
218
219
219
220
219
219
219
220
221
221
221
221
220
220
220
220
220
220
220
220
221
221
221
221
222
222
222
220
221
220
220
220
220
220
220
220
219
219
219
219
218
218
218
217
216
216
216
216
233
233
233
233
233
233
233
233
233
233
233
233
233
233
233
233
233
233
233
233
233
233
233
233
233
233
234
234
234
234
234
234
234
234
234
234
234
234
234
234
234
234
234
234
234
234
234
234
234
234
234
234
234
234
234
234
234
234
234
234
234
234
234
234
234
234
234
234
234
234
234
234
234
234
234
234
234
234
234
234
234
234
234
234
234
234
234
234
234
234
234
234
234
234
234
234
234
234
234
234
234
234
234
234
234
234
234
234
234
234
234
234
234
232
233
239
228
235
232
229
222
161
110
101
97
97
97
97
98
98
99
99
101
100
100
100
102
102
102
102
102
102
102
102
102
102
102
102
104
102
102
101
98
98
99
93
91
90
91
95
97
97
96
96
96
96
97
98
100
101
101
97
94
93
96
97
92
91
92
93
96
95
95
94
93
93
92
92
92
87
85
89
95
96
94
95
101
102
96
90
88
87
93
100
100
93
88
86
86
89
90
89
89
91
90
89
89
89
90
90
90
90
90
90
90
89
86
81
80
84
85
83
83
85
88
89
89
89
88
88
87
86
81
74
70
76
79
79
79
79
95
84
74
68
81
76
71
66
83
76
70
70
70
74
80
85
105
111
126
118
92
101
107
103
100
94
94
98
100
98
100
98
122
124
126
124
119
138
152
114
86
87
87
90
94
94
87
82
77
75
75
76
80
90
90
82
79
81
83
84
85
87
91
93
97
100
103
103
98
93
87
82
73
90
91
72
56
64
73
80
101
110
109
108
107
102
99
102
99
88
103
93
79
82
89
92
82
99
110
105
68
71
78
83
86
87
87
88
89
86
81
76
88
98
84
95
98
87
101
90
93
86
96
129
203
227
231
211
205
222
227
215
215
224
216
205
208
214
216
216
215
215
216
216
215
215
215
215
215
215
215
215
216
216
215
215
216
216
216
216
216
216
216
216
216
216
217
217
216
216
217
217
217
217
216
216
216
215
214
214
214
214
214
214
214
214
214
214
214
214
216
216
217
217
218
218
217
217
218
218
218
218
218
218
218
218
218
218
217
217
217
217
216
216
217
217
216
216
215
215
216
216
216
216
214
214
214
214
214
214
214
214
213
213
213
213
213
213
212
212
212
212
210
210
212
212
212
212
212
212
212
212
213
213
213
213
214
214
214
214
215
215
215
215
216
216
217
217
218
218
218
218
219
219
219
219
220
220
220
218
218
217
217
217
217
217
217
217
217
217
217
217
217
217
217
217
217
217
217
217
217
217
217
217
218
218
218
218
219
219
220
220
222
223
223
222
221
220
221
221
220
220
222
222
221
221
222
220
220
219
219
219
218
219
219
220
219
220
220
222
222
222
222
222
221
221
221
221
221
221
221
221
221
221
221
221
222
222
222
220
221
221
221
221
221
221
221
221
219
219
219
219
218
218
218
218
217
217
217
217
233
233
233
233
233
233
233
233
233
233
233
233
233
233
233
233
233
233
233
233
233
233
233
233
233
233
234
234
234
234
234
234
234
234
234
234
234
234
234
234
234
234
234
234
234
234
234
234
234
234
234
234
234
234
234
234
234
234
235
235
235
235
235
235
235
235
235
235
235
235
235
235
235
235
234
234
234
234
234
234
234
234
234
234
234
234
234
234
234
234
234
234
234
234
234
234
234
234
234
234
234
234
234
234
234
234
234
234
234
234
234
234
234
232
233
240
229
236
232
230
200
140
106
101
101
100
100
98
98
98
99
99
100
98
98
98
98
100
101
102
102
103
102
102
103
101
104
102
102
102
100
98
94
92
91
89
91
96
100
99
97
96
96
95
97
97
98
99
99
99
99
96
96
95
97
96
94
90
89
95
98
97
96
93
92
92
90
92
92
89
87
91
99
101
107
107
101
93
88
88
90
92
92
87
87
90
88
86
86
86
89
92
92
89
88
88
88
88
87
87
87
87
87
87
87
86
84
80
79
81
82
84
86
91
90
89
89
89
88
88
87
87
73
69
62
59
58
58
58
60
63
64
66
68
69
69
70
73
74
69
71
73
77
80
87
91
108
113
110
128
102
92
89
90
89
94
94
88
91
102
106
104
132
130
131
133
126
132
148
121
100
94
86
82
85
89
88
86
84
81
79
78
82
90
90
79
73
75
80
82
86
88
92
96
98
97
94
93
90
87
81
76
75
79
79
72
67
68
69
72
88
119
122
105
97
105
108
105
99
89
103
92
78
82
89
93
84
97
100
90
68
72
79
82
86
88
87
90
94
93
87
83
87
98
84
94
98
87
101
91
90
90
93
108
193
210
205
195
194
186
191
215
224
213
211
219
218
214
215
216
216
216
217
217
216
216
216
216
216
216
216
216
216
216
216
216
216
216
216
216
216
216
216
216
216
216
217
217
217
217
218
218
217
217
216
216
216
216
214
215
214
214
215
215
215
215
215
215
215
215
216
216
217
217
218
218
217
217
218
218
218
218
218
218
218
218
218
218
217
217
217
217
216
216
217
217
216
216
215
215
216
216
216
216
214
214
214
214
214
214
214
214
213
213
213
213
213
213
212
212
212
212
211
211
212
212
212
212
212
212
212
212
213
213
213
213
214
214
214
214
215
215
215
215
216
216
217
217
218
218
218
218
219
219
219
219
220
220
220
218
218
217
217
217
217
217
217
217
217
217
217
217
217
217
217
217
217
217
217
217
217
217
217
217
218
218
218
218
219
219
220
220
222
223
224
223
223
221
221
221
223
223
223
223
223
223
223
222
222
220
220
220
219
219
220
220
222
222
223
223
223
223
223
223
223
223
223
223
222
222
222
222
221
221
221
221
222
222
222
222
223
223
223
223
223
223
221
221
221
221
221
221
220
220
220
220
219
219
219
219
233
233
233
233
233
233
233
233
233
233
233
233
233
233
233
233
233
233
233
233
233
233
233
233
233
233
234
234
234
234
234
234
234
234
234
234
234
234
234
234
234
234
234
234
234
234
234
234
234
234
234
234
234
234
234
234
234
234
234
234
234
234
234
234
234
234
234
234
235
235
234
234
234
234
234
234
234
234
234
234
234
234
234
234
234
234
234
234
234
234
234
234
234
234
234
234
234
234
234
234
234
234
234
234
234
234
234
234
234
234
234
234
234
232
233
238
230
235
232
233
181
122
103
103
103
101
100
98
97
97
97
97
97
97
96
97
97
98
100
101
102
103
102
102
104
104
104
102
101
98
97
93
91
87
87
87
93
100
102
100
95
94
96
98
97
97
97
97
97
97
99
98
96
96
97
97
94
89
88
94
98
98
97
94
93
93
86
87
89
86
85
90
94
104
115
110
91
84
82
86
91
94
88
80
81
91
92
86
85
83
81
86
86
77
76
81
83
81
83
83
83
82
82
82
82
83
84
81
80
82
81
83
86
92
90
88
88
88
88
88
88
87
71
64
58
53
48
47
48
45
41
44
52
57
59
64
72
74
71
69
73
76
82
84
91
95
94
107
105
152
121
98
89
99
78
94
94
81
80
100
108
110
144
131
116
109
101
107
135
125
130
121
107
97
88
86
87
85
83
79
77
73
72
78
77
68
66
70
76
80
82
82
89
94
98
93
87
84
86
83
79
76
76
72
72
74
81
83
80
79
69
104
116
93
87
107
115
106
99
89
103
92
92
89
82
78
85
94
93
81
67
71
75
83
87
89
87
87
102
97
91
87
87
98
84
94
98
88
104
93
86
92
91
94
142
166
185
184
177
179
176
179
181
197
209
212
213
214
216
215
214
214
214
214
214
214
214
214
214
214
214
214
214
214
215
215
214
214
214
214
215
215
215
215
215
215
216
216
216
216
217
217
216
216
215
215
215
215
214
213
213
213
213
214
214
214
214
214
214
215
215
216
216
216
216
216
216
216
216
217
218
218
218
218
218
218
218
218
217
217
217
216
216
216
216
216
216
214
214
214
214
214
214
214
214
214
213
213
213
213
213
213
212
212
212
212
212
212
212
212
211
211
211
211
212
212
212
212
212
212
212
212
213
213
213
213
214
214
214
214
215
215
215
215
216
216
217
217
218
218
218
218
219
219
219
219
220
220
220
218
218
217
217
217
217
217
217
217
217
217
217
217
217
217
217
217
217
217
217
217
217
217
217
217
218
218
218
218
219
219
220
220
222
223
224
223
223
221
221
222
223
223
223
223
223
223
223
222
222
220
220
220
219
219
220
220
222
222
222
222
222
222
222
222
221
221
221
221
221
221
221
221
221
221
221
221
222
222
222
222
223
223
223
223
223
223
221
221
221
221
221
221
220
220
220
220
219
219
219
219
233
233
233
233
233
233
233
233
233
233
233
233
233
233
233
233
233
233
233
233
233
233
233
233
233
233
233
233
233
233
233
233
233
233
233
233
233
233
233
233
233
233
234
234
234
234
234
234
234
234
234
234
234
234
234
234
234
234
234
234
234
234
234
234
234
234
234
234
234
234
234
234
234
234
233
233
233
233
233
233
233
233
233
233
233
233
233
233
233
233
233
233
233
233
233
233
233
233
233
233
233
233
233
233
233
233
233
233
233
233
233
233
233
233
233
236
230
234
231
228
159
106
102
102
102
99
98
97
97
97
96
96
97
96
96
97
100
101
101
102
103
101
100
103
107
108
104
102
101
97
95
92
90
87
86
88
95
100
100
98
93
93
99
101
98
97
96
97
98
100
98
97
94
94
96
96
95
90
89
94
98
98
97
95
94
88
83
81
84
84
86
88
90
104
110
98
84
83
84
87
91
92
88
79
83
95
97
88
84
83
81
86
86
76
72
80
83
83
85
86
84
82
82
82
82
83
84
81
80
83
82
83
85
86
88
88
88
88
88
88
86
78
76
66
62
56
54
50
50
49
45
41
38
36
49
52
59
65
67
71
74
78
73
85
96
108
97
104
117
132
158
94
104
122
108
101
92
82
91
101
112
106
124
100
86
90
85
93
108
118
109
109
109
108
105
100
92
89
82
77
77
73
72
77
74
65
65
69
75
76
76
77
82
85
86
88
87
86
83
82
81
81
81
77
70
72
80
81
81
81
77
89
88
77
113
119
112
95
119
119
114
105
101
105
119
95
101
78
83
108
82
69
73
86
87
91
100
105
106
102
94
88
102
112
97
108
102
91
106
97
78
77
91
112
109
145
160
164
176
187
187
166
172
200
214
209
211
214
215
215
214
213
213
213
213
213
213
213
212
212
213
213
213
213
214
214
213
213
213
213
213
213
213
213
213
213
214
214
214
214
215
215
215
215
214
214
214
214
213
213
213
213
213
213
213
213
214
214
213
213
213
213
214
216
216
216
215
215
216
216
216
216
218
218
217
217
216
216
216
216
215
215
215
215
215
215
214
214
214
214
214
214
213
213
213
213
213
213
213
213
213
213
212
212
212
212
212
212
212
212
211
211
211
211
212
212
212
212
212
212
212
212
213
213
213
213
214
214
214
214
215
215
215
215
216
216
217
217
218
218
218
218
219
219
219
219
219
219
219
218
218
217
217
217
217
217
217
217
215
215
215
215
216
216
216
216
216
216
216
216
216
216
216
216
217
217
218
218
219
220
222
222
223
223
223
223
223
223
223
223
223
223
223
223
223
223
223
223
222
222
222
222
220
220
220
220
220
220
222
222
222
222
222
222
221
221
221
221
221
221
221
221
221
221
221
221
221
221
223
223
223
223
224
224
224
224
224
224
222
222
221
221
220
220
220
220
219
219
219
219
233
233
233
233
233
233
233
233
233
233
233
233
233
233
233
233
233
233
233
233
233
233
233
233
233
233
233
233
233
233
233
233
233
233
233
233
233
233
233
233
233
233
234
234
234
234
234
234
234
234
234
234
234
234
234
234
234
234
233
233
233
233
233
233
233
233
233
233
233
233
233
233
233
233
233
233
233
233
233
233
233
233
233
233
234
233
233
233
233
233
233
233
233
233
233
233
233
233
233
233
233
233
233
233
233
233
233
233
233
233
233
233
233
233
233
233
230
231
230
214
141
103
100
101
101
98
97
96
96
96
96
96
97
97
98
98
100
101
102
103
103
103
103
105
104
107
104
102
99
94
92
90
90
87
88
91
96
98
98
97
97
96
97
99
99
96
93
93
94
97
97
96
93
92
93
94
94
94
94
97
94
93
92
90
89
85
82
79
85
88
93
97
100
111
110
91
85
87
88
87
88
88
87
83
88
95
95
89
86
88
90
93
93
86
82
88
93
90
90
90
85
84
82
82
82
83
83
81
80
83
83
83
84
84
85
86
86
86
88
88
83
72
80
72
64
58
51
48
47
44
40
36
34
33
40
48
54
59
70
73
77
80
79
86
95
102
97
104
117
132
149
89
68
71
91
89
86
83
78
101
120
126
114
109
112
120
128
117
102
92
106
106
106
106
104
100
93
91
85
80
75
74
76
80
75
69
69
70
73
76
75
78
85
86
86
86
87
85
84
83
83
83
83
77
70
70
81
81
81
81
101
89
88
100
119
128
125
112
128
119
114
114
109
105
119
103
106
80
82
106
83
76
72
77
88
92
100
105
109
108
105
102
106
117
102
112
106
94
106
94
74
69
78
97
77
110
158
191
227
195
176
185
201
216
217
212
212
214
215
214
213
211
211
211
211
211
211
211
211
211
211
211
212
212
212
212
212
212
212
212
212
211
212
211
212
212
213
213
213
213
214
214
214
214
213
213
213
213
212
212
212
212
212
212
212
212
212
212
212
212
212
212
213
213
214
214
214
214
215
215
216
216
218
218
217
216
216
216
216
216
215
215
215
215
215
214
214
213
213
213
213
213
213
213
212
212
212
212
212
212
212
212
211
211
210
210
211
211
211
211
211
211
211
211
212
212
212
212
212
212
212
212
213
213
213
213
214
214
214
214
215
215
215
215
216
216
217
217
218
218
218
218
219
219
219
219
219
219
219
218
218
217
217
217
217
217
217
217
215
215
215
215
216
216
216
216
216
216
216
216
216
216
216
216
217
217
218
218
219
220
222
222
222
222
222
222
222
222
222
222
223
223
223
223
223
223
223
222
222
220
220
220
220
220
220
220
220
220
220
220
220
220
220
220
220
220
220
220
220
220
220
220
221
221
221
221
221
221
223
223
223
223
224
224
224
224
224
224
222
222
221
221
220
220
220
220
219
219
219
219
232
232
232
232
232
232
232
232
232
232
232
232
232
232
232
232
232
232
232
232
232
232
232
232
232
232
232
232
232
232
232
232
232
232
232
232
232
232
232
232
232
232
233
233
233
233
233
233
233
233
233
233
233
233
233
233
233
233
233
233
233
233
233
233
233
233
232
232
232
232
232
232
232
232
232
232
232
232
231
231
232
232
232
232
232
232
232
232
232
232
232
232
232
232
232
232
232
232
232
232
232
232
232
232
232
232
232
232
232
232
232
232
232
232
232
232
231
231
231
193
120
104
100
101
101
98
98
97
97
97
96
96
97
97
98
100
101
102
102
103
104
104
106
106
104
103
101
99
95
92
91
90
90
88
89
92
97
95
95
96
96
98
97
99
97
95
92
94
93
93
93
93
91
91
91
90
90
94
97
96
90
87
87
84
83
83
82
85
90
92
97
102
104
112
106
94
85
87
89
90
90
86
85
86
92
89
88
91
93
92
96
93
93
96
91
87
91
91
91
91
87
84
82
82
82
83
84
82
82
84
84
83
84
84
85
85
86
86
88
88
78
64
79
78
67
62
48
44
40
39
35
33
31
31
42
59
63
70
73
77
80
85
88
90
92
94
97
104
117
132
147
108
61
59
70
72
76
79
81
103
123
129
108
121
131
131
138
123
101
86
99
99
99
100
103
100
93
91
89
84
75
73
76
80
75
70
70
70
73
76
80
85
94
94
89
86
86
85
84
83
83
82
83
77
70
70
81
81
81
81
101
88
88
101
112
125
128
120
141
119
114
127
122
105
119
115
111
94
86
93
85
85
76
63
90
93
100
104
115
118
121
123
112
123
108
119
116
98
103
86
96
86
90
103
77
85
140
192
182
160
160
191
206
191
189
212
218
214
215
214
213
211
211
211
212
212
212
211
210
210
210
211
210
210
210
210
212
212
212
212
211
211
211
211
211
211
212
212
212
212
213
213
213
213
213
213
213
213
212
212
211
211
210
210
210
210
211
211
210
210
212
212
212
212
213
213
213
213
215
215
215
215
217
217
216
216
215
215
215
215
214
214
214
214
214
214
214
213
213
213
213
213
213
213
212
212
212
212
212
212
212
212
211
211
210
210
211
211
211
211
211
211
211
211
212
212
212
212
212
212
212
212
213
213
213
213
214
214
214
214
215
215
215
215
216
216
217
217
218
218
218
218
219
219
219
219
219
219
219
218
218
217
217
217
217
217
217
217
215
215
215
215
216
216
216
216
216
216
216
216
216
216
216
216
217
217
218
218
219
219
220
220
222
222
222
222
222
222
222
222
222
222
222
222
221
221
221
221
220
220
221
221
219
219
219
219
219
219
219
219
219
219
219
219
219
219
219
219
219
219
219
219
220
220
221
221
221
221
221
221
223
223
223
223
223
223
223
223
222
222
222
222
221
221
221
221
220
219
219
219
232
232
232
232
232
232
232
232
232
232
232
232
232
232
232
232
232
232
232
232
232
232
232
232
232
232
232
232
232
232
232
232
232
232
232
232
232
232
232
232
232
232
233
233
233
233
233
233
233
233
233
233
233
233
233
233
233
233
233
233
233
233
233
233
233
233
232
232
232
232
232
232
232
232
232
232
232
232
231
231
232
232
232
232
232
232
232
232
232
232
232
232
232
232
232
232
232
232
232
232
232
232
232
232
232
232
232
232
232
232
232
232
232
232
232
230
230
230
229
175
110
106
101
101
101
98
98
97
97
97
97
97
98
98
100
100
101
102
102
103
103
104
107
106
102
100
98
95
93
91
91
90
90
90
91
95
97
92
92
95
97
99
97
96
94
94
93
93
90
91
93
94
92
90
90
89
89
94
97
93
87
85
83
80
78
82
83
88
92
93
94
97
105
107
94
85
85
89
90
90
90
84
85
87
95
88
85
92
96
92
92
89
89
92
88
83
86
87
91
91
87
84
80
80
80
82
83
82
82
83
85
86
86
84
88
89
89
88
88
83
74
63
72
77
71
68
53
44
36
33
33
31
32
31
54
73
80
86
78
82
88
91
92
91
90
90
97
104
117
132
154
140
89
92
53
60
69
75
100
109
117
114
111
127
128
115
105
104
102
100
96
96
96
98
102
100
93
91
87
85
78
74
74
79
74
72
70
70
74
81
88
94
101
100
85
84
86
87
84
83
82
80
80
74
67
67
77
78
81
82
77
88
89
77
95
112
120
114
149
119
114
135
130
106
120
124
114
110
94
92
86
91
77
52
90
93
100
104
119
124
132
138
114
125
110
120
120
101
101
80
91
78
77
87
110
87
105
156
149
188
213
199
197
210
219
220
217
214
215
210
210
210
210
209
211
211
212
212
210
210
211
211
210
210
210
210
212
212
212
212
211
210
211
210
211
211
212
212
212
212
213
213
213
213
213
213
213
213
212
212
211
211
210
210
210
210
211
211
210
210
210
210
212
212
213
213
213
213
215
215
215
215
217
217
216
215
215
215
215
215
214
214
214
214
214
214
214
213
213
213
213
213
213
214
212
212
212
212
212
212
212
212
211
211
210
210
211
211
211
211
211
211
211
211
212
212
212
212
212
212
212
212
213
213
213
213
214
214
214
214
215
215
215
215
216
216
217
217
218
218
218
218
219
219
219
219
219
219
219
218
218
217
217
217
217
217
217
217
215
215
215
215
216
216
216
216
216
216
216
216
216
216
216
216
217
217
218
218
219
219
220
220
220
220
220
220
220
220
220
220
222
222
222
222
221
221
221
220
220
219
219
219
219
219
219
219
219
219
219
219
219
219
219
219
219
219
219
219
219
219
219
219
220
220
221
221
221
221
221
221
223
223
223
223
223
223
223
223
223
222
222
222
221
221
221
221
220
219
219
219
231
231
232
232
232
232
232
232
231
231
232
232
231
231
231
231
231
231
231
231
231
231
231
231
231
230
232
232
232
232
232
232
232
232
232
232
232
232
232
232
232
232
233
233
233
233
233
233
233
233
233
233
233
233
233
233
233
233
232
232
232
232
232
232
232
232
232
232
232
232
232
232
231
231
232
232
231
231
230
230
230
230
231
231
231
231
231
231
231
231
232
232
232
232
232
232
232
232
232
232
232
232
232
232
232
232
232
232
232
232
232
232
232
231
231
230
231
231
220
158
106
110
101
101
101
98
98
98
98
98
98
98
100
100
100
101
103
103
103
103
103
104
103
101
100
97
97
96
93
92
91
92
91
92
93
96
96
95
93
95
97
97
97
94
92
92
94
92
92
92
93
93
93
91
91
90
90
94
97
89
83
88
86
76
76
82
83
86
91
93
93
97
105
97
86
82
87
90
90
90
90
88
85
89
92
91
90
93
94
94
91
94
94
90
88
87
86
83
89
90
89
83
81
81
82
82
83
82
82
83
83
87
88
85
86
89
88
86
84
81
76
71
72
72
72
74
67
53
41
34
34
34
34
34
69
91
86
64
85
89
93
93
90
89
88
87
88
104
110
104
120
109
97
91
85
85
85
85
109
107
99
94
91
91
91
91
94
97
104
108
100
113
100
112
121
105
99
100
90
81
76
75
72
73
73
71
71
72
78
87
94
98
98
88
80
80
85
87
83
82
79
79
75
70
66
67
72
76
80
83
91
98
72
90
94
98
79
90
130
118
121
146
150
102
101
139
113
120
95
98
106
86
88
65
88
122
97
102
129
96
72
120
112
122
108
119
107
112
90
95
79
75
97
93
81
81
79
114
166
160
175
198
207
207
210
218
218
215
212
209
208
208
209
209
211
211
211
209
209
208
208
208
208
208
210
210
210
208
209
208
210
210
210
210
210
210
212
212
212
212
213
213
213
213
212
212
212
212
212
211
211
210
210
210
210
210
210
210
210
210
211
211
212
212
213
213
213
213
214
214
215
215
216
215
215
215
214
214
214
214
214
214
214
214
214
213
213
213
214
214
213
213
212
212
212
212
211
211
211
211
211
211
212
212
212
212
212
212
212
212
212
212
212
212
211
211
212
212
212
212
212
212
213
213
213
213
213
213
213
213
214
214
214
214
215
215
215
215
217
217
217
217
218
218
218
218
218
218
218
218
217
217
217
217
216
216
216
216
217
217
217
217
217
217
217
217
216
216
215
215
216
216
217
217
217
217
218
218
217
219
219
219
220
220
220
220
220
220
220
220
220
220
220
220
220
220
220
220
219
219
219
219
218
218
218
218
218
218
218
218
218
218
218
218
218
218
218
218
218
218
219
219
220
220
220
220
220
220
221
221
221
221
222
222
222
222
222
222
222
222
222
222
222
222
222
220
219
219
219
219
231
231
232
232
232
232
232
232
231
231
232
232
231
231
231
231
231
231
231
231
231
231
231
231
231
231
232
232
232
232
232
232
232
232
232
232
232
232
232
232
232
232
233
233
233
233
233
233
233
233
233
233
233
233
233
233
233
233
232
232
232
232
232
232
232
232
232
232
232
232
232
232
231
231
232
232
231
231
230
230
230
230
231
231
231
231
231
231
231
231
232
232
232
232
232
232
232
232
232
232
232
232
232
232
232
232
232
232
232
232
232
232
232
231
231
230
230
230
205
146
104
110
101
101
101
98
97
97
98
98
99
99
101
101
101
101
103
103
103
103
103
103
100
99
99
97
97
96
94
93
91
93
91
93
93
96
96
96
96
95
97
95
96
93
92
92
93
92
92
92
95
93
93
91
91
91
91
93
93
85
83
91
89
78
75
81
83
85
90
96
99
99
93
79
78
83
91
92
91
88
84
89
88
89
87
91
93
93
93
94
95
102
102
93
88
90
87
81
86
90
89
83
82
82
83
83
83
82
82
81
78
83
83
78
79
82
82
81
81
79
80
79
79
75
69
72
75
69
54
44
43
43
43
43
41
68
79
77
91
94
96
93
91
89
88
88
100
92
99
114
127
102
89
99
108
108
108
108
105
100
94
92
92
95
95
94
95
97
105
108
103
120
115
133
125
94
101
121
97
74
74
75
70
66
72
71
70
75
86
92
92
87
80
77
74
75
79
81
79
78
77
77
73
71
70
71
76
80
82
83
85
92
112
85
111
82
90
109
186
136
105
118
131
132
118
90
112
114
98
100
101
81
84
60
71
101
94
93
136
138
114
127
109
120
106
116
106
114
97
105
89
82
100
91
80
85
84
100
142
166
178
167
192
200
207
207
208
212
216
213
208
207
207
207
208
208
208
207
207
205
206
206
206
206
207
207
207
207
207
207
209
209
209
209
210
210
212
212
212
212
213
213
213
213
212
212
212
212
212
211
211
210
210
210
210
210
210
210
210
210
210
210
212
212
213
213
213
213
214
214
215
215
216
215
215
214
214
214
214
214
214
214
214
214
214
213
213
213
214
214
213
213
212
212
212
212
211
211
211
211
211
211
212
212
212
212
212
212
212
212
212
212
212
212
211
211
212
212
212
212
212
212
213
213
213
213
213
213
213
213
214
214
214
214
215
215
215
215
217
217
217
217
218
218
218
218
218
218
218
218
217
217
217
217
216
216
216
216
217
217
217
217
217
217
217
217
216
216
215
215
216
216
217
217
217
217
218
218
217
219
219
219
219
219
219
219
219
219
219
219
220
220
220
220
220
220
220
219
219
218
218
218
218
218
218
218
218
218
218
218
218
218
218
218
218
218
218
218
218
218
219
219
220
220
220
220
220
220
221
221
221
221
222
222
223
223
223
223
222
222
222
222
222
222
222
220
219
219
219
219
228
228
230
230
230
230
230
230
230
230
230
230
228
228
228
228
228
228
228
228
228
228
228
228
230
230
230
230
230
230
230
230
230
230
230
230
230
230
230
230
231
231
231
231
232
232
232
232
232
232
232
232
232
232
232
232
232
232
232
232
232
232
232
232
232
232
231
231
231
231
231
231
231
231
229
229
229
229
230
230
230
230
230
230
230
230
230
230
230
230
231
231
230
230
230
230
230
230
230
230
230
230
229
229
229
229
231
231
230
230
230
230
230
230
230
230
230
230
188
133
97
105
101
101
99
97
98
98
99
99
99
99
101
101
101
102
104
104
104
104
103
103
100
99
99
97
97
96
94
93
93
93
91
93
93
95
95
96
96
96
96
95
94
93
92
92
93
92
92
92
93
93
93
92
93
91
91
92
89
83
85
96
93
79
76
82
83
85
90
98
105
106
86
70
74
87
92
93
89
84
89
91
86
85
86
86
89
90
93
93
91
98
98
89
87
89
87
81
84
90
90
84
86
86
86
86
85
82
82
82
78
83
83
77
76
77
78
78
79
79
80
79
80
80
80
76
78
81
75
64
56
55
55
55
40
57
76
92
94
97
97
93
90
88
88
88
100
92
99
114
122
108
97
92
108
108
108
108
99
94
89
86
88
91
91
91
94
97
105
108
111
124
112
125
119
89
95
114
93
74
75
69
65
66
74
72
72
82
90
91
83
75
72
73
73
73
71
71
73
72
74
75
72
74
74
78
85
88
87
86
83
103
127
93
120
102
91
117
125
140
134
119
112
107
111
116
116
105
108
97
111
92
94
71
67
89
107
98
113
127
104
104
110
120
106
116
104
117
106
119
104
91
103
90
86
93
93
90
120
166
192
178
182
187
192
198
201
203
208
209
208
207
206
206
206
206
205
204
202
201
201
201
201
201
202
202
204
204
205
205
207
208
208
209
209
209
211
211
211
211
212
212
212
212
212
212
212
212
212
211
210
209
209
207
209
209
209
209
209
209
210
210
211
211
211
211
212
212
214
214
214
214
215
214
214
214
213
213
213
213
213
213
213
213
213
213
213
213
214
214
213
213
212
212
212
212
211
211
211
211
212
212
212
212
213
213
213
213
213
213
212
212
212
212
211
211
212
212
212
212
212
212
213
213
213
213
213
213
213
213
214
214
214
214
215
215
215
215
217
217
217
217
218
218
218
218
218
218
218
218
217
217
217
217
216
216
216
216
217
217
217
217
217
217
217
217
216
216
215
215
216
216
217
217
217
217
218
218
217
217
217
217
219
219
219
219
219
219
219
219
219
219
219
219
219
219
219
219
217
217
217
217
216
216
216
217
217
217
217
217
217
217
217
217
217
217
217
217
217
217
218
218
219
219
220
219
219
219
219
219
220
220
220
220
220
220
220
220
222
222
220
220
220
220
220
220
219
218
218
218
226
227
228
229
229
229
229
228
228
228
227
226
226
226
226
227
227
227
227
226
226
226
226
227
228
228
227
227
228
228
228
228
228
228
228
228
228
228
228
228
230
230
230
230
231
231
231
231
231
231
231
231
231
231
231
231
231
231
231
231
229
229
229
229
229
229
228
228
228
228
228
228
228
228
228
228
227
227
227
227
227
227
227
227
227
227
227
227
228
228
227
227
228
228
228
228
228
228
228
228
228
228
228
228
229
229
226
226
228
228
228
228
228
228
227
224
230
230
174
120
96
103
101
99
98
97
98
98
99
99
101
101
101
101
102
102
104
104
107
106
104
101
99
97
97
94
94
93
93
92
91
93
91
93
93
93
95
95
94
94
95
93
92
92
92
92
92
92
92
92
96
95
93
92
90
90
90
89
86
82
87
96
94
78
76
81
84
85
89
97
103
101
88
82
83
88
90
90
89
88
91
89
88
84
83
86
88
91
93
89
86
88
87
82
83
88
87
81
83
89
87
83
83
86
86
83
83
81
81
83
86
91
91
84
81
79
79
81
81
81
78
78
79
78
78
78
81
87
91
85
73
73
73
73
64
69
79
98
97
97
94
93
88
87
87
87
88
103
110
104
106
123
111
76
85
85
85
87
91
90
84
79
77
75
75
75
94
98
105
109
120
121
92
92
106
91
84
86
80
74
70
64
63
67
73
76
78
85
88
87
80
76
75
76
73
71
66
66
71
72
71
72
70
72
76
82
89
91
91
91
99
121
105
111
108
141
80
115
91
107
121
132
119
112
104
90
117
103
114
94
130
111
113
90
76
93
127
115
120
119
96
111
110
119
104
114
105
118
113
128
113
98
104
90
89
90
96
95
112
159
206
222
209
195
183
188
189
194
199
204
206
204
204
203
203
202
202
200
200
199
199
199
198
199
200
200
201
201
204
204
205
206
207
208
209
209
212
212
212
212
213
213
213
213
213
213
212
212
212
209
207
206
206
206
206
206
206
206
207
207
209
209
207
207
210
210
210
211
214
214
213
213
214
213
214
213
213
213
213
213
213
213
213
213
213
213
213
213
214
214
213
213
212
212
212
212
211
211
211
211
212
212
212
212
213
213
213
213
213
213
212
212
212
211
211
211
211
212
212
212
212
212
213
213
213
213
213
213
213
213
214
214
214
214
215
215
215
215
217
217
217
217
218
218
218
218
218
218
218
218
217
217
217
217
216
216
216
216
216
217
217
217
217
217
217
217
216
216
215
215
216
216
217
217
217
217
217
217
216
216
216
216
216
216
216
216
216
216
217
217
217
217
217
217
216
216
216
216
215
215
215
215
215
215
215
215
216
216
216
216
216
216
216
216
216
216
216
216
216
217
217
218
216
216
216
217
217
217
217
217
219
219
219
219
219
219
220
220
219
219
219
219
219
219
219
218
218
217
217
217
226
226
227
227
227
227
227
227
226
226
226
226
226
226
226
225
225
225
225
226
225
225
225
225
225
225
226
226
227
227
226
226
226
226
226
226
226
226
226
226
226
226
229
229
229
229
229
230
230
230
230
230
230
230
230
230
228
228
230
230
229
229
228
228
228
228
227
227
227
227
227
227
226
226
228
228
226
226
225
225
225
225
226
226
226
226
226
226
224
224
226
226
226
226
225
225
225
225
225
225
225
225
225
225
224
224
226
226
226
226
226
226
226
228
226
215
229
225
156
107
103
103
100
99
97
97
98
98
98
98
100
100
101
101
101
103
105
110
112
110
106
102
98
96
96
93
93
92
92
92
91
90
91
91
92
93
93
94
93
93
93
92
92
91
91
91
92
92
92
96
97
97
93
90
89
89
89
86
87
83
87
90
86
76
75
83
88
91
92
96
95
88
85
89
88
88
89
89
89
89
93
89
88
84
83
86
89
93
94
89
86
84
84
82
84
87
86
84
84
86
84
82
82
83
83
82
83
79
79
84
91
92
88
84
80
80
79
82
82
80
78
76
77
78
78
80
87
96
101
96
75
76
73
70
71
78
86
93
99
99
98
90
86
86
86
86
101
119
112
85
102
108
101
84
80
80
80
80
79
73
64
59
63
66
69
79
89
99
105
110
110
120
114
96
90
112
91
81
72
71
65
61
64
70
73
78
83
87
88
83
78
74
73
72
72
70
66
67
71
72
68
66
68
71
75
79
86
92
95
98
108
117
135
138
112
145
130
138
128
135
112
119
125
116
101
105
114
107
90
121
111
136
118
118
101
79
106
126
132
130
101
106
107
117
102
112
107
120
106
116
118
109
82
95
104
88
96
82
66
129
161
143
136
175
193
171
186
190
194
200
203
203
203
202
201
200
200
198
198
198
198
198
198
197
199
199
200
201
202
204
204
205
207
207
208
208
211
211
211
211
212
211
211
211
211
211
211
209
208
207
206
204
204
204
205
205
205
205
206
206
206
206
206
206
208
208
208
209
213
213
213
213
213
213
213
213
213
213
213
213
213
213
213
213
213
213
213
213
213
213
213
213
213
213
212
212
212
212
212
212
212
212
213
213
213
213
213
213
213
213
212
212
212
212
212
212
212
212
213
213
213
213
213
213
213
213
213
213
213
213
214
214
214
214
215
215
215
215
216
216
216
216
218
218
218
218
218
218
218
218
216
216
216
216
217
217
217
217
218
218
218
218
218
218
217
217
216
216
217
217
216
216
216
216
216
216
217
217
217
217
217
217
217
217
217
217
216
216
215
215
216
216
215
215
215
215
215
215
214
214
214
214
214
214
214
214
215
215
215
215
215
215
215
215
215
215
215
215
215
215
215
215
215
215
215
216
216
216
216
216
218
218
218
218
218
218
217
217
218
217
217
218
218
218
218
216
216
216
216
216
225
225
226
226
226
226
226
226
225
225
225
225
225
225
224
224
224
224
224
224
225
225
225
224
224
224
225
225
226
226
226
225
225
225
225
225
225
225
225
225
226
227
227
227
228
228
228
228
228
228
228
228
228
228
228
228
228
228
228
228
228
228
227
227
227
227
226
226
226
226
226
226
226
226
225
225
225
225
224
224
224
224
225
225
224
224
224
224
224
224
223
223
224
224
224
224
224
224
224
224
224
224
224
224
224
225
224
224
225
225
225
225
225
226
224
213
228
214
134
99
110
103
100
99
97
97
98
98
98
98
100
100
100
100
101
103
106
110
111
109
104
99
96
95
93
91
91
90
90
90
90
90
91
91
92
92
93
93
92
92
91
90
91
91
91
91
92
92
92
95
96
95
90
88
87
88
87
86
87
84
85
84
79
74
76
86
97
101
101
100
91
81
82
89
90
87
87
87
89
89
91
88
87
87
88
88
89
89
93
94
93
91
90
88
87
89
89
89
89
89
86
84
83
82
80
80
82
78
78
83
85
83
78
77
78
79
79
82
81
81
77
75
77
80
80
81
87
99
101
95
79
76
73
75
88
91
94
97
98
92
85
83
84
86
86
87
92
97
103
108
123
101
86
86
68
68
68
68
66
63
60
57
69
79
88
93
85
95
103
109
84
117
124
100
90
103
82
79
72
66
62
62
66
72
75
82
86
87
83
78
76
73
73
72
72
71
71
67
66
64
62
60
64
69
72
76
82
89
97
103
116
103
141
139
155
146
164
128
112
128
119
136
106
104
110
125
110
110
100
114
111
136
118
118
103
75
121
135
139
123
92
113
102
114
103
116
109
120
106
116
123
114
87
99
102
86
96
85
96
111
132
146
143
166
180
187
186
189
194
199
201
200
200
199
198
196
196
195
195
195
195
195
195
195
196
197
198
199
200
201
201
202
204
205
206
206
208
208
208
208
209
209
209
209
209
209
208
206
204
203
203
202
202
204
202
202
202
202
202
202
202
202
204
204
205
205
204
206
209
210
211
211
212
212
213
213
213
213
213
213
213
213
213
213
213
213
213
213
213
213
213
213
213
213
212
212
212
212
212
212
212
212
213
213
213
213
213
213
213
213
212
212
212
212
212
212
212
212
213
213
213
213
213
213
213
213
213
213
213
213
214
214
214
214
215
215
215
215
216
216
216
216
218
218
218
218
218
218
218
218
216
216
216
216
217
217
217
217
218
218
218
218
218
218
217
217
216
216
217
217
216
216
216
216
216
216
216
216
216
216
216
216
216
216
216
216
215
215
215
215
214
214
214
214
214
214
214
214
213
213
213
213
213
213
213
213
214
214
214
214
214
214
214
214
214
214
214
214
214
214
214
214
214
214
214
215
215
215
215
215
216
216
216
216
217
217
217
217
215
215
216
216
217
217
217
216
215
215
215
215
223
223
224
224
224
224
224
224
224
224
222
222
222
222
222
222
222
222
222
222
222
222
222
222
223
224
224
224
225
225
224
224
225
225
225
225
224
224
225
225
226
226
227
227
228
228
228
228
228
228
228
228
228
228
229
229
229
229
227
227
227
227
227
227
227
227
226
226
226
226
226
226
226
226
224
225
225
225
225
224
224
225
225
225
225
225
225
225
225
225
224
224
224
224
224
224
223
223
224
224
224
224
224
224
224
224
223
223
223
223
223
223
223
223
221
215
226
197
113
95
112
103
99
99
97
97
98
98
98
98
100
100
100
101
102
104
109
110
107
104
99
96
93
93
92
91
91
90
90
91
91
91
91
91
93
93
94
94
92
92
92
90
90
90
91
91
92
92
92
93
93
90
86
83
86
87
87
86
87
85
83
80
78
76
79
87
97
102
102
100
92
83
83
88
90
87
87
89
90
89
91
87
89
91
91
89
90
88
89
93
91
90
90
87
86
86
89
90
91
90
87
83
82
79
77
80
81
77
79
83
82
78
75
74
78
80
80
82
83
82
77
76
79
87
86
87
91
98
100
91
83
80
82
94
96
94
92
88
85
82
80
82
82
83
86
86
87
91
97
102
115
98
89
94
69
69
69
68
65
66
69
72
88
93
99
99
86
89
101
106
84
105
111
100
91
91
70
78
74
64
61
64
70
74
77
84
86
83
78
76
76
75
75
75
75
74
72
68
65
63
64
64
64
68
72
76
82
89
100
108
120
105
125
150
166
144
179
132
112
128
119
135
125
106
105
103
107
107
117
104
111
135
118
118
121
86
158
165
133
129
99
108
93
111
106
124
110
120
106
117
130
121
92
106
100
86
100
91
63
76
130
192
212
179
148
158
186
189
194
195
195
193
192
192
192
192
191
191
191
191
191
191
191
191
193
193
194
195
196
198
198
199
200
201
202
202
205
205
205
205
206
206
206
206
206
206
205
202
201
201
201
201
201
201
201
201
201
201
202
202
202
202
202
202
202
202
204
204
206
208
210
211
212
212
213
213
213
213
213
213
214
214
214
214
214
214
214
214
214
214
214
213
213
213
212
212
212
212
212
212
213
213
213
213
214
214
214
214
214
214
214
214
214
213
213
213
213
214
214
214
214
214
214
214
214
214
213
213
213
213
214
214
214
214
215
215
216
215
216
216
216
216
218
218
218
218
218
218
218
218
216
216
217
216
216
216
216
216
218
218
218
218
218
218
217
217
216
216
217
217
216
216
216
216
216
216
216
216
216
216
216
216
216
216
216
216
215
215
215
215
214
214
214
214
214
214
214
214
213
213
213
213
213
213
213
213
214
214
214
214
214
214
214
214
214
214
214
214
214
214
214
214
214
214
214
214
214
214
214
214
215
215
215
215
216
216
216
216
215
215
215
215
216
216
216
216
216
216
216
215
221
221
222
223
223
223
223
223
223
223
221
221
221
221
221
221
221
221
221
221
221
221
221
221
222
222
222
222
225
224
224
224
224
225
225
225
225
225
225
225
226
226
226
226
227
227
228
228
228
228
228
228
228
228
228
228
228
228
227
227
227
227
227
227
227
227
226
226
226
226
226
226
226
226
225
225
225
225
225
225
225
225
225
225
225
225
225
225
225
225
224
224
224
224
224
224
224
224
224
224
224
224
224
223
223
223
223
223
223
223
223
223
224
223
223
217
224
180
106
100
109
103
99
99
97
97
98
98
98
98
100
100
100
101
102
105
109
109
105
100
95
92
92
92
92
91
91
90
90
91
91
93
93
91
89
90
91
93
91
91
91
90
90
90
91
91
93
92
92
93
91
89
83
82
85
87
87
86
87
85
85
80
74
72
79
86
90
100
102
93
87
84
84
87
90
86
85
89
90
89
91
90
94
91
89
93
94
90
93
89
84
83
85
85
84
84
87
87
86
84
80
79
79
77
77
79
80
77
79
83
84
82
81
78
80
80
80
84
85
82
76
76
83
89
91
94
97
101
100
93
84
85
98
109
91
86
78
74
74
77
79
82
82
83
84
84
86
105
99
72
84
100
108
104
80
80
80
78
76
80
88
94
99
99
99
99
95
87
95
104
110
91
86
96
91
82
61
77
71
64
63
68
70
74
79
86
84
78
76
73
73
73
74
76
78
79
78
71
65
66
71
71
68
65
68
75
81
88
98
107
115
122
98
164
138
139
168
147
128
135
112
119
104
104
115
107
107
110
127
98
111
135
118
115
98
58
147
148
116
146
117
90
88
109
105
126
111
120
107
117
134
124
97
108
97
89
106
96
98
92
111
141
172
169
187
200
186
186
191
193
192
190
189
189
189
189
189
188
188
188
188
188
188
186
188
188
190
191
192
193
194
194
197
197
197
199
201
201
201
201
202
202
202
202
202
202
200
200
200
200
199
199
199
199
200
200
200
200
201
201
201
201
201
201
202
202
201
202
205
206
207
209
211
211
212
212
212
212
213
213
214
214
214
214
214
214
214
214
214
214
214
213
213
213
212
212
212
212
212
212
213
213
213
213
214
214
214
214
214
214
214
214
214
214
213
213
214
214
214
214
214
214
214
214
214
214
213
213
213
213
214
214
214
214
215
215
216
216
216
216
216
216
218
218
218
218
218
218
218
218
216
216
217
217
216
216
216
216
218
218
218
218
218
218
217
217
216
216
217
217
216
216
216
216
216
216
215
215
214
214
214
214
214
214
214
214
214
214
214
214
214
214
213
213
213
213
214
214
213
213
213
213
213
213
213
213
214
214
214
214
214
214
214
214
214
214
214
214
214
214
214
214
214
214
214
214
214
214
214
214
214
214
214
214
214
214
214
214
214
214
214
214
215
215
215
215
214
214
214
214
220
220
220
221
221
220
220
220
219
219
220
220
219
219
219
218
218
218
218
218
218
218
218
218
219
219
222
222
222
222
222
222
222
222
222
222
222
222
222
222
222
222
223
223
225
225
225
225
226
226
226
226
226
226
226
226
226
226
226
226
226
226
226
226
226
226
225
225
225
225
225
225
224
224
224
224
222
222
222
222
222
222
222
222
222
222
222
222
222
222
221
221
221
221
221
221
221
221
221
221
221
221
221
221
221
221
221
221
221
221
221
221
221
221
225
217
218
159
103
109
101
102
100
99
97
98
97
97
98
98
100
100
101
101
103
107
110
110
104
98
93
92
92
92
92
92
91
91
91
92
92
94
90
89
89
90
90
91
91
90
90
90
91
91
91
91
92
92
92
95
93
91
86
84
85
87
88
87
85
85
85
78
71
71
80
81
90
110
111
89
81
85
85
85
87
86
84
89
90
90
90
92
95
90
89
98
98
91
100
89
82
82
85
85
84
83
87
88
85
82
78
77
77
77
77
77
79
77
80
83
83
83
84
84
82
81
81
86
87
81
75
80
86
91
97
100
101
102
101
98
93
103
107
99
85
85
85
85
86
86
86
83
83
82
83
83
82
81
81
81
94
98
104
108
110
109
109
109
96
96
96
95
92
87
85
82
81
84
85
82
90
76
76
90
78
75
68
66
69
68
68
68
68
73
83
85
81
74
75
72
72
71
71
76
81
81
76
67
64
67
69
68
69
64
65
72
81
88
98
107
113
122
136
145
207
176
164
153
159
138
141
94
104
112
114
115
110
113
112
101
131
128
90
110
105
75
101
135
127
118
103
94
107
132
100
124
113
118
112
117
133
150
138
105
94
108
108
96
92
92
92
91
147
195
211
200
185
186
191
193
191
190
190
191
189
189
188
188
187
186
186
185
185
185
186
186
187
187
189
189
190
191
192
193
195
195
198
198
199
200
202
202
202
201
200
199
199
199
199
197
197
197
197
198
198
198
198
198
198
198
198
198
199
199
199
199
201
201
205
206
207
207
210
210
211
211
213
213
213
213
214
214
215
215
215
215
215
215
215
215
214
214
214
214
213
213
213
213
213
213
214
214
214
214
215
215
215
215
215
215
214
214
214
214
214
214
214
214
214
214
214
214
214
214
214
214
213
213
213
213
214
214
214
214
216
216
215
215
216
216
216
216
218
218
218
218
217
217
217
217
217
217
217
217
217
217
217
217
216
216
216
216
216
216
216
216
215
215
216
216
215
215
214
214
215
215
215
215
214
214
214
214
214
214
214
214
214
214
213
213
213
213
213
213
213
213
213
213
213
213
214
214
214
214
214
214
213
213
213
213
213
213
213
213
213
213
213
213
213
213
213
213
213
213
213
213
213
213
213
213
213
213
213
213
213
213
213
213
213
213
213
213
213
213
213
213
213
213
213
213
219
219
219
219
219
219
219
219
218
218
219
219
218
218
218
218
218
218
218
218
218
217
217
217
217
217
218
218
218
218
218
218
218
218
218
219
219
219
219
219
219
219
219
218
220
220
221
221
222
222
222
222
222
222
222
222
222
222
222
222
222
222
222
222
222
222
220
220
220
221
221
221
220
220
220
220
219
219
219
219
219
219
219
219
219
219
219
219
219
219
217
217
218
218
217
217
218
218
217
217
217
217
217
217
217
217
217
217
217
217
217
217
217
217
220
220
207
141
104
111
94
100
100
97
98
98
100
100
99
99
101
101
101
101
105
110
110
108
102
96
92
92
92
92
92
92
91
91
91
92
94
92
89
87
89
90
90
90
90
90
90
90
91
91
91
91
92
92
92
95
96
93
89
86
85
87
88
87
85
85
82
78
76
78
88
93
99
117
112
86
77
86
86
82
83
83
84
89
90
90
90
89
90
89
93
98
97
93
97
91
84
83
84
85
83
83
84
85
85
82
79
77
77
77
77
76
77
77
80
82
81
82
85
86
83
82
83
86
86
79
76
83
89
92
99
101
100
99
98
98
103
107
99
89
85
85
85
85
86
86
87
83
83
82
82
82
82
82
82
83
88
94
100
105
93
93
93
93
93
93
93
90
86
82
80
77
74
77
81
86
85
79
80
85
81
75
68
65
66
67
67
65
66
75
84
83
78
73
74
71
71
70
70
74
79
77
65
65
67
69
63
64
67
67
69
75
81
88
98
107
120
140
166
186
186
168
161
147
124
160
119
131
131
93
133
96
111
114
107
112
114
115
104
101
106
83
111
137
110
127
117
89
110
126
103
119
117
112
119
115
133
142
129
103
97
104
104
97
92
92
92
91
120
164
181
185
185
185
189
192
190
190
190
190
189
189
189
188
187
186
186
185
185
183
185
185
186
187
188
189
189
190
191
192
193
195
196
197
197
200
202
202
202
201
200
199
197
197
197
195
194
193
193
193
194
194
195
195
194
194
194
194
194
194
194
194
197
201
204
204
205
206
209
209
209
209
211
211
213
213
214
214
215
215
216
216
216
216
216
215
214
214
214
214
213
213
213
213
213
213
214
214
214
214
215
215
215
215
215
215
214
214
214
214
214
214
214
214
214
214
214
214
214
214
214
214
213
213
213
213
214
214
214
214
216
216
215
215
216
216
216
216
218
218
218
218
217
217
217
217
217
217
217
217
217
217
217
217
216
216
216
216
216
216
216
216
215
215
216
216
215
215
214
214
215
215
214
214
213
213
213
213
213
213
213
213
213
213
213
213
212
212
212
212
212
212
213
213
213
213
214
214
214
214
214
214
213
213
213
213
213
213
213
213
213
213
213
213
213
213
213
213
213
213
213
213
213
213
213
213
212
212
212
212
212
212
212
212
212
212
212
212
212
212
212
212
212
212
212
212
217
218
217
217
217
216
216
216
216
216
216
217
215
215
215
215
215
215
216
216
216
216
215
215
214
214
215
215
214
214
214
214
214
214
215
215
215
215
215
215
215
215
215
216
218
218
219
218
220
218
218
218
218
218
219
219
219
219
218
218
218
218
218
219
219
219
217
217
217
217
217
217
216
216
216
216
215
215
215
215
215
215
215
215
215
215
215
215
215
215
214
214
214
214
214
214
214
214
214
214
214
214
214
214
214
214
214
214
214
214
214
214
214
214
208
225
192
123
102
108
94
100
100
99
100
101
102
103
104
103
102
101
101
103
109
112
111
105
99
93
92
92
92
92
92
92
91
91
91
93
94
92
89
87
89
90
90
90
90
90
91
90
91
91
91
91
93
94
94
95
96
94
90
88
88
88
87
85
85
85
80
76
76
78
88
99
112
118
102
78
76
88
86
82
80
77
83
91
91
90
90
85
87
94
96
91
90
94
87
89
88
85
84
84
83
83
85
85
83
81
78
77
76
76
77
76
78
78
82
82
80
82
85
86
85
84
84
84
82
76
79
88
92
93
98
100
96
94
94
93
107
99
89
84
85
85
85
85
86
87
87
84
83
82
82
82
82
82
82
82
84
89
94
99
87
87
87
87
86
86
86
85
81
79
78
75
72
71
72
76
81
86
87
81
77
75
68
64
62
62
62
62
65
77
85
80
77
74
74
72
71
71
71
74
74
65
62
68
70
68
67
68
71
78
87
86
88
94
104
113
103
123
150
169
158
158
158
135
124
135
144
131
118
124
103
109
117
112
104
125
112
108
114
89
122
80
107
153
117
107
105
114
113
118
111
116
121
104
127
111
133
130
117
103
104
97
97
99
96
92
92
93
95
138
160
184
186
185
189
190
190
190
190
190
189
189
189
187
186
185
186
185
185
183
185
185
186
187
188
189
189
190
192
193
194
195
196
196
196
198
200
202
201
200
199
198
198
197
197
194
193
192
191
191
191
191
191
191
191
191
191
191
192
192
192
192
194
198
202
204
205
206
208
209
210
209
212
212
213
213
215
215
216
216
217
217
217
217
217
216
215
214
214
214
214
214
214
214
214
214
214
214
215
215
215
215
215
215
215
215
215
215
215
215
215
215
215
215
215
215
215
215
215
215
214
214
214
214
213
213
214
214
214
214
215
215
216
216
217
217
217
217
218
218
218
218
217
217
217
217
217
217
217
217
217
217
217
217
216
216
216
216
216
216
216
216
215
215
215
215
215
215
214
214
215
215
214
214
213
213
213
213
213
213
213
213
213
213
213
213
212
212
212
212
212
212
213
213
213
213
214
214
214
214
214
214
214
214
213
213
213
213
213
213
213
213
213
213
213
213
213
213
213
213
213
213
213
213
213
213
212
212
212
212
212
212
212
212
212
211
211
211
211
211
211
211
212
212
212
212
217
217
216
215
215
215
215
215
215
215
214
214
214
214
214
214
214
214
214
214
214
214
214
214
214
214
213
213
213
212
212
212
212
213
213
213
213
213
213
213
213
213
214
215
216
216
217
217
218
217
217
216
216
216
216
216
216
216
217
217
217
217
217
217
217
217
216
216
216
216
216
216
215
215
215
216
214
214
214
214
214
213
213
212
212
212
212
212
212
212
212
212
212
212
212
212
212
212
212
212
212
212
212
212
212
212
212
212
212
212
212
212
212
212
203
226
178
109
99
110
95
102
101
99
100
102
102
103
103
103
102
102
102
105
109
109
107
103
97
91
91
91
91
91
92
92
91
91
91
92
91
91
88
88
88
88
89
90
90
90
91
90
91
90
91
91
94
94
95
96
96
94
90
88
88
88
87
85
84
82
78
74
70
72
82
97
121
122
96
77
77
87
84
83
81
74
77
87
90
89
89
83
83
100
97
84
84
93
82
87
89
85
84
82
83
84
85
84
82
78
77
76
75
73
75
76
79
79
82
82
80
82
85
86
87
86
85
83
80
75
82
90
91
92
100
98
93
92
92
89
99
90
84
78
85
85
85
85
86
84
84
82
81
79
81
81
81
81
81
80
80
84
91
94
94
94
94
94
82
81
82
82
80
78
77
75
72
70
69
71
75
90
90
76
78
75
68
63
58
58
55
56
63
77
82
78
76
74
74
72
71
71
71
70
69
65
67
68
67
63
70
71
72
82
92
90
89
90
101
114
119
129
143
152
137
151
155
127
134
138
141
120
99
124
103
127
114
107
113
122
121
108
104
99
98
114
141
128
99
115
119
108
116
112
117
113
123
99
135
108
131
122
108
106
107
93
93
108
95
94
93
94
96
117
151
196
186
185
189
190
189
189
189
189
189
189
189
186
185
184
185
184
183
182
183
183
185
186
187
188
188
189
190
192
193
194
195
195
195
195
198
199
199
199
198
198
197
195
194
193
191
190
190
190
190
190
189
189
189
190
191
191
190
190
190
190
191
194
198
201
205
206
207
207
209
210
211
212
211
213
214
215
216
216
217
217
217
217
217
216
215
214
214
214
214
214
214
214
214
214
214
214
215
215
215
215
215
215
215
215
215
215
215
215
215
215
215
215
215
215
215
215
215
215
214
214
214
214
213
213
214
214
214
214
215
215
216
216
217
217
217
217
218
218
218
218
217
217
217
217
217
217
217
217
217
217
217
217
216
216
216
216
216
216
216
216
215
215
215
215
215
215
214
214
215
215
214
214
213
213
213
213
213
213
213
213
213
213
213
213
212
212
212
212
212
212
213
213
213
213
214
214
214
214
214
214
214
214
213
213
213
213
213
213
213
213
213
213
213
213
213
213
213
213
212
212
212
212
212
212
211
211
211
211
210
210
210
210
209
210
210
210
210
210
210
210
210
210
211
211
216
215
214
214
214
214
214
214
213
213
213
213
213
213
213
213
213
212
212
213
213
213
213
213
213
213
213
213
213
213
213
213
213
213
213
213
213
213
213
214
214
215
216
216
217
218
219
219
219
219
216
216
214
214
214
214
216
216
216
216
217
217
217
217
217
217
216
216
216
216
216
216
215
215
215
215
214
214
214
214
214
213
212
211
211
211
211
211
211
211
212
212
212
212
212
212
212
212
212
212
212
212
212
212
212
212
212
212
212
212
212
212
212
212
207
219
161
102
101
113
98
103
103
98
99
100
102
102
102
102
102
101
102
107
109
107
105
99
93
90
91
91
91
91
91
91
91
91
92
92
90
87
86
85
86
87
89
89
90
91
91
91
90
90
91
92
95
94
95
94
95
92
90
88
88
88
87
85
84
79
78
72
72
82
90
103
121
117
90
82
82
84
82
86
89
80
78
89
90
87
87
83
84
100
93
82
85
91
82
87
87
84
85
85
87
87
87
85
82
78
75
75
72
70
72
79
80
80
82
82
82
82
85
89
90
87
84
81
77
77
84
90
92
94
99
95
91
94
95
91
91
87
82
82
84
84
85
84
84
83
83
80
79
78
79
79
78
78
81
78
75
78
85
86
84
81
82
82
70
76
80
81
79
78
78
77
71
57
58
72
71
86
87
71
64
61
54
51
52
51
48
48
60
74
80
78
77
76
75
72
72
71
71
71
69
69
70
69
66
59
67
74
74
80
86
89
90
87
94
114
123
150
168
165
160
143
132
145
122
143
113
135
103
105
121
123
97
117
103
123
137
123
87
110
119
125
128
91
107
131
131
107
117
114
118
115
122
100
139
121
129
125
118
110
110
107
105
104
99
99
96
94
88
92
107
138
171
179
180
170
188
188
188
188
188
188
187
186
185
184
185
184
182
181
182
182
183
183
186
186
188
188
190
190
191
193
195
195
195
195
196
198
198
196
198
196
195
195
193
191
189
188
188
188
188
188
188
188
188
188
188
188
189
189
191
191
191
191
195
201
203
204
206
206
207
208
209
211
211
213
214
215
216
216
217
217
218
218
218
217
215
214
214
214
214
214
214
214
214
214
215
215
215
215
217
217
216
216
216
216
216
216
216
217
217
217
217
217
217
217
217
217
217
217
216
216
214
214
213
213
214
214
214
214
216
216
216
216
217
217
217
217
218
218
217
217
217
217
217
217
216
216
217
217
216
216
216
216
217
217
217
217
217
217
217
217
217
217
217
217
217
217
216
216
216
216
214
214
214
214
214
214
214
214
215
215
214
214
213
213
213
213
212
212
212
212
212
212
213
213
213
213
213
213
213
213
213
213
213
213
213
213
213
213
213
213
213
213
212
212
211
211
211
211
211
211
211
211
211
210
211
209
209
209
209
208
208
207
208
208
208
207
207
207
208
208
208
208
209
210
214
214
213
213
213
213
213
213
212
212
212
211
211
211
210
210
211
210
210
211
211
211
211
211
212
212
210
210
210
210
210
210
210
210
211
211
211
211
211
212
212
213
213
213
214
215
216
216
218
216
215
214
213
213
213
214
214
214
215
215
215
215
215
215
215
215
214
214
214
214
214
214
213
213
213
213
213
213
213
213
212
211
211
209
209
209
209
209
209
209
211
211
211
211
211
211
211
211
211
211
211
211
211
211
211
211
211
211
211
211
210
210
211
211
210
202
144
104
105
109
103
105
103
98
98
99
101
101
101
101
101
101
103
109
109
107
102
97
91
89
90
90
90
90
91
91
91
93
94
89
89
86
85
85
86
86
89
89
90
91
91
91
90
89
91
92
93
93
95
93
91
90
89
87
88
87
85
84
82
79
76
71
81
99
105
105
107
95
83
86
88
81
78
90
100
93
90
96
92
86
86
85
87
93
89
86
90
87
85
87
85
83
85
86
87
87
84
84
82
82
77
74
72
69
73
83
79
82
82
82
82
83
86
88
88
86
81
77
76
80
85
89
93
98
98
91
90
98
99
87
91
84
81
83
85
85
85
84
83
81
81
79
77
74
74
73
72
71
70
67
64
66
73
77
78
78
78
78
65
70
76
79
79
78
78
80
82
78
78
84
71
77
78
70
64
61
54
51
50
49
44
44
58
73
80
80
78
76
75
72
72
71
71
71
71
71
71
70
69
65
69
74
75
79
83
89
93
92
97
111
143
151
141
119
143
125
122
133
125
136
121
131
112
105
118
122
92
129
126
112
130
102
92
132
118
112
121
107
119
119
133
153
119
124
117
123
119
107
137
124
128
125
118
114
97
97
97
97
97
97
97
96
92
91
98
123
185
195
201
194
187
186
187
187
188
187
187
185
184
183
184
184
181
180
181
181
182
183
184
186
185
186
188
189
190
191
193
193
193
193
196
196
196
195
196
195
195
193
192
190
189
188
188
188
188
188
188
187
187
187
188
188
188
188
189
189
190
191
195
200
202
203
205
205
206
207
209
210
210
211
214
215
216
216
217
217
218
218
218
217
215
214
215
215
214
214
214
214
214
214
215
215
215
215
217
217
216
216
216
216
216
216
216
216
217
217
217
217
217
217
217
217
217
217
216
216
214
214
214
214
215
215
216
214
216
216
216
216
217
217
217
217
218
218
217
217
217
217
217
217
216
216
217
217
216
216
216
216
217
217
217
217
217
217
217
217
217
217
217
217
217
217
216
216
216
216
214
214
214
214
214
214
214
214
215
215
214
214
213
213
213
213
212
212
212
212
212
212
213
213
213
213
213
213
213
213
213
213
213
213
213
213
213
213
213
213
213
213
212
212
211
211
211
211
210
210
210
210
210
209
208
207
207
207
207
207
206
206
206
206
206
205
206
206
207
207
207
207
208
208
213
212
212
211
211
211
211
211
211
211
209
209
209
209
209
209
209
209
209
210
210
210
210
209
209
208
208
207
207
207
207
207
207
207
207
207
207
207
207
207
207
208
210
211
211
212
213
213
213
213
213
213
213
213
213
213
211
213
212
212
211
211
210
210
210
210
209
209
209
209
209
209
209
209
210
210
208
208
209
209
210
210
209
209
210
210
210
210
210
210
210
210
210
210
210
210
210
210
210
210
211
211
211
211
211
211
211
211
211
211
211
210
210
211
211
182
123
104
107
102
110
103
103
100
98
99
100
100
100
100
101
101
107
111
110
107
101
93
90
89
90
90
90
90
90
91
91
94
94
87
83
85
85
84
85
86
89
90
90
90
91
90
90
89
91
91
93
91
90
89
89
89
88
87
88
87
85
83
79
79
74
72
82
103
106
108
106
87
76
87
90
79
76
89
101
95
93
97
94
89
87
90
92
87
88
95
91
84
90
88
85
84
85
85
88
85
81
80
78
82
83
78
75
71
77
85
82
84
84
80
82
84
86
85
85
81
77
74
75
80
85
90
93
100
96
88
87
98
99
88
87
82
82
86
85
85
85
83
81
80
80
78
77
74
74
73
72
71
70
67
64
66
73
75
73
71
71
71
59
64
70
74
78
78
78
79
83
90
90
84
71
65
65
69
67
61
54
51
49
48
44
44
55
72
80
80
79
77
76
74
73
72
72
72
71
72
71
72
74
79
76
72
76
82
89
93
97
107
108
113
143
151
141
119
141
145
150
140
138
105
151
118
113
125
97
129
103
126
143
115
127
99
109
121
93
114
139
94
109
129
142
142
123
139
115
132
116
114
128
127
128
125
117
113
96
96
96
97
97
97
97
97
100
90
92
110
170
186
198
195
187
187
187
186
188
187
186
185
184
184
184
183
182
181
181
181
182
183
184
186
185
186
188
189
190
191
193
193
193
193
196
196
196
196
196
196
195
193
193
191
189
188
187
187
187
187
187
187
187
187
187
187
188
188
189
189
190
191
195
200
202
202
204
205
206
207
209
209
210
211
214
214
215
215
216
216
218
218
218
217
216
215
215
215
216
216
216
216
217
217
217
217
217
217
217
217
216
216
216
216
216
216
216
216
217
217
217
217
217
217
217
217
217
217
217
217
215
215
214
214
215
215
216
216
217
216
215
215
217
217
217
217
217
217
217
217
217
217
217
217
216
216
217
217
216
216
216
216
217
217
217
217
217
217
217
217
217
217
217
217
217
217
216
216
216
216
214
214
214
214
214
214
214
214
215
215
214
214
213
213
213
213
212
212
212
212
212
212
212
212
212
212
212
212
212
212
213
213
213
213
213
213
213
213
213
213
213
213
212
212
211
211
211
211
210
209
209
209
209
208
208
207
207
207
207
207
206
206
205
205
204
204
204
204
205
205
206
206
207
207
213
212
212
211
211
211
211
211
211
211
209
208
208
208
208
208
209
209
209
209
209
208
208
207
207
206
206
206
205
205
204
204
205
205
205
205
205
205
205
205
205
206
207
209
209
210
211
211
212
212
212
212
212
212
212
212
212
211
209
209
208
208
208
208
208
208
207
207
207
207
207
207
207
207
207
208
208
208
207
207
207
207
208
209
210
210
210
210
210
210
210
210
210
210
210
210
210
210
210
210
211
211
211
211
211
211
211
211
211
211
211
211
210
211
209
164
108
104
107
100
113
102
100
100
98
98
100
100
100
100
101
104
109
111
108
105
100
93
90
89
90
90
90
90
91
92
93
91
89
84
83
85
86
84
85
86
89
90
90
90
91
90
90
89
90
90
91
90
89
88
87
87
87
87
87
85
85
82
79
79
72
74
80
91
99
116
115
100
80
84
84
79
77
89
100
93
91
96
96
89
87
90
91
86
94
98
92
86
89
87
87
88
88
88
89
84
80
78
75
78
83
82
78
72
75
80
80
84
84
80
82
86
88
84
83
78
72
69
71
76
84
90
93
97
92
87
89
97
97
86
85
82
85
86
85
85
85
83
81
80
80
78
76
74
76
76
77
76
77
76
74
77
81
85
72
71
70
69
58
60
65
67
77
78
78
78
71
87
87
72
71
56
56
71
62
60
53
51
48
47
44
44
55
72
79
80
80
74
76
74
73
72
72
73
71
72
72
72
77
83
78
71
78
87
93
97
105
115
117
116
123
150
168
165
122
143
140
114
128
130
126
128
125
102
127
115
122
112
140
131
128
117
125
85
120
98
112
98
130
107
107
131
124
149
114
139
113
120
122
128
128
124
117
112
109
106
103
102
100
100
98
97
102
94
91
100
139
157
173
175
187
181
187
187
189
185
187
185
185
184
184
184
182
181
181
181
182
182
183
184
185
186
188
189
190
191
193
193
193
193
196
196
196
196
196
196
195
193
193
191
190
189
188
188
188
188
188
187
187
187
187
187
188
188
189
189
190
191
195
200
202
202
204
205
206
207
209
209
210
211
214
214
215
215
216
216
218
218
218
217
216
215
216
216
216
216
216
216
217
217
217
217
217
217
217
217
217
216
216
217
216
216
216
216
216
217
217
217
217
217
217
217
217
217
217
217
215
215
215
215
216
216
217
216
217
216
215
215
217
217
217
217
217
217
217
217
217
217
217
217
216
216
217
217
216
216
216
216
217
217
217
217
217
217
217
217
217
217
217
217
217
217
216
216
216
216
214
214
214
214
214
214
214
214
215
215
214
214
213
213
213
213
212
212
212
212
212
212
212
212
212
212
212
212
212
212
213
213
213
213
213
213
213
213
213
213
213
213
212
212
211
211
211
211
210
209
209
209
209
208
207
206
206
206
206
206
205
205
205
204
204
203
204
204
205
205
206
206
207
207
212
212
211
211
211
211
209
208
208
207
208
208
208
207
207
207
207
207
207
207
207
207
207
207
206
206
206
205
205
204
203
203
204
204
204
204
205
204
204
206
206
207
206
207
208
210
209
209
211
211
211
210
212
212
212
210
209
209
210
209
209
207
207
207
207
207
207
207
207
207
207
207
207
207
206
206
206
206
206
206
207
207
207
208
208
208
208
208
208
208
208
208
208
208
210
210
210
210
210
210
210
210
209
209
211
211
211
211
211
211
211
211
210
211
201
146
99
104
106
104
110
103
101
101
98
98
98
98
99
99
102
105
109
109
107
102
96
93
89
89
89
89
90
90
91
91
91
89
84
83
83
86
86
84
84
85
90
90
90
89
90
90
90
90
90
90
91
90
87
84
87
87
87
85
86
85
84
82
80
80
74
76
78
79
92
126
102
83
81
85
83
81
81
86
87
88
90
95
93
89
89
90
90
90
96
98
93
87
88
86
86
89
91
92
88
86
81
76
75
78
82
84
79
75
74
74
80
84
84
79
81
86
88
83
80
77
71
66
67
72
82
89
94
94
90
87
90
94
91
86
84
85
87
86
86
85
84
82
81
79
80
76
76
75
75
77
77
74
74
78
78
78
81
84
76
75
71
69
65
67
70
72
61
52
63
83
81
65
64
80
70
67
60
55
58
56
59
60
46
46
43
42
50
59
72
80
59
70
81
90
93
87
79
74
72
72
72
73
76
78
77
76
85
92
96
102
112
120
123
127
167
144
129
122
138
146
121
133
128
128
126
124
123
120
119
118
119
126
135
129
130
123
122
106
113
112
109
108
115
122
129
134
133
130
132
137
139
138
131
128
127
121
117
110
106
103
104
101
100
100
98
96
99
95
92
94
95
146
170
169
162
177
187
195
189
185
186
186
186
186
186
184
184
182
182
181
182
184
186
186
186
186
190
189
191
192
194
194
195
195
196
196
198
196
198
196
195
195
194
193
190
189
189
189
188
188
188
188
188
187
188
188
189
189
189
189
190
191
195
199
201
202
204
203
206
207
209
210
210
212
213
214
216
216
217
217
216
216
218
218
217
217
217
217
217
217
217
217
217
217
217
217
218
218
218
218
218
218
218
218
218
218
218
218
218
218
218
218
218
218
218
218
218
218
218
217
216
216
216
216
216
216
216
216
217
217
217
217
217
217
217
217
217
217
217
217
217
217
217
217
218
218
218
218
218
218
218
218
219
219
219
219
219
219
219
217
217
216
217
217
216
216
216
216
216
216
216
216
215
215
216
214
215
214
214
214
213
213
212
212
212
212
211
211
211
211
211
211
212
212
212
212
212
212
212
212
212
212
212
212
213
213
213
213
213
213
213
213
213
213
212
212
210
210
209
209
209
208
208
207
207
206
206
206
205
204
204
202
204
204
202
202
202
202
204
204
205
205
206
206
212
212
211
211
211
211
209
208
208
207
208
207
207
206
206
206
206
206
206
206
206
206
206
206
206
205
205
205
205
204
203
203
204
204
204
204
205
204
204
206
206
207
206
207
208
210
209
209
211
211
210
210
211
211
211
211
211
208
209
207
207
207
207
207
207
207
207
207
207
207
207
207
207
207
206
206
207
207
207
207
207
207
208
208
208
208
208
208
208
208
208
208
208
208
210
210
210
210
210
210
210
210
209
209
211
211
211
211
211
211
211
211
210
211
191
137
98
105
105
107
105
101
100
101
98
97
98
98
99
101
103
107
109
108
102
96
91
90
89
89
89
89
90
90
91
90
90
88
83
82
83
86
89
84
84
85
90
90
90
89
90
90
90
90
90
90
91
90
88
85
87
87
87
87
87
86
85
80
75
76
78
83
84
78
86
113
90
78
81
86
83
83
84
85
87
88
90
94
90
88
86
86
88
89
93
94
91
88
85
84
80
82
85
89
88
86
83
79
78
79
80
83
84
82
77
75
80
84
84
79
81
88
89
83
79
77
71
66
67
74
84
90
94
93
90
89
91
92
86
84
85
86
87
86
86
84
83
82
81
79
79
75
75
74
73
75
76
70
70
77
78
76
76
75
75
73
72
70
73
79
88
93
80
64
52
56
71
67
76
86
73
70
66
63
61
51
41
35
45
45
42
42
41
49
61
71
75
72
69
65
79
77
73
72
72
72
74
74
76
76
82
87
92
96
97
103
117
129
132
136
174
151
136
130
136
136
122
136
128
127
127
120
118
119
119
118
121
130
133
126
120
117
112
105
102
101
98
96
97
101
108
113
124
129
133
129
125
127
134
138
123
119
114
109
105
104
103
101
99
99
98
97
96
94
93
93
101
138
170
181
184
184
183
183
184
186
186
187
188
187
186
185
185
184
187
185
186
187
188
189
189
190
192
193
194
195
196
196
196
196
196
196
198
196
198
196
195
195
194
193
191
190
190
190
189
189
189
188
188
187
188
188
189
189
189
189
190
191
195
199
201
202
204
203
206
207
209
211
210
212
213
214
216
216
217
217
216
216
218
218
217
217
218
218
217
217
217
217
217
217
217
217
218
218
218
218
218
218
218
218
218
218
218
218
218
218
218
218
218
218
218
218
218
218
218
218
216
216
217
217
217
217
217
216
217
217
217
217
217
217
217
217
217
217
217
217
217
217
217
217
218
218
218
218
218
218
218
218
219
219
219
219
219
219
219
217
217
216
217
217
216
216
216
216
216
216
216
216
215
215
216
214
215
214
214
214
213
213
212
212
212
212
211
211
211
211
211
211
212
212
212
212
212
212
212
212
212
212
212
212
213
213
213
213
213
213
213
213
213
213
212
212
210
210
209
209
209
208
208
207
206
205
205
205
204
204
202
202
202
202
201
201
202
202
204
204
205
205
206
206
212
211
211
209
209
209
208
208
207
207
207
208
207
207
207
207
207
207
207
207
207
207
207
207
206
206
206
206
206
206
206
206
206
206
206
206
207
207
206
206
207
207
208
208
209
209
209
209
210
210
209
209
211
211
211
209
208
208
209
209
208
208
208
208
208
208
208
208
209
209
208
208
208
208
208
208
207
207
207
207
208
208
208
208
208
208
208
208
208
208
208
208
208
208
209
209
209
209
209
209
211
211
211
211
212
212
212
212
212
211
211
211
210
211
179
129
96
105
106
109
101
100
101
102
98
97
96
97
102
103
104
107
110
105
97
91
89
89
89
89
89
89
90
90
90
90
88
84
82
80
82
87
89
84
83
85
90
91
90
89
89
89
90
90
91
91
92
91
89
88
89
89
90
89
88
87
87
83
78
74
73
86
92
89
92
108
79
71
84
81
84
84
84
86
88
90
89
91
90
89
87
86
88
89
92
92
89
87
85
85
79
77
83
86
87
84
82
81
81
81
80
80
82
81
77
75
79
84
85
81
83
89
86
82
78
74
70
69
71
78
90
95
95
93
90
90
91
91
85
84
84
88
87
86
85
83
81
79
78
78
76
74
75
75
73
75
78
71
70
77
78
76
68
64
66
68
70
73
73
79
88
93
98
94
83
67
48
47
63
87
69
68
66
63
61
52
42
35
44
44
43
43
56
63
77
85
76
70
58
51
58
60
64
67
72
73
76
77
79
80
83
87
97
104
106
111
126
144
148
142
169
145
129
123
125
136
126
135
128
127
127
114
118
118
118
119
125
135
129
119
110
108
101
99
92
89
86
89
97
104
111
115
116
119
124
125
122
122
129
133
121
117
112
108
105
103
103
101
99
99
98
96
96
94
94
94
95
118
153
183
193
186
176
172
180
195
193
191
191
189
191
188
188
187
188
187
188
189
190
192
191
192
195
197
198
199
199
199
199
198
197
197
199
199
198
198
198
198
197
195
192
191
191
191
191
191
191
191
191
189
189
189
191
191
191
190
191
192
196
200
201
201
202
203
206
207
210
210
210
212
213
214
216
216
217
217
216
216
218
218
218
218
218
218
218
218
218
218
218
218
218
218
218
218
218
218
218
218
218
218
219
219
219
219
219
219
219
219
219
219
219
219
219
219
219
219
219
219
217
217
217
217
217
217
218
217
217
217
217
217
217
217
217
217
217
217
217
217
217
217
218
218
218
218
218
218
218
218
219
219
219
219
219
219
219
219
217
217
217
217
217
217
216
216
217
217
217
217
216
216
217
216
216
215
215
215
214
214
213
213
212
212
212
212
212
212
212
212
212
212
212
212
212
212
212
212
212
212
212
212
213
213
213
213
213
213
213
213
213
213
212
212
210
210
209
208
208
207
207
206
206
205
205
205
204
204
202
202
201
202
200
201
201
201
202
202
204
204
205
205
212
211
211
209
209
209
208
208
207
207
207
207
206
206
206
206
206
206
206
206
206
206
206
206
206
206
206
206
206
206
206
206
206
206
206
206
206
206
206
206
207
207
208
208
209
209
209
209
210
210
210
209
209
209
209
209
208
208
209
209
208
208
208
208
208
208
208
208
208
209
208
208
208
208
208
208
208
208
208
208
208
208
208
208
208
208
208
208
208
208
208
208
208
208
209
209
209
209
209
209
211
211
211
211
212
212
212
212
212
211
210
211
210
208
163
120
94
104
105
106
102
101
100
98
97
96
96
97
102
104
106
107
110
101
94
89
89
89
89
89
89
89
89
89
89
89
87
83
82
79
82
87
87
84
83
85
90
91
90
89
89
89
90
90
91
91
91
91
90
89
89
89
90
89
89
88
87
89
87
78
70
80
93
101
109
122
73
73
84
81
84
84
84
86
88
90
88
88
90
90
90
90
90
94
97
96
90
84
84
86
83
80
84
86
88
86
81
81
84
84
80
78
76
74
70
70
74
83
85
83
84
89
85
81
76
72
69
70
75
82
93
97
97
93
90
88
87
87
84
84
85
86
86
86
84
81
79
78
77
76
75
74
74
75
75
77
79
71
70
77
78
74
65
61
60
63
69
73
71
70
69
70
87
112
125
109
53
40
41
65
54
60
65
63
60
56
59
60
42
42
42
42
44
53
66
74
64
62
58
56
44
50
58
66
71
72
73
76
78
82
86
86
90
98
114
120
132
151
159
143
151
128
113
107
126
140
126
137
127
126
121
119
118
118
118
121
128
133
126
113
94
98
94
89
83
82
82
81
80
83
90
95
105
110
114
122
126
125
118
117
118
116
110
107
106
104
106
101
99
98
98
97
94
93
91
91
91
90
122
167
182
179
177
177
178
186
194
194
193
191
191
191
189
188
189
188
189
191
192
193
192
194
196
197
199
200
200
200
199
199
199
199
200
199
199
198
199
198
198
197
195
193
193
193
193
193
193
191
191
190
190
190
190
190
190
190
191
192
196
200
201
201
202
203
206
207
210
210
210
212
213
214
216
216
217
217
216
216
218
217
218
218
219
219
218
218
218
218
218
218
218
218
218
218
218
218
218
218
218
218
219
219
219
219
219
219
219
219
219
219
219
219
219
219
219
219
219
219
219
219
219
219
219
217
218
217
217
217
217
217
217
217
216
216
217
217
217
217
217
217
218
218
218
218
218
218
218
218
219
219
219
219
219
219
219
219
217
217
217
217
217
217
216
216
216
217
217
217
216
216
217
216
216
215
215
215
214
214
213
213
212
212
212
212
212
212
212
212
212
212
212
212
212
212
212
212
212
212
212
212
213
213
213
213
213
213
213
213
213
213
212
212
210
210
209
208
208
207
207
206
205
204
204
204
202
202
201
201
201
201
200
200
201
201
202
202
204
204
205
205
212
211
210
209
209
209
208
208
208
208
207
207
207
207
207
207
207
207
207
207
207
207
207
207
207
207
206
206
206
206
205
205
206
206
206
206
206
206
206
206
207
207
208
208
209
209
209
209
209
209
209
209
209
209
209
209
209
209
209
209
209
209
209
209
209
209
209
209
209
209
209
209
209
209
209
209
209
209
209
209
209
209
209
209
209
209
209
209
210
210
209
209
209
209
211
211
211
211
211
211
212
212
212
212
213
213
213
213
213
211
210
213
210
200
140
111
99
100
104
103
99
98
98
98
96
96
96
98
103
105
107
109
108
98
92
90
89
89
89
89
89
88
89
87
88
88
85
83
82
81
82
88
87
83
82
84
89
91
90
89
90
90
90
90
90
90
91
90
90
89
89
90
90
90
89
88
88
91
91
80
76
83
93
107
116
117
87
87
85
85
85
84
85
86
90
90
87
83
80
91
91
84
90
94
96
93
89
84
83
84
83
82
83
84
85
83
79
79
83
85
80
77
73
71
68
71
74
81
86
85
87
87
83
77
74
70
67
71
76
81
91
97
95
92
88
87
86
85
85
84
85
86
86
86
84
81
78
76
76
76
75
75
74
76
82
87
81
72
70
76
78
74
69
65
65
66
71
74
72
69
65
67
54
74
103
123
111
95
65
46
66
72
76
75
66
62
64
64
61
75
75
62
50
55
57
55
60
71
80
81
70
70
70
69
70
71
72
72
75
82
90
93
92
93
117
119
129
148
167
149
154
129
127
113
120
128
126
126
126
126
121
121
119
119
118
117
108
127
102
106
106
105
95
85
67
71
78
84
90
97
106
113
117
114
113
111
107
105
104
103
116
116
111
109
111
104
109
126
106
100
99
98
94
89
90
90
93
90
109
143
178
177
180
181
184
186
194
195
194
192
190
190
192
192
192
192
191
191
191
193
193
195
196
197
198
200
201
200
200
200
200
200
201
201
201
201
200
199
199
197
196
195
195
195
193
193
194
193
192
191
191
191
191
191
191
191
192
193
197
201
202
202
204
205
207
209
211
212
212
212
214
214
215
216
218
218
218
218
218
218
219
219
219
219
219
219
219
219
219
219
219
219
219
219
219
219
219
219
219
219
219
219
219
219
219
219
219
219
219
219
219
219
219
219
219
219
219
219
219
219
219
219
219
219
218
218
218
218
218
218
218
218
218
218
218
218
218
218
218
218
219
219
219
219
219
219
219
219
220
220
220
220
220
220
220
219
219
218
218
218
218
218
218
218
217
217
216
216
216
216
217
216
216
214
215
215
214
214
214
214
213
213
212
212
212
212
212
212
212
212
212
212
212
212
212
212
214
214
214
214
213
213
213
213
213
213
213
213
213
213
212
212
210
210
209
208
208
207
207
206
205
204
204
204
202
202
201
201
201
201
200
200
201
201
202
202
204
204
205
205
212
211
210
209
209
209
208
208
208
208
207
207
207
207
207
207
207
207
207
207
207
207
207
207
207
207
206
206
206
206
205
205
206
206
206
206
206
206
206
206
207
207
208
208
209
209
209
209
209
209
209
209
209
209
209
209
209
209
209
209
209
209
209
209
209
209
209
209
209
209
209
209
209
209
209
209
209
209
209
209
209
209
209
209
209
209
209
209
210
210
209
209
210
210
212
212
212
212
212
212
212
212
213
213
213
213
213
213
213
213
212
215
209
193
122
104
104
102
104
102
98
98
97
97
96
96
96
98
103
106
109
107
104
97
93
90
89
89
89
89
89
88
87
86
87
86
85
82
81
83
84
86
84
82
83
84
89
91
90
89
90
90
90
90
90
90
90
90
90
90
89
90
90
90
89
88
88
91
89
80
82
87
95
103
108
98
87
87
86
86
85
84
85
86
91
90
86
81
80
91
91
85
89
93
91
87
87
84
84
84
85
86
88
88
84
81
78
76
78
79
78
76
73
71
72
73
76
80
86
88
88
86
81
76
73
67
66
72
76
78
86
94
92
87
85
84
85
85
85
85
85
85
86
86
83
79
77
75
75
75
75
74
74
80
91
96
84
72
71
77
78
74
75
74
77
77
76
73
72
73
76
75
73
75
81
86
125
123
123
98
103
108
113
112
103
93
86
81
102
108
108
102
85
73
64
57
70
78
85
91
70
70
71
71
72
72
73
73
78
85
95
101
100
98
121
118
124
146
178
166
164
133
123
104
120
128
127
126
126
125
123
122
120
119
118
118
96
111
108
110
109
108
98
88
49
54
61
65
98
110
127
140
128
129
131
135
139
132
123
116
113
117
115
111
117
107
110
120
119
107
100
98
94
90
89
89
93
86
104
139
182
183
187
188
190
191
194
194
194
194
193
193
195
195
195
195
195
195
195
196
196
198
199
200
200
200
201
200
201
201
201
201
202
202
202
202
200
200
200
199
198
196
196
196
195
195
195
194
193
192
192
192
192
192
192
192
193
194
199
201
203
202
204
205
207
209
211
212
212
212
214
214
215
216
218
218
218
218
218
218
219
219
219
219
219
219
219
219
219
219
219
219
219
219
219
219
219
219
219
219
219
219
219
219
219
219
219
219
219
219
219
219
219
219
219
219
219
219
219
219
219
219
219
219
218
218
218
218
218
218
218
218
218
218
218
218
218
218
218
218
219
219
219
219
219
219
219
219
220
220
220
220
220
220
220
219
219
218
218
218
218
218
218
218
217
217
216
216
216
216
217
216
216
214
215
215
214
214
214
214
213
213
212
212
212
212
212
212
212
212
212
212
212
212
212
212
214
214
214
214
213
213
213
213
213
213
213
213
213
213
212
212
210
210
209
208
208
207
207
206
205
204
204
204
202
202
201
201
201
201
200
200
201
201
202
202
204
204
205
205
213
212
212
211
211
211
209
209
209
209
209
209
209
209
209
209
209
209
209
209
210
209
209
209
208
208
208
208
208
208
208
208
208
208
208
208
209
209
208
208
208
208
209
209
211
211
211
211
211
211
211
211
211
211
210
210
210
210
210
210
210
210
210
210
210
210
210
210
210
210
210
210
210
210
210
210
210
210
210
210
210
210
210
210
210
210
210
210
210
210
211
211
211
211
213
213
213
213
213
213
213
213
214
214
214
214
215
214
215
216
217
216
205
186
114
101
107
109
105
100
99
96
97
96
96
96
96
98
103
108
110
109
100
94
93
90
89
89
89
89
89
88
88
87
87
85
84
83
81
87
88
83
82
83
84
86
91
93
90
90
90
90
90
90
90
90
90
90
90
90
91
91
90
90
90
89
89
89
87
81
84
91
94
99
106
86
88
88
88
87
88
86
87
88
93
91
84
80
79
91
91
85
90
94
85
82
83
84
85
84
85
86
88
88
83
82
78
77
77
78
78
77
75
74
75
75
77
81
86
90
91
85
77
75
72
67
65
75
77
75
82
89
88
84
84
84
84
84
85
85
88
88
88
87
83
82
79
76
74
74
75
75
75
79
86
87
79
74
74
80
80
78
75
74
77
77
76
73
73
80
85
86
101
96
88
84
86
100
119
129
128
133
138
138
136
134
134
133
117
112
112
117
121
99
73
56
81
78
74
74
71
71
72
73
76
77
78
79
82
90
101
108
109
108
132
124
123
140
173
161
157
130
126
112
120
128
127
126
126
125
123
122
120
119
118
118
102
100
105
89
89
88
78
69
41
46
53
53
51
53
63
69
94
101
111
118
130
128
126
124
109
117
117
113
125
110
106
112
120
119
107
100
94
92
89
89
86
79
97
132
191
196
198
199
197
197
198
197
198
197
200
200
200
200
200
200
200
200
200
200
201
202
202
202
202
202
202
202
204
204
204
203
203
203
202
202
202
202
202
201
200
199
199
199
197
197
196
196
196
194
194
194
194
194
193
193
195
196
200
202
203
202
205
206
209
210
212
212
213
213
215
215
216
217
219
219
218
218
218
218
219
219
219
219
219
219
219
219
219
219
219
219
219
219
219
219
219
219
219
219
220
220
220
220
220
220
220
220
220
220
220
220
220
220
220
220
219
219
219
219
219
219
219
219
218
218
218
218
218
218
218
218
218
218
218
218
218
218
219
219
219
219
220
220
220
220
220
220
220
220
220
220
220
220
220
220
219
219
219
219
219
219
219
219
218
218
218
218
218
218
218
217
217
217
217
217
216
216
215
215
214
214
214
214
214
214
214
214
214
214
214
214
214
215
215
215
214
214
214
214
213
213
213
213
213
213
213
213
213
213
212
212
210
210
209
209
208
208
208
206
205
204
204
204
202
202
201
201
201
201
200
200
201
201
202
202
204
204
205
205
213
212
212
211
211
211
209
209
209
209
209
209
209
209
209
209
209
209
209
209
209
210
210
209
208
208
208
208
208
208
208
208
208
208
208
208
209
208
208
208
208
208
209
209
211
211
211
211
211
211
211
211
211
211
210
210
210
210
210
210
210
210
210
210
210
210
210
210
210
210
210
210
210
210
210
210
210
210
210
210
210
210
210
210
210
210
210
210
210
210
211
211
211
211
213
213
213
213
213
213
213
213
214
214
214
214
215
214
214
218
216
221
203
172
112
103
104
109
103
99
98
98
96
96
96
96
96
98
103
106
107
104
96
93
93
90
89
89
89
89
89
88
88
87
86
84
83
82
83
85
86
82
82
83
83
86
91
93
90
89
89
89
89
89
89
89
89
88
89
89
88
88
89
88
89
89
89
88
86
80
84
88
91
99
109
92
88
88
88
87
88
86
87
88
93
91
84
82
80
91
91
87
90
92
84
80
82
84
84
82
82
82
82
82
81
82
81
81
80
79
78
79
79
78
77
77
77
81
86
90
90
83
75
74
74
67
64
74
78
77
79
84
84
82
83
83
84
84
85
85
88
88
88
88
86
84
80
77
75
73
72
74
76
72
70
72
75
74
76
84
85
80
71
65
65
68
72
75
77
81
86
89
88
84
80
80
83
84
83
90
96
101
106
105
121
129
146
158
138
122
122
137
136
121
86
50
72
69
63
56
70
72
74
76
76
78
80
83
86
92
102
110
114
111
128
125
124
131
146
129
136
124
130
131
122
128
127
126
125
125
123
122
120
118
117
117
122
99
99
58
58
58
47
41
46
54
61
65
61
54
45
39
37
48
62
72
87
97
111
121
115
114
117
115
131
112
104
108
113
120
119
106
95
93
90
89
81
74
92
127
200
203
202
201
203
202
200
199
202
202
204
202
202
202
202
202
202
202
202
202
202
202
202
202
204
204
204
202
204
204
204
204
203
203
202
202
202
202
202
201
200
200
199
199
197
197
196
196
196
195
195
195
195
195
194
194
195
196
200
202
203
202
205
206
209
210
212
212
213
213
215
215
216
216
218
218
218
218
218
218
219
219
219
219
219
219
219
219
219
219
219
219
219
219
219
219
219
219
219
219
220
220
220
220
220
220
220
220
220
220
220
220
220
220
220
220
219
219
219
219
219
219
219
219
218
218
218
218
218
218
218
218
218
218
218
218
218
218
219
219
219
219
220
220
220
220
220
220
220
220
220
220
220
220
220
220
219
219
219
219
219
219
219
219
218
218
218
218
218
218
218
217
217
217
217
217
216
216
215
215
214
214
214
214
214
214
214
214
214
214
214
214
215
215
215
215
214
214
214
214
213
213
213
213
213
213
213
213
213
212
211
211
210
210
209
209
208
208
208
206
205
204
204
204
202
202
201
201
201
201
200
200
201
201
202
202
204
204
205
204
213
213
213
212
212
212
211
211
212
212
211
211
211
211
211
211
211
211
211
211
211
211
211
211
211
211
209
209
208
208
208
208
208
208
208
208
208
208
208
208
209
209
211
211
211
211
211
211
211
211
211
211
211
211
211
210
210
211
212
212
212
212
211
211
212
212
212
212
212
212
212
212
212
212
211
211
211
211
211
211
211
211
210
210
210
210
210
210
210
210
212
212
213
213
213
213
214
214
214
214
214
214
215
215
215
215
215
214
214
218
211
225
201
146
105
102
103
104
101
98
98
97
95
95
96
95
95
98
104
108
108
101
96
93
92
90
89
89
89
89
89
88
86
86
86
84
83
82
83
84
86
83
84
83
82
84
91
94
91
89
89
89
89
89
89
88
88
87
86
86
87
87
88
87
88
88
89
87
83
80
83
86
89
101
108
89
89
89
89
88
88
86
87
88
113
71
78
87
82
93
93
87
91
92
87
83
83
84
84
82
80
83
82
77
78
78
77
81
83
80
76
79
82
79
77
76
77
79
85
89
89
79
71
74
74
68
68
72
78
79
80
80
82
81
82
83
84
85
88
88
88
88
88
89
90
86
83
80
77
71
68
72
76
69
65
72
74
74
77
83
88
83
75
66
64
67
72
78
83
83
83
84
83
83
83
83
94
94
95
92
91
89
89
89
88
96
110
123
152
160
161
152
156
134
102
69
64
74
69
62
67
73
77
75
74
75
81
85
88
89
94
105
109
104
110
117
121
126
130
115
124
124
127
126
125
127
128
128
119
115
111
106
104
109
117
123
105
82
69
70
80
70
57
47
41
46
57
69
32
58
51
64
50
51
57
62
50
69
70
52
84
88
92
95
119
115
105
84
109
109
109
106
78
91
93
78
65
80
73
98
144
161
179
194
204
205
202
202
203
206
204
203
203
203
204
204
202
202
203
203
204
204
204
204
205
205
205
203
205
204
204
204
205
205
205
205
203
203
202
202
201
201
200
200
199
198
198
197
196
196
196
196
196
196
197
197
197
197
200
201
202
203
206
207
208
209
212
211
211
211
214
214
215
216
217
217
218
218
218
218
219
219
219
219
218
218
218
218
218
218
218
218
218
218
218
218
218
218
219
219
219
219
220
220
220
220
220
220
220
220
220
220
220
220
220
220
219
219
219
219
219
219
219
219
218
218
218
218
218
218
218
218
219
219
219
219
219
219
219
219
220
220
220
220
220
220
220
220
220
220
220
220
220
220
220
220
219
219
219
219
219
219
219
219
218
218
218
218
218
218
218
218
218
217
217
217
216
216
216
216
215
215
214
214
214
214
214
214
214
214
214
214
214
214
214
214
214
214
214
214
214
214
214
214
214
214
214
213
212
212
212
212
210
210
210
209
209
208
208
207
206
205
205
205
204
204
202
202
202
202
201
201
202
202
204
204
204
204
206
206
213
213
213
213
213
212
212
211
212
212
211
211
212
212
212
212
212
212
212
212
212
212
212
212
211
211
211
210
208
208
208
208
208
208
208
208
208
208
208
208
209
209
211
211
211
211
211
211
211
211
211
211
211
211
210
210
210
210
212
212
212
212
211
211
212
212
212
212
212
212
212
212
212
212
211
211
211
211
211
211
211
211
210
210
210
210
210
210
210
210
212
212
213
213
213
213
214
214
214
214
214
214
215
215
215
215
215
214
216
219
209
225
197
128
102
101
101
101
100
98
98
97
95
94
96
95
95
98
104
107
104
98
93
92
91
89
89
89
89
89
89
88
86
86
85
83
83
82
83
83
84
83
86
83
81
84
91
94
91
88
88
88
88
88
88
87
87
86
86
86
87
87
89
88
88
88
88
83
78
76
85
92
96
105
100
80
89
89
89
88
88
86
87
88
104
74
84
90
84
96
96
89
92
92
90
86
84
84
84
82
80
84
84
77
77
77
77
81
87
82
81
85
83
79
76
74
75
79
85
89
88
77
69
70
70
68
75
77
78
79
81
80
81
80
81
82
84
86
88
88
88
87
86
87
89
87
85
84
82
72
68
74
76
72
72
76
77
73
74
76
79
83
84
79
78
78
80
85
90
87
82
78
80
81
80
80
80
80
83
84
86
88
89
86
82
85
88
96
113
132
153
161
167
145
115
93
61
66
68
63
63
65
70
72
69
71
78
84
87
87
88
93
101
103
103
107
116
127
140
134
117
124
127
125
123
125
125
123
112
114
117
120
119
110
98
96
99
98
98
108
122
105
81
64
53
52
53
58
59
67
53
67
80
54
51
77
57
48
47
61
32
39
51
60
74
91
111
125
87
84
81
89
105
84
71
71
85
85
69
97
194
196
194
196
199
201
201
203
204
207
206
204
204
203
204
204
202
202
203
203
204
204
205
205
206
206
206
205
205
204
204
204
205
205
205
205
203
203
202
202
202
202
202
201
200
199
200
199
199
199
200
200
198
198
201
201
201
201
202
202
203
204
206
207
208
209
211
211
211
211
214
214
215
215
216
216
218
218
218
218
219
219
219
219
218
218
218
218
218
218
218
218
218
218
218
218
218
218
219
219
219
219
220
220
220
220
220
220
220
220
220
220
220
220
220
220
219
219
219
219
219
219
219
219
218
218
218
218
218
218
218
218
219
219
219
219
219
219
219
219
220
220
220
220
220
220
220
220
220
220
220
220
220
220
220
220
219
219
219
219
219
219
219
219
218
218
218
218
218
218
218
218
218
217
217
217
216
216
216
216
215
215
214
214
214
214
214
214
214
214
214
214
214
214
214
214
214
214
214
214
214
214
214
214
214
214
214
213
212
211
211
211
210
210
210
209
209
208
208
207
206
205
205
205
204
204
202
202
202
202
201
201
202
202
204
204
204
204
206
206
214
214
214
214
214
213
213
212
212
212
213
213
213
213
213
213
213
213
213
213
213
213
213
213
212
212
211
211
211
211
211
211
211
211
211
211
211
211
210
210
210
210
212
212
212
212
212
212
212
212
212
212
212
212
212
212
212
212
212
212
212
212
212
212
212
212
212
212
212
212
212
212
212
212
212
212
212
212
212
212
212
212
212
212
212
212
212
212
212
212
212
212
213
213
213
213
214
214
214
214
214
214
215
215
215
215
214
214
218
216
211
222
188
117
101
101
101
100
100
99
98
96
95
95
94
94
95
99
104
105
102
94
94
92
90
89
89
89
89
89
88
87
86
87
84
82
83
83
82
82
83
83
86
83
82
84
91
94
90
88
88
88
88
88
88
87
87
87
87
88
89
90
90
90
90
89
86
81
78
76
86
94
100
107
95
78
89
89
89
89
89
88
88
87
89
76
95
91
86
97
97
90
93
93
90
86
85
85
85
83
81
84
85
79
77
77
77
80
84
81
83
87
84
80
77
76
76
79
84
88
88
76
68
67
64
69
79
81
82
82
81
80
82
81
82
83
86
87
87
87
86
85
83
82
84
86
89
93
87
76
71
74
78
80
81
76
74
72
72
71
72
80
89
88
90
89
87
86
87
87
86
85
87
87
85
84
81
80
80
80
90
90
89
85
83
81
80
84
80
94
111
130
157
145
127
104
63
54
63
59
57
57
57
63
67
72
79
80
83
85
89
91
99
108
107
101
100
111
129
128
121
117
123
125
119
116
115
113
108
105
101
99
84
93
103
110
113
114
114
114
107
101
99
97
77
71
66
64
74
78
77
120
63
65
60
47
47
59
64
54
61
52
41
33
27
47
69
86
119
108
92
76
83
73
78
92
87
78
71
118
220
211
204
203
203
207
207
207
208
208
209
207
207
206
206
206
204
204
204
204
206
206
206
206
207
207
207
206
206
205
206
206
206
206
205
205
206
206
205
205
204
204
205
205
205
205
205
205
205
205
205
205
205
204
204
204
204
204
204
205
206
206
207
208
209
210
211
211
213
213
214
214
215
215
217
217
217
217
218
218
218
218
218
218
218
218
218
218
218
218
218
218
217
217
217
217
217
217
219
219
219
219
220
220
220
220
220
220
220
220
220
220
220
220
220
220
219
219
219
219
219
219
219
219
218
218
218
218
218
218
218
218
219
219
219
219
219
219
220
220
220
220
221
221
221
221
221
221
220
220
220
220
220
220
220
220
219
219
219
219
219
219
219
219
218
218
218
218
218
218
218
218
218
218
218
218
217
217
216
216
216
216
215
215
215
215
215
215
216
216
216
216
216
216
216
216
214
214
214
214
214
214
214
214
214
214
214
213
212
211
211
211
210
210
210
210
209
209
209
207
206
205
205
205
204
204
202
202
202
202
201
201
202
202
204
204
204
204
206
206
214
214
214
214
214
213
213
212
212
212
213
213
213
213
213
213
213
213
213
213
213
213
213
213
212
212
211
211
211
211
211
211
211
211
211
211
211
211
210
210
210
210
212
212
212
212
212
212
212
212
212
212
212
212
212
212
212
212
212
212
212
212
212
212
212
212
212
212
212
212
212
212
212
212
212
212
211
211
211
211
211
211
211
211
211
211
211
211
211
211
211
211
212
212
212
212
213
213
213
213
213
213
214
214
214
214
214
215
218
206
212
221
181
106
102
101
102
100
99
96
96
95
96
95
94
94
95
99
104
103
100
93
93
89
89
89
89
89
88
88
87
85
85
84
83
83
82
81
81
81
81
83
83
82
82
84
90
91
89
87
88
87
87
87
87
86
86
86
87
88
89
90
91
91
90
87
82
84
83
80
84
88
94
101
90
80
86
86
86
86
90
89
87
87
80
78
101
93
88
96
98
91
94
93
90
86
85
85
85
83
81
84
85
79
78
77
77
78
77
75
77
82
82
80
77
76
76
78
83
87
86
77
69
64
64
69
80
84
83
82
81
80
82
81
82
83
85
86
85
85
86
85
80
79
82
84
90
94
89
80
74
71
77
84
84
75
71
70
70
69
73
77
81
86
91
90
85
78
76
79
88
97
96
96
95
94
93
92
92
91
88
89
86
85
83
81
80
79
64
74
82
96
124
124
117
104
80
50
54
57
55
54
54
60
65
71
67
64
71
79
89
93
99
107
111
103
111
124
135
129
126
121
117
123
111
112
112
111
108
93
73
59
39
50
68
79
117
118
114
90
31
59
100
128
110
100
91
85
79
92
120
198
126
83
76
79
82
52
39
55
45
42
37
33
54
48
36
39
44
63
83
79
84
90
80
80
69
64
76
145
205
205
210
211
205
209
208
208
208
208
209
207
207
206
206
206
204
204
204
204
206
206
206
206
207
207
207
206
206
205
206
206
206
206
205
205
206
206
205
205
204
204
206
206
206
206
207
207
207
207
207
207
207
207
207
207
207
207
207
207
206
206
207
208
209
209
211
211
211
211
214
214
214
214
215
215
215
215
216
216
217
217
217
217
217
217
216
216
216
216
216
216
215
215
215
215
215
216
216
217
218
218
219
219
219
219
219
219
219
219
219
219
219
219
219
219
218
218
218
218
217
217
217
217
217
217
217
217
217
217
218
218
216
217
218
218
218
218
219
219
219
219
220
220
220
220
220
220
220
220
220
220
220
220
220
219
219
218
218
218
218
218
218
218
218
218
217
217
217
217
217
217
217
217
217
217
216
216
216
216
215
215
215
215
215
215
215
215
216
216
216
216
216
216
216
216
214
214
214
214
214
214
214
214
214
214
214
213
212
211
211
211
210
210
210
210
209
209
209
207
206
205
205
205
204
204
202
202
202
202
201
201
202
202
204
203
204
204
206
205
214
214
214
214
214
213
213
212
212
212
213
213
213
213
213
213
213
213
213
213
213
213
213
213
213
213
212
212
211
211
210
211
211
211
210
210
211
211
211
211
211
211
212
212
212
212
212
212
212
212
212
212
212
212
212
212
212
212
212
212
212
212
212
212
212
212
212
212
212
212
212
212
210
210
211
211
211
211
211
211
211
211
210
210
210
210
210
210
210
210
211
211
212
212
212
212
213
213
213
213
213
213
214
214
214
214
213
214
215
209
214
217
171
101
102
102
102
99
99
97
97
96
95
93
94
93
95
99
103
102
100
94
91
89
89
89
88
88
88
88
85
84
84
84
82
82
80
79
79
79
79
80
83
83
82
83
88
89
88
87
87
87
87
86
86
86
86
86
87
87
89
89
90
90
89
86
81
81
83
79
89
91
95
102
79
80
86
86
86
84
91
91
90
89
89
89
89
92
90
94
76
95
96
93
89
87
85
85
85
82
81
82
83
82
80
77
77
78
74
76
78
79
80
80
78
77
76
77
82
86
83
76
68
65
65
69
75
82
81
80
81
81
81
81
83
84
86
86
84
86
88
87
80
81
83
83
87
93
90
83
74
68
70
83
85
78
74
73
70
69
71
75
79
85
87
88
86
78
73
73
80
91
76
80
86
90
91
91
91
91
85
77
84
101
96
99
84
66
78
67
66
77
108
103
98
94
91
64
51
55
55
57
57
57
61
67
65
63
68
77
86
94
97
102
108
108
121
151
151
126
111
108
111
112
109
99
85
75
63
59
54
53
56
61
64
65
87
106
115
109
45
66
95
116
121
86
60
54
93
96
117
170
225
151
88
75
78
54
61
83
32
51
57
46
46
39
14
14
43
62
48
10
47
63
64
63
86
45
60
166
163
187
224
201
206
211
211
209
209
209
210
209
208
207
207
206
206
205
205
205
206
206
206
206
207
207
207
207
206
206
206
206
207
207
207
207
207
207
206
206
206
206
207
207
207
207
207
207
207
207
207
207
207
207
207
207
207
207
207
207
207
207
208
208
208
209
211
211
212
212
213
213
214
214
215
215
214
214
215
215
215
215
214
214
215
215
214
214
214
214
214
214
214
214
214
214
214
214
216
216
217
218
218
219
219
219
219
219
219
219
219
219
219
219
218
218
218
217
216
216
216
216
216
216
215
215
215
215
215
215
215
216
216
216
216
216
216
216
217
217
217
217
219
219
219
219
219
219
219
219
219
219
219
219
219
219
217
217
217
217
218
218
217
217
217
217
217
217
217
217
217
217
217
217
217
217
216
216
215
215
215
215
214
214
214
214
214
214
214
214
214
214
214
214
214
214
213
213
213
213
213
213
213
213
213
213
213
213
212
212
212
212
210
210
210
210
209
209
209
207
206
204
204
204
203
203
202
202
202
202
201
201
202
202
203
203
204
204
205
205
214
214
213
213
213
212
212
212
212
212
213
213
213
213
213
213
213
213
213
213
213
213
213
213
213
213
212
212
211
211
210
210
211
211
210
210
211
211
211
211
211
211
212
212
212
212
212
212
212
212
212
212
212
212
212
212
212
212
212
212
212
212
212
212
212
212
212
212
212
212
212
212
210
210
211
211
209
209
209
209
209
209
209
209
209
209
209
209
209
209
209
209
211
211
211
211
212
212
212
212
212
212
211
211
212
212
213
213
214
213
213
208
161
101
101
102
102
99
98
96
95
93
95
93
93
93
96
100
104
101
98
93
90
89
89
89
88
88
87
85
83
83
83
83
82
81
78
78
78
78
78
80
80
81
81
83
86
87
87
86
86
84
84
83
86
87
88
89
90
90
89
89
88
90
89
86
81
78
80
79
95
100
105
111
70
78
83
83
83
84
89
90
86
88
89
93
92
88
92
92
76
95
96
90
88
86
85
85
85
82
82
82
83
83
82
77
77
79
78
82
82
78
78
78
77
76
75
76
80
82
78
70
62
60
64
69
68
75
78
79
80
80
81
81
83
85
86
86
83
84
87
84
80
81
82
80
84
91
91
87
76
65
65
79
85
82
82
80
73
70
72
77
82
84
85
90
92
88
84
77
71
72
75
80
86
90
91
91
88
91
87
79
82
96
99
106
97
77
82
70
69
81
102
98
92
88
86
69
49
46
54
54
54
54
56
60
69
70
71
74
77
86
91
93
98
114
133
148
138
114
103
92
79
74
70
63
54
48
43
50
62
69
76
80
88
94
99
114
118
108
90
97
108
117
100
72
55
56
85
94
106
144
215
210
151
95
59
55
56
65
47
51
50
42
18
34
61
98
172
186
142
66
8
15
41
67
33
61
150
217
196
167
220
203
212
212
212
211
211
209
210
209
208
207
207
206
206
205
205
205
206
206
206
206
207
207
207
207
206
206
206
206
207
207
208
208
207
207
207
207
207
207
207
207
207
207
207
207
207
207
207
207
207
207
207
207
207
207
207
207
207
207
208
208
208
208
211
211
211
211
211
211
211
211
213
213
212
212
212
212
213
213
213
213
213
213
213
213
213
213
213
213
213
213
213
213
213
214
214
214
215
215
217
217
218
218
218
218
218
218
218
218
218
218
216
216
217
216
215
215
215
215
215
215
214
214
214
214
214
214
214
214
214
214
215
215
215
215
216
216
215
215
216
216
216
216
216
216
217
217
217
217
217
217
217
216
216
215
216
216
217
217
217
217
216
216
216
216
216
216
215
216
216
216
216
215
215
215
215
215
214
214
214
214
214
214
214
214
214
214
214
214
214
214
214
214
213
213
213
213
213
213
213
213
213
213
213
213
212
212
212
212
210
210
210
210
209
209
209
207
206
204
204
204
203
203
202
202
202
202
201
201
202
202
203
203
204
204
205
205
213
213
213
213
213
212
212
210
210
210
212
212
213
213
213
213
213
213
213
213
213
213
213
213
213
213
212
212
212
212
211
211
212
212
211
210
211
211
211
211
211
211
211
211
211
211
211
211
211
211
211
211
211
211
211
211
211
211
212
212
212
212
212
212
212
212
212
212
212
212
212
212
210
210
211
211
209
209
209
209
209
209
209
209
209
209
209
209
209
209
209
209
209
209
209
209
211
211
211
211
211
211
211
211
212
212
211
211
211
211
213
198
152
102
101
102
102
99
98
96
95
92
95
93
93
93
96
102
105
101
96
92
89
89
89
89
88
88
87
84
82
81
83
83
82
80
78
77
78
78
78
78
78
79
82
83
84
84
84
84
86
84
84
83
84
84
86
86
87
87
88
88
88
89
89
86
82
79
81
80
95
97
115
124
70
84
82
82
82
82
90
87
89
98
82
100
99
82
91
91
76
95
96
89
87
86
85
85
85
84
84
84
84
84
83
77
77
80
82
87
87
79
74
74
75
73
74
75
79
80
78
70
62
57
63
67
71
72
74
76
80
80
81
81
84
85
88
88
83
82
82
79
78
80
79
73
78
88
91
92
80
61
60
77
87
86
84
81
78
75
75
73
77
82
85
92
87
88
92
92
81
70
76
80
86
91
91
91
84
91
95
82
78
86
92
104
100
84
88
77
76
87
100
95
90
86
93
90
63
50
46
46
46
48
51
56
59
68
71
73
78
80
85
93
93
101
104
97
88
80
85
77
63
57
52
50
48
48
51
55
57
58
64
73
89
98
115
125
121
106
113
115
119
120
72
56
53
63
72
93
97
117
203
207
217
205
150
86
36
38
31
28
33
43
87
122
179
209
196
219
209
170
83
25
29
41
38
112
195
242
215
180
207
212
212
212
212
211
211
209
210
209
208
207
207
207
206
206
206
206
205
205
205
205
206
206
206
206
206
206
207
207
208
208
208
208
208
208
208
208
208
208
208
208
207
207
207
207
207
207
207
207
206
206
206
206
206
206
207
207
207
207
208
208
208
208
209
209
209
209
211
211
211
211
212
212
212
212
212
212
212
212
212
212
212
212
212
212
213
213
213
213
213
213
213
213
211
213
213
214
215
215
215
217
217
217
217
217
217
217
217
217
216
216
215
215
215
215
214
214
214
214
214
214
213
213
213
213
213
213
213
213
214
214
214
214
214
214
215
215
215
215
216
216
216
216
216
216
217
217
217
217
217
217
217
216
216
215
215
215
216
216
216
216
214
214
214
214
214
214
214
214
215
215
215
215
215
215
215
215
214
214
214
214
214
214
214
214
215
215
215
215
215
215
215
215
213
213
213
213
212
212
212
212
213
213
213
213
212
212
212
212
211
211
211
211
210
210
210
207
206
204
205
205
203
203
202
202
202
202
201
201
202
202
204
204
205
205
206
206
213
213
212
212
212
210
210
210
210
210
212
212
213
213
213
213
213
213
213
213
213
213
213
213
213
213
212
212
212
212
211
211
212
212
211
210
211
211
211
211
211
211
211
211
211
211
211
211
211
211
211
211
211
211
211
211
211
211
212
212
212
212
212
212
212
212
212
212
212
212
212
212
210
210
211
211
209
209
209
209
209
209
209
209
209
209
209
209
209
209
209
209
209
209
209
209
211
211
211
211
211
211
210
211
211
210
211
211
212
212
216
190
139
103
104
105
104
99
98
96
93
91
93
93
93
94
98
103
105
101
96
91
89
89
89
89
88
88
85
83
83
81
82
82
82
80
77
77
78
78
78
78
78
79
82
83
84
84
84
84
84
83
83
82
82
81
80
81
81
82
87
87
84
87
86
86
83
82
83
83
97
95
102
112
72
91
82
82
82
82
87
89
98
99
78
100
99
77
91
92
78
92
94
88
87
87
87
85
82
81
82
84
84
84
83
78
77
79
82
86
89
79
72
69
71
69
68
71
76
79
80
75
67
62
65
65
69
72
76
77
79
79
81
81
84
85
86
86
83
82
79
78
76
79
77
72
77
84
90
93
83
63
59
74
88
88
82
79
82
82
79
73
72
77
83
86
78
79
87
95
94
85
77
76
87
91
93
92
81
88
96
87
77
83
88
99
90
82
89
77
77
88
98
93
88
84
103
108
91
71
43
43
43
43
47
53
56
60
62
69
77
78
80
86
93
91
80
68
65
72
77
78
73
65
59
57
52
47
35
55
72
83
88
100
115
124
125
132
124
103
99
108
120
129
59
49
55
75
68
84
94
107
178
187
201
199
214
197
173
132
106
106
128
159
198
210
210
199
192
198
212
226
173
112
63
48
116
188
167
225
208
211
199
209
213
212
212
211
211
209
210
209
208
207
207
206
206
206
206
206
205
205
205
205
206
206
206
206
206
206
207
207
208
208
208
208
208
208
208
208
208
208
208
208
207
207
207
207
207
207
207
207
206
206
206
206
206
206
207
207
207
207
209
208
208
208
209
209
209
209
209
209
209
209
211
211
211
211
211
211
211
211
211
211
212
212
212
212
213
213
213
213
211
211
211
211
211
213
213
213
214
214
215
215
217
217
217
217
217
217
217
217
217
217
215
215
215
215
214
214
214
214
214
214
213
213
213
213
213
213
213
213
213
213
214
214
214
214
215
215
214
214
215
215
215
215
215
215
216
216
216
216
216
216
216
215
215
214
215
215
215
215
215
215
214
214
214
214
214
214
214
214
214
214
214
214
214
214
214
214
214
214
213
213
213
213
213
213
213
214
214
214
214
213
213
213
213
213
213
212
212
212
212
212
213
212
212
212
211
211
211
211
211
211
210
210
209
209
209
207
206
204
205
205
203
203
203
203
203
203
202
202
203
203
205
205
205
205
206
206
213
212
212
210
210
211
211
210
211
211
212
212
212
212
212
212
212
212
212
212
212
212
212
212
212
212
212
212
212
212
212
212
212
211
211
211
211
211
211
211
209
209
211
211
209
209
209
209
209
209
209
209
209
209
209
209
210
210
210
210
211
211
212
212
213
213
213
213
213
213
212
212
212
212
211
211
211
211
210
210
210
210
209
209
209
209
209
209
209
209
208
208
209
209
209
209
209
209
209
209
209
209
210
210
210
210
211
211
212
212
219
183
124
105
107
111
107
99
97
96
94
92
94
93
94
95
98
103
104
98
94
91
89
89
89
88
88
87
84
82
83
81
81
82
82
78
76
76
78
78
78
79
79
81
81
83
83
84
84
83
84
83
83
82
82
81
80
81
82
88
89
84
83
86
84
84
83
86
86
83
93
98
98
95
81
90
82
82
82
83
85
87
91
95
94
95
95
93
76
96
83
88
91
87
85
86
86
85
80
79
84
85
85
86
87
84
80
79
80
81
91
79
73
68
73
65
64
69
74
77
77
73
65
64
65
68
69
71
76
77
78
79
81
82
83
84
85
83
80
79
77
77
76
77
77
75
78
83
87
91
86
69
62
71
83
86
84
81
84
83
82
79
78
79
83
82
78
78
83
91
95
94
85
77
90
92
96
89
75
86
96
98
82
90
103
119
99
97
87
95
110
81
75
55
84
100
120
90
100
100
58
31
33
23
48
38
38
48
53
55
62
70
64
80
80
59
65
87
95
87
78
82
78
68
59
52
45
50
60
80
98
106
111
122
131
130
122
106
98
105
109
115
136
78
45
48
57
59
70
77
88
99
158
208
202
198
205
204
204
207
209
209
208
205
204
204
205
206
206
206
205
204
204
203
190
181
189
198
201
202
205
214
204
209
213
211
211
210
209
208
208
207
207
206
206
206
206
204
203
203
204
204
204
204
204
204
205
205
206
206
206
206
207
207
208
208
208
208
208
208
209
209
209
209
208
208
208
207
207
206
206
206
206
206
206
206
206
206
206
206
206
206
207
207
207
207
207
207
209
209
210
210
209
209
211
211
210
210
211
211
211
211
211
211
211
211
211
211
211
211
211
211
212
212
212
212
211
211
211
211
214
214
214
216
216
216
217
217
216
216
216
216
215
215
214
214
214
214
213
213
213
213
213
213
212
212
212
212
212
212
212
212
213
213
213
213
213
213
214
214
214
214
214
214
216
216
216
216
217
217
217
217
217
217
217
216
216
214
214
214
214
214
214
214
214
214
213
213
213
213
213
213
214
214
214
214
214
214
213
213
213
213
213
213
212
212
213
213
213
213
213
213
213
213
212
212
211
212
210
210
210
210
210
209
210
210
210
210
209
209
207
208
207
207
207
207
206
206
206
205
204
204
205
205
203
203
204
204
202
202
202
202
203
203
204
204
205
205
205
205
213
212
210
209
210
210
210
210
211
211
212
212
212
212
212
212
212
212
212
212
212
212
212
212
212
212
212
212
212
212
212
212
212
211
211
211
211
211
211
211
209
209
211
211
209
209
209
209
209
209
209
209
209
209
209
209
210
210
210
210
211
211
212
212
213
213
213
213
213
213
212
212
212
212
211
211
211
211
210
210
210
210
209
209
209
209
209
209
209
209
208
208
209
209
209
209
209
209
209
209
209
209
209
209
209
209
211
211
212
212
218
178
114
102
105
111
106
97
96
97
93
92
91
93
95
97
99
102
103
97
93
89
89
89
89
88
88
87
84
82
83
81
81
81
78
76
75
76
78
78
78
79
79
81
81
83
83
84
84
83
83
82
82
81
81
81
82
83
84
88
90
84
83
87
87
86
82
84
84
81
88
102
100
83
80
80
82
82
83
83
84
85
86
89
90
92
91
91
83
102
84
85
87
87
86
85
85
82
80
80
84
85
85
90
96
96
90
84
79
79
91
80
81
75
82
72
71
76
81
81
75
69
65
65
64
67
69
72
74
76
77
78
81
82
83
83
81
78
78
77
77
76
76
76
76
76
79
81
84
88
87
78
77
78
76
78
85
87
91
87
84
83
83
83
83
82
82
84
88
93
96
97
94
88
94
92
93
80
72
87
101
104
90
103
132
160
134
97
88
102
117
82
82
88
92
47
83
80
113
122
83
47
49
46
44
30
26
42
39
47
59
67
65
76
80
70
90
91
81
75
71
61
54
58
50
35
44
77
106
117
121
114
114
124
129
123
116
103
100
110
98
114
126
72
44
48
55
59
70
75
84
96
148
203
201
200
202
201
201
203
206
206
205
205
205
205
206
206
206
206
207
207
210
214
206
195
197
202
203
204
206
207
209
209
210
210
210
209
208
207
207
206
206
205
205
204
206
204
203
203
204
204
204
204
204
204
205
205
206
206
206
206
207
207
208
208
208
208
208
208
209
209
209
209
208
208
208
207
207
206
206
206
206
206
206
206
206
206
206
206
206
206
207
207
207
207
207
207
209
209
209
209
208
208
210
210
209
209
210
210
210
210
210
210
210
210
210
210
208
208
208
208
209
209
209
209
211
211
211
211
212
213
214
214
216
216
217
217
216
216
216
215
215
215
214
214
214
214
213
213
213
213
213
213
212
212
212
212
212
212
212
212
212
211
213
213
213
213
214
214
213
213
213
213
214
214
214
214
216
216
216
216
216
216
216
214
214
213
214
214
214
214
214
214
214
214
213
213
213
213
213
213
212
212
212
212
212
212
212
212
211
211
211
211
210
210
211
211
210
210
210
210
211
210
207
206
205
204
201
200
200
200
201
202
203
205
206
206
205
205
205
205
204
204
204
204
202
202
202
202
201
201
202
202
202
202
202
202
202
202
201
201
202
202
204
204
203
203
204
204
212
211
210
209
210
210
210
208
210
210
211
211
212
212
212
212
212
212
212
212
212
212
212
212
212
212
212
212
212
212
212
212
212
211
211
209
209
209
209
209
209
209
208
208
208
208
208
208
208
208
208
208
208
208
208
208
209
209
210
210
211
211
212
212
213
213
213
213
213
213
212
212
212
212
211
211
211
211
210
210
210
210
209
209
209
209
209
209
209
209
208
208
208
208
208
208
208
208
208
208
208
208
209
209
209
209
210
210
211
211
214
174
110
98
100
106
102
92
96
97
93
92
91
93
95
100
102
104
100
93
90
89
89
89
89
88
88
87
84
81
81
80
81
78
77
75
75
75
79
79
78
78
79
81
80
81
83
84
84
83
84
82
82
81
81
81
82
83
84
86
87
83
86
93
91
86
81
80
80
78
87
105
104
86
78
74
82
82
83
83
84
85
89
90
92
93
95
95
84
105
91
89
88
87
86
82
80
80
82
85
86
86
86
90
96
96
90
84
80
79
91
80
81
75
82
72
71
76
81
81
73
66
64
65
67
67
69
72
73
73
77
78
79
81
82
81
79
77
76
76
74
74
74
76
76
76
76
77
82
89
89
86
89
86
78
76
79
85
93
92
86
83
83
83
82
82
82
86
93
95
94
92
95
100
91
94
88
65
72
85
94
91
97
92
105
134
146
113
107
96
111
101
128
107
109
94
89
98
132
128
101
52
55
66
58
38
31
42
48
55
67
72
74
77
88
96
105
87
72
70
63
49
42
46
44
42
67
101
115
113
112
106
108
120
124
119
108
99
103
117
104
120
110
51
44
48
54
59
71
80
85
98
136
194
198
201
198
197
199
200
202
203
204
204
205
205
206
206
206
206
207
206
209
216
214
205
204
206
206
207
208
208
209
209
210
209
209
207
207
206
206
205
205
204
204
204
204
204
203
203
203
203
203
203
203
203
204
204
206
206
206
206
207
207
207
207
208
208
208
208
209
209
209
209
208
208
208
207
207
206
206
206
204
204
204
204
204
204
206
206
206
206
207
207
207
207
207
207
206
206
207
207
207
207
207
207
208
208
208
208
208
208
208
208
209
209
209
209
209
209
209
209
208
208
209
209
209
209
210
211
211
213
213
214
215
215
216
216
214
214
214
214
214
214
213
213
213
213
212
212
211
211
212
210
210
210
210
210
210
210
210
210
212
212
211
211
212
212
213
213
213
213
213
213
214
214
214
214
216
216
216
216
216
216
216
214
214
213
213
213
213
213
213
213
211
210
210
210
210
210
210
210
211
211
211
211
211
211
211
211
211
210
210
210
210
210
211
211
210
210
211
210
210
210
212
212
213
213
214
213
214
214
212
211
210
209
207
207
206
206
207
207
206
206
205
205
204
204
205
204
203
203
205
205
205
205
205
205
205
204
203
203
204
204
204
204
204
204
204
204
212
211
209
208
208
208
208
208
210
210
211
211
211
211
211
211
211
211
211
211
211
211
211
211
211
211
211
211
211
211
211
211
211
209
208
207
207
207
207
207
207
207
208
209
208
209
209
209
209
208
208
207
207
207
207
208
208
209
209
210
210
211
212
212
213
213
213
213
213
213
212
212
212
212
209
209
209
209
209
209
209
209
209
209
209
209
209
209
209
209
208
208
208
208
208
208
208
207
207
205
207
207
207
208
209
209
209
209
210
211
210
166
108
98
99
103
98
91
95
93
89
91
93
93
96
100
103
103
97
92
89
89
89
89
88
87
87
86
83
80
80
77
77
76
76
75
74
75
78
77
77
77
78
79
80
81
83
84
86
84
83
81
81
80
81
81
83
83
83
83
83
82
86
93
93
86
80
78
76
76
86
107
110
93
82
80
82
82
82
81
86
88
89
89
99
98
98
98
87
105
90
91
91
87
86
80
77
77
81
85
86
87
85
84
86
85
82
79
79
80
92
81
76
68
75
65
64
67
70
73
69
63
61
66
70
70
70
70
71
71
74
77
79
81
81
78
76
73
73
72
72
73
74
74
75
75
75
76
81
87
88
85
85
85
84
78
73
75
87
88
85
83
83
85
87
87
85
86
88
87
83
81
86
102
83
93
86
57
78
85
81
71
91
96
71
97
153
159
132
81
95
125
142
135
164
167
135
135
144
115
102
46
48
67
63
52
55
60
68
71
79
81
87
85
100
120
100
82
70
73
63
63
57
44
46
65
89
98
89
91
98
103
106
115
121
115
102
98
107
117
122
109
84
42
45
48
53
59
69
80
85
95
123
189
199
203
197
196
197
199
200
201
204
204
204
204
206
206
205
205
206
204
204
208
211
206
208
210
210
209
208
207
207
207
209
209
209
207
207
206
206
205
205
204
204
202
203
202
202
202
201
201
202
202
202
202
203
203
204
205
205
205
206
206
207
207
206
206
207
207
208
208
208
208
207
207
207
206
206
205
205
205
203
203
203
203
203
203
204
204
204
204
206
206
206
206
206
206
205
205
203
204
203
203
205
205
204
204
206
206
206
206
207
207
206
206
206
206
207
207
207
207
207
207
208
208
208
208
210
210
210
210
211
211
213
213
214
214
213
213
213
213
213
213
213
213
212
211
211
211
210
210
210
209
209
209
208
208
209
209
210
210
208
208
209
209
209
209
210
210
210
210
210
210
211
211
213
213
213
213
213
213
213
213
213
212
212
211
212
211
210
210
211
211
209
209
209
208
208
208
208
208
208
208
209
209
209
209
210
210
207
207
209
207
206
206
206
211
211
211
211
211
211
210
209
207
207
206
205
204
204
203
204
204
205
204
205
205
204
204
204
204
203
203
203
203
202
202
202
202
201
201
202
203
203
203
203
203
203
202
201
201
202
202
203
203
203
203
204
204
212
211
209
208
208
208
208
208
208
208
209
209
211
211
211
211
211
211
210
210
210
210
210
210
209
209
210
210
209
209
209
209
209
208
207
206
206
206
206
207
207
209
208
208
209
209
209
209
209
208
207
207
207
207
207
207
208
208
209
209
210
210
212
212
211
211
211
211
212
212
210
210
209
209
209
209
208
208
208
208
209
209
209
209
210
210
210
210
209
209
209
209
208
208
208
208
208
207
206
205
206
206
206
206
207
207
208
208
208
208
208
157
108
103
102
101
96
94
95
92
88
91
91
93
97
100
103
102
97
91
89
89
89
87
87
85
84
83
83
79
78
76
76
75
76
75
75
75
77
76
76
76
77
78
79
80
84
85
87
86
84
82
81
80
80
82
84
84
82
83
83
83
85
88
88
84
79
76
76
78
87
104
107
90
82
86
81
81
82
82
89
89
88
90
92
86
86
93
93
101
86
93
91
87
86
80
77
78
80
83
86
90
85
78
79
83
82
82
80
82
94
84
78
65
73
67
65
65
67
68
69
65
64
65
68
70
69
69
69
70
73
78
79
79
80
77
75
75
71
71
72
72
73
73
75
73
73
75
80
88
87
85
83
84
84
79
74
78
87
86
85
84
84
87
92
93
88
85
84
83
81
76
80
99
80
88
80
57
85
89
86
70
81
96
72
83
143
185
135
140
106
105
99
157
165
173
126
130
151
116
124
52
39
50
50
48
55
66
83
84
80
80
65
83
116
139
115
79
66
64
62
62
61
53
62
86
96
92
94
87
94
101
103
112
118
112
98
103
110
113
128
121
74
55
60
48
50
60
66
76
83
90
108
184
199
204
196
196
198
198
200
200
202
202
204
204
204
204
205
205
206
204
204
206
208
206
208
209
210
209
208
206
206
206
207
207
207
206
206
204
205
204
203
202
202
202
202
201
201
201
201
201
201
201
202
202
202
202
203
203
204
204
205
205
204
204
206
206
205
205
206
206
206
206
206
206
206
205
205
204
202
202
203
203
202
202
202
202
203
203
203
203
205
205
205
205
204
204
204
204
202
202
202
202
203
204
204
204
205
205
204
204
204
204
205
205
205
205
206
206
206
206
207
207
208
208
208
208
209
209
209
209
212
211
213
213
214
214
213
213
213
213
213
212
212
211
210
210
210
209
209
209
209
209
207
206
206
206
206
206
206
206
207
207
208
208
208
208
209
209
209
209
211
211
212
212
212
212
212
212
213
213
213
213
213
212
212
210
210
210
209
208
208
207
208
208
207
207
207
207
207
207
207
207
207
207
207
206
206
204
206
206
206
204
204
205
206
202
200
200
201
204
206
204
199
198
202
205
205
204
204
202
202
199
198
197
197
196
209
205
199
198
200
202
202
202
202
202
203
204
204
204
207
209
210
211
212
212
212
212
212
212
214
215
216
215
212
208
202
202
212
211
209
208
208
208
208
208
208
208
209
209
209
209
209
209
209
209
209
209
209
209
209
209
209
209
208
208
208
208
208
208
208
207
206
205
205
205
205
205
206
206
206
206
207
207
207
207
207
207
206
206
206
206
206
207
207
208
208
209
209
210
211
212
211
211
211
211
212
212
210
210
209
209
208
208
207
207
207
207
207
207
208
208
208
208
208
208
207
207
206
206
205
205
206
206
206
205
205
203
205
205
204
204
205
205
205
206
206
206
205
149
105
103
104
101
96
96
95
91
86
91
93
93
97
99
102
98
93
90
89
89
89
87
86
84
84
83
81
77
77
75
75
73
75
75
75
75
76
75
75
75
76
77
79
80
83
84
87
86
82
81
80
80
81
81
82
82
84
84
85
84
86
87
86
84
79
77
79
82
93
105
102
84
80
88
81
81
82
83
85
87
87
88
78
98
111
108
88
102
87
90
90
86
83
80
84
86
86
84
84
90
87
78
78
82
82
82
80
82
94
84
78
64
72
68
67
67
67
68
68
64
63
63
64
67
69
66
67
69
72
78
79
79
77
73
73
73
69
69
72
75
75
73
73
72
72
73
79
85
85
83
83
83
83
80
78
84
87
85
84
84
85
85
86
86
85
84
84
84
85
82
80
88
86
84
74
63
87
88
87
79
78
91
92
86
116
160
159
148
105
106
87
105
99
121
140
132
149
119
112
56
52
61
52
45
50
67
73
77
77
81
85
92
108
119
109
78
68
74
69
57
57
72
90
106
95
95
100
94
94
100
102
111
117
111
100
108
115
114
129
121
74
55
60
48
49
60
62
70
80
87
101
180
198
201
198
198
198
198
200
200
202
202
202
202
204
204
204
204
205
205
206
206
208
207
208
208
209
208
206
205
205
205
206
206
206
204
204
203
204
202
202
201
201
200
200
199
199
199
199
199
199
199
200
200
200
200
201
201
201
201
202
202
202
202
203
203
203
203
204
204
204
204
203
203
204
202
202
201
201
201
200
200
200
200
200
200
201
201
201
201
202
202
202
202
201
201
201
201
200
200
200
200
201
201
201
201
202
202
202
202
202
202
201
201
201
201
202
202
203
203
204
204
207
207
207
207
208
208
209
209
211
211
211
211
213
213
212
212
212
212
212
212
211
211
209
209
208
208
208
208
209
207
206
204
205
205
204
204
204
204
206
206
207
207
206
206
208
208
208
208
209
209
211
211
211
211
212
212
212
212
212
212
212
211
210
209
209
209
208
207
208
207
206
206
206
204
204
205
204
204
204
204
204
204
204
204
203
203
203
204
203
204
204
209
217
221
218
214
211
211
210
208
204
202
207
211
211
210
209
208
208
205
204
203
203
203
193
189
183
178
176
176
174
172
169
167
167
167
167
168
170
170
171
172
172
172
172
172
173
173
173
174
176
178
185
192
197
199
212
211
209
208
208
208
208
208
208
208
209
209
209
209
209
209
209
209
209
209
209
209
209
209
209
209
208
208
208
208
208
208
208
207
206
205
205
205
205
205
205
205
203
203
203
203
203
203
205
205
204
204
206
206
206
207
207
208
208
209
209
209
210
210
211
211
211
211
210
210
209
209
208
208
208
208
207
207
207
207
207
206
205
203
204
204
205
205
203
203
202
202
201
201
201
201
202
202
202
202
203
202
202
201
201
201
202
202
203
203
201
144
100
98
104
101
97
97
96
91
86
91
92
93
97
101
102
97
91
89
89
89
89
87
86
84
84
83
81
77
77
75
75
73
75
75
76
75
76
73
75
76
77
78
80
80
83
84
84
82
80
79
80
80
80
81
81
83
86
88
87
87
86
88
89
85
76
73
77
83
92
103
94
78
77
89
81
83
83
81
81
81
80
81
79
122
135
108
77
102
87
83
84
86
80
81
84
85
86
82
79
87
90
83
80
80
80
79
79
79
91
79
73
59
67
65
65
67
67
67
64
60
58
60
62
65
68
65
65
68
72
77
78
78
73
71
72
72
69
69
72
74
74
72
73
72
72
72
76
80
80
79
81
83
83
81
82
89
87
86
84
85
85
84
83
84
87
88
90
90
90
88
81
76
95
81
69
73
86
80
82
83
83
87
87
72
73
119
173
168
114
95
93
87
77
111
161
135
145
122
93
59
67
73
72
53
44
54
59
67
76
83
93
95
104
111
101
75
71
82
80
68
68
81
94
100
98
100
100
93
91
97
99
108
113
110
107
115
122
120
130
120
75
55
60
48
48
60
60
64
76
83
97
177
195
198
198
198
198
198
200
200
202
202
202
202
204
204
204
204
205
205
206
206
208
208
208
208
209
208
207
206
206
206
206
206
206
205
205
204
204
202
202
201
201
200
200
199
199
199
199
199
199
199
199
199
200
200
201
201
201
201
202
202
202
202
203
203
203
203
204
204
204
204
203
203
204
202
202
201
201
201
200
200
199
199
199
199
200
200
200
200
201
201
201
201
201
201
200
200
200
200
200
200
200
200
201
201
201
201
201
201
201
201
201
201
201
201
201
201
202
202
203
204
207
207
207
207
208
208
209
209
211
211
211
211
213
213
211
211
211
211
211
211
210
210
209
209
208
208
208
208
209
206
205
204
204
204
204
204
205
205
204
204
206
206
206
206
208
208
208
208
209
209
211
211
211
211
212
212
212
212
212
212
212
211
211
210
210
210
208
207
207
206
206
205
205
203
203
203
203
203
203
203
203
203
203
203
203
204
202
202
202
201
201
202
205
206
206
201
193
188
184
181
175
171
155
155
155
155
137
137
137
137
118
118
118
118
109
104
98
93
90
90
89
87
84
82
82
82
82
82
83
83
83
83
82
82
82
82
82
82
83
84
85
85
86
89
94
99
212
211
209
208
208
208
208
208
208
208
208
208
207
207
207
207
207
207
207
207
207
207
207
207
207
207
207
207
206
206
206
206
206
205
204
202
203
203
203
202
202
202
201
201
201
201
201
201
202
202
203
203
204
205
205
206
206
207
207
207
207
208
209
209
209
209
209
209
209
209
208
208
208
208
207
207
206
206
206
206
206
204
203
202
202
202
202
202
201
201
200
200
199
199
199
199
200
200
201
201
202
201
200
198
199
199
200
201
199
201
193
137
98
94
102
101
97
97
95
90
86
91
91
92
97
100
100
95
90
89
88
88
87
86
85
83
83
82
81
77
77
76
76
75
76
76
76
75
73
72
73
76
77
80
80
81
81
81
82
80
78
78
79
78
78
80
81
83
87
89
86
86
86
88
91
87
77
73
75
75
86
96
90
75
77
89
79
84
84
79
77
77
77
77
93
146
146
93
64
99
84
73
80
80
80
78
76
82
82
77
77
84
88
84
82
79
78
77
77
77
85
76
70
55
66
60
61
65
64
64
62
57
56
58
60
62
64
65
64
65
70
76
77
74
70
69
70
70
69
70
69
73
73
71
73
76
73
69
71
77
77
77
80
84
85
85
84
86
86
86
85
85
85
84
87
97
102
99
96
96
96
95
87
76
92
81
72
74
84
84
85
86
86
92
98
93
86
102
146
193
145
92
105
116
109
135
176
138
142
126
80
61
80
84
90
68
54
54
50
60
73
84
84
91
107
120
96
72
74
82
83
81
79
75
80
93
98
94
95
92
88
93
97
106
112
110
112
118
125
126
130
119
75
55
60
47
47
60
61
63
71
81
89
173
193
197
198
198
198
198
200
200
202
202
202
202
204
204
204
204
204
204
205
205
206
206
206
206
207
207
206
206
206
206
205
205
204
202
202
201
201
200
200
199
199
198
198
196
198
198
196
196
196
196
197
197
198
198
199
199
199
199
200
200
201
201
201
201
201
201
202
202
202
202
201
201
201
200
200
199
199
199
198
198
198
198
198
198
199
199
199
199
200
200
200
200
200
200
199
199
199
199
199
199
200
200
200
200
200
200
200
200
201
201
201
201
201
201
201
201
202
202
203
203
206
206
206
206
208
208
207
207
209
209
210
210
211
211
211
211
211
211
211
211
210
210
209
209
208
208
208
208
209
206
205
204
204
204
204
204
205
205
204
204
206
206
205
205
208
208
208
208
209
209
211
211
211
211
212
212
212
212
212
212
212
211
211
210
210
209
207
207
206
206
203
203
204
203
203
201
200
200
203
203
204
204
203
203
203
204
202
203
202
200
193
182
171
159
144
132
121
112
105
100
96
92
78
78
79
79
80
82
84
85
85
85
86
86
99
94
88
87
90
92
91
91
91
92
93
93
92
92
93
92
91
90
88
88
88
88
88
88
90
91
92
93
93
90
86
83
211
210
209
208
208
208
208
208
207
207
207
207
206
206
206
206
206
206
206
206
206
206
206
206
205
205
206
206
205
205
205
205
205
203
202
201
201
201
201
201
201
201
202
202
202
202
202
202
202
202
202
203
203
203
203
203
203
203
206
206
206
207
208
208
208
208
208
208
208
208
207
207
206
206
206
206
206
206
206
206
205
205
203
203
202
202
202
202
201
201
201
201
200
200
200
200
200
200
199
201
201
199
199
199
199
197
199
204
195
201
185
128
100
93
101
100
99
97
95
90
87
91
92
93
97
100
101
96
91
88
86
86
86
85
84
82
81
79
79
78
78
76
76
76
77
77
75
74
72
71
72
75
78
81
81
81
81
81
81
80
78
79
79
76
76
81
81
83
83
83
85
85
87
88
89
85
81
79
77
71
87
94
87
75
77
84
79
86
87
78
77
76
76
76
78
106
131
69
79
90
75
84
80
74
83
74
73
87
80
78
79
81
84
81
80
78
78
77
76
76
81
77
70
53
70
58
60
63
63
63
61
56
56
57
60
61
63
63
63
64
69
73
76
74
69
68
69
67
65
64
66
73
75
70
72
79
74
66
69
73
73
74
79
84
88
87
85
85
87
87
87
86
86
83
85
101
107
98
97
98
95
94
92
85
90
83
77
78
83
85
87
88
90
96
101
102
95
91
117
150
157
122
78
113
158
188
192
164
128
114
64
56
61
76
96
88
70
62
61
70
87
103
92
113
120
94
78
72
86
89
84
79
75
75
78
86
92
89
91
90
86
87
95
105
111
110
110
121
136
143
132
118
77
54
45
46
46
45
63
64
71
79
78
169
195
197
199
199
198
198
200
200
201
201
201
201
202
202
202
202
204
204
204
204
205
205
205
205
206
206
206
205
204
204
204
204
202
201
201
200
200
199
199
198
198
197
196
195
195
195
195
195
195
195
196
196
196
196
198
198
198
198
199
199
199
199
200
200
200
200
201
201
201
201
200
200
200
199
199
198
197
197
197
197
197
197
197
197
197
196
198
198
198
198
198
198
198
198
198
198
199
199
199
199
199
199
199
199
200
200
200
200
200
200
200
200
200
200
200
200
201
201
202
203
206
206
205
205
206
206
207
207
208
208
209
209
211
211
210
210
210
210
210
210
209
209
209
209
208
208
208
208
208
206
205
204
204
204
204
204
204
204
203
203
204
204
205
205
207
207
206
206
208
208
209
209
209
209
210
210
210
210
210
210
211
210
210
209
208
208
207
205
205
204
204
201
198
197
198
199
199
198
195
198
202
207
212
211
208
206
198
179
146
121
100
89
80
85
90
92
91
85
89
101
101
91
100
94
87
84
88
91
91
91
91
89
89
89
90
90
90
91
92
92
90
89
88
87
88
90
94
96
97
96
93
92
91
91
90
90
90
88
88
87
87
85
84
83
83
82
211
210
209
208
208
208
208
208
207
207
206
206
205
205
205
205
205
205
205
205
205
205
205
205
205
205
203
203
203
203
203
203
203
202
201
200
200
200
200
200
201
201
201
201
202
202
202
202
202
202
202
202
202
202
202
202
203
203
203
203
205
206
207
207
207
207
207
207
207
207
206
206
206
206
204
204
204
204
205
205
205
205
203
203
202
202
202
202
201
201
201
201
200
200
200
200
200
200
199
199
199
199
199
199
199
197
199
206
194
203
183
125
101
93
100
100
99
97
94
89
87
90
92
93
97
99
100
96
90
87
86
85
85
84
83
81
81
79
78
77
77
74
72
71
72
73
73
73
71
69
71
75
78
81
83
83
81
80
80
79
78
79
79
75
75
81
83
83
83
81
83
84
87
86
85
82
81
81
79
76
94
94
84
73
74
79
78
88
88
78
80
80
79
79
79
92
131
110
72
105
91
83
80
77
86
77
80
93
77
77
78
79
81
79
79
78
77
77
76
77
78
78
74
58
77
59
59
62
62
62
61
57
57
58
60
60
62
62
61
63
67
72
72
70
68
68
68
67
64
63
66
75
75
69
71
77
73
69
71
73
73
74
77
81
87
87
84
84
89
89
89
87
87
83
79
92
98
90
92
95
94
93
92
91
90
84
80
80
84
80
81
92
101
93
90
100
103
92
101
129
157
147
111
103
128
155
170
157
135
123
74
66
71
85
93
91
79
66
59
62
77
92
93
110
111
88
77
81
89
88
84
74
68
75
82
83
84
86
89
89
87
87
95
104
110
110
120
128
137
143
133
117
77
54
45
45
45
45
61
66
68
75
73
169
197
198
198
199
198
198
199
200
201
201
201
201
202
202
202
202
202
202
202
202
204
204
204
204
205
205
205
205
204
204
202
202
201
200
200
199
199
197
198
197
197
195
195
194
194
194
194
194
194
194
195
195
195
195
197
197
196
196
198
198
198
198
199
199
199
199
200
200
200
200
199
199
199
198
198
197
195
195
195
195
195
195
195
195
195
195
196
196
196
196
197
197
197
197
196
196
198
198
198
198
199
199
198
198
199
199
199
199
200
200
200
200
200
200
200
200
201
201
202
202
204
204
204
204
205
205
206
206
207
207
208
208
209
209
210
210
210
210
210
210
209
209
209
209
208
208
208
208
208
206
205
204
204
204
204
204
204
204
203
203
204
204
204
204
207
207
206
206
208
208
209
209
209
209
210
210
210
210
210
210
211
210
210
209
208
207
206
205
205
207
209
204
191
185
187
194
201
202
200
198
202
207
199
178
148
122
102
93
84
84
88
92
94
96
100
97
89
85
90
100
100
91
93
91
89
87
90
91
92
91
90
89
89
89
90
90
90
90
92
91
91
90
90
89
90
91
92
93
95
93
92
91
91
91
90
90
90
88
88
87
88
88
90
91
93
90
211
210
209
208
208
208
208
208
207
207
206
206
205
205
205
205
205
205
205
205
205
205
204
204
204
204
203
203
203
203
203
203
203
202
202
201
201
201
201
201
201
201
202
202
202
202
202
202
202
202
202
202
202
202
202
202
203
203
203
203
204
205
206
206
206
206
206
206
206
206
205
205
205
205
204
204
206
206
206
206
206
206
204
204
204
204
205
204
203
202
202
201
201
200
200
200
200
200
200
201
201
201
201
201
200
198
200
207
195
204
182
122
100
94
100
100
100
99
94
89
88
90
92
94
97
99
99
96
90
86
86
85
85
84
83
81
81
79
79
78
77
74
72
71
72
73
74
73
72
69
72
76
80
83
83
83
81
80
80
79
78
79
79
75
75
81
83
83
83
81
83
84
86
85
82
79
77
77
81
84
102
94
81
69
71
75
79
90
89
78
87
87
86
86
85
80
137
163
78
112
97
90
86
79
90
84
85
89
70
79
82
82
81
78
78
79
79
77
75
76
78
79
78
63
82
64
59
61
61
61
60
56
56
57
60
60
62
62
62
64
67
70
70
66
66
66
67
65
64
63
66
74
74
69
69
69
71
76
76
73
73
73
73
77
81
84
84
84
89
90
90
89
90
85
83
88
92
93
92
92
91
91
90
90
89
86
85
84
83
78
77
90
103
100
96
99
104
100
83
108
158
173
151
118
115
145
177
166
147
128
80
71
77
90
89
96
88
69
60
55
65
81
91
102
100
79
79
91
94
88
83
74
68
74
79
79
79
80
84
87
90
92
97
106
109
112
134
138
140
140
134
116
78
54
46
46
46
46
53
64
66
72
75
171
199
199
198
199
198
198
199
200
201
201
201
201
202
202
202
202
201
201
201
201
202
204
204
204
205
205
205
205
204
204
202
202
201
200
200
199
199
198
198
197
197
195
195
194
194
194
194
194
194
194
195
195
195
195
197
197
196
196
198
198
198
198
199
199
199
199
200
200
200
200
199
199
199
198
198
197
195
195
195
195
194
194
194
194
194
195
196
196
195
195
195
195
195
195
196
196
198
198
198
198
199
199
198
198
199
199
199
199
200
200
200
200
200
200
200
200
201
201
202
202
204
204
204
204
205
205
206
206
207
207
208
208
209
209
211
211
211
211
211
211
209
209
209
209
208
208
208
208
208
207
206
205
205
205
205
205
205
205
205
205
205
205
206
206
207
207
206
206
208
208
209
209
209
209
211
211
211
211
211
211
211
209
210
209
209
207
206
204
203
201
200
199
199
202
204
202
194
199
205
190
155
126
104
92
81
76
78
79
83
89
93
94
96
98
101
98
90
87
94
103
102
91
87
89
92
94
92
91
91
91
90
89
90
90
91
91
91
91
92
92
93
92
92
92
93
92
91
91
90
90
91
91
91
91
90
90
91
90
90
88
90
89
90
91
92
92
211
210
209
208
208
208
208
208
207
207
206
206
205
205
205
205
205
205
205
205
205
205
204
204
204
204
203
203
203
203
203
203
203
202
202
201
201
201
201
201
201
201
202
202
202
202
202
202
202
202
202
202
202
202
202
202
203
203
203
203
204
204
206
206
206
206
206
206
206
206
205
205
205
205
204
204
206
206
206
206
206
206
204
204
204
204
204
204
203
202
202
201
201
200
200
200
200
200
200
201
201
201
201
201
200
198
200
207
195
204
181
120
99
95
100
100
100
97
91
88
88
91
93
94
97
99
98
94
90
86
85
84
84
84
83
81
81
79
79
78
78
77
77
77
78
77
75
73
72
71
72
76
80
82
81
81
81
80
80
79
76
78
78
75
75
80
81
81
81
81
81
84
85
84
78
75
73
75
79
86
100
90
79
68
70
73
81
89
89
81
90
90
90
90
94
80
133
179
94
105
90
98
94
78
87
84
78
82
73
90
89
82
79
77
77
79
79
76
72
70
72
76
78
62
82
65
59
60
60
60
58
56
55
57
57
58
61
62
62
64
68
69
68
67
67
64
63
63
63
62
65
74
74
69
67
65
69
81
83
78
76
72
71
74
79
81
83
84
87
89
87
89
91
91
91
92
98
98
92
90
90
87
87
88
88
85
84
83
82
82
81
78
92
121
124
95
81
97
83
93
137
173
178
147
144
169
188
172
147
128
79
71
77
90
93
95
91
78
60
53
59
71
91
88
81
82
85
94
91
88
82
72
68
71
74
75
75
75
79
86
92
93
99
109
112
114
144
145
142
138
134
116
78
54
46
46
46
46
50
61
67
69
75
171
196
198
198
198
198
198
200
200
200
200
200
200
201
201
199
199
200
200
200
200
201
202
202
204
205
205
205
205
204
204
201
201
200
199
199
199
199
198
198
197
197
195
195
194
194
194
194
194
194
194
195
195
195
195
197
197
196
197
198
198
198
198
199
199
199
199
200
200
200
200
199
199
199
198
198
197
195
195
195
195
194
194
194
194
195
195
196
196
195
195
195
195
195
195
196
196
198
198
198
198
199
199
198
198
199
199
199
199
200
200
200
200
200
200
200
200
201
201
202
202
204
204
204
204
205
205
206
206
207
207
208
208
209
209
211
211
211
211
211
211
209
209
209
209
208
208
208
208
208
207
206
205
205
205
205
205
205
205
205
205
205
205
206
206
207
207
206
207
208
208
209
209
209
209
211
211
211
211
211
211
211
211
212
210
205
208
207
205
205
206
207
202
194
190
193
197
199
201
111
102
88
79
77
82
86
90
89
78
78
87
89
86
87
90
96
96
93
90
95
104
102
91
81
87
94
97
93
91
90
92
90
89
90
90
91
91
91
91
93
93
94
94
95
96
96
94
91
90
89
89
88
88
90
90
90
90
91
90
90
89
89
86
84
83
83
86
211
210
209
208
208
208
208
208
207
207
206
206
204
204
205
205
205
205
205
205
205
205
205
205
205
205
205
205
205
205
205
205
205
203
202
201
201
201
201
201
202
202
202
201
203
203
203
203
203
203
203
203
203
203
203
203
203
203
203
203
204
204
205
204
206
206
206
206
206
204
204
203
204
204
206
206
206
206
205
205
205
205
204
205
205
205
205
203
203
202
201
200
200
199
199
199
199
199
201
201
202
202
202
202
201
201
200
208
196
205
179
117
98
97
100
100
99
95
90
88
89
92
94
95
97
98
98
95
91
86
85
84
84
83
83
83
82
82
80
80
80
78
78
76
76
75
74
73
72
72
73
77
78
80
80
81
80
80
80
78
76
74
76
74
76
78
79
80
80
80
82
84
86
83
76
70
71
73
77
83
93
86
76
70
72
73
82
86
87
85
91
92
93
93
79
85
90
155
98
111
76
112
129
85
84
84
79
85
74
91
90
82
79
75
75
79
79
71
68
66
67
73
74
56
79
66
58
58
58
58
57
53
52
53
57
58
61
63
63
64
66
67
68
65
65
62
62
63
63
62
65
74
74
67
66
65
67
81
85
81
77
72
70
73
78
81
84
85
86
87
86
88
92
95
95
95
101
100
93
90
90
83
85
87
86
85
83
81
80
84
85
81
79
114
125
101
73
90
97
93
104
138
143
165
176
192
200
185
156
123
69
79
91
95
102
99
101
88
84
73
73
84
88
88
83
83
87
90
90
81
76
73
71
71
73
75
77
76
77
87
95
92
99
113
121
123
146
155
155
152
105
90
67
47
47
47
47
47
50
59
67
71
77
171
195
193
197
197
197
197
199
199
200
200
199
199
198
198
197
197
197
197
197
197
200
200
200
201
204
204
204
202
201
200
201
201
199
198
199
197
197
196
196
195
195
193
194
193
193
193
193
193
193
193
195
195
195
195
196
196
198
198
198
198
199
199
200
200
200
200
201
201
201
201
200
200
200
199
199
198
197
197
197
197
195
195
195
195
195
195
196
196
197
197
197
197
197
197
195
195
197
197
198
198
199
199
197
197
199
199
199
199
200
200
200
200
200
200
200
200
201
201
202
202
203
203
204
204
204
204
204
204
205
205
206
206
208
208
209
209
209
209
209
209
209
209
208
208
208
208
208
208
208
207
205
205
206
206
205
205
206
206
204
204
205
205
206
206
207
207
207
207
207
207
208
208
208
208
209
209
209
209
210
210
210
211
210
208
203
193
191
197
207
210
207
198
208
201
205
155
95
71
77
79
82
85
89
90
89
89
87
87
88
89
87
87
88
89
92
93
94
94
97
105
102
90
104
98
92
83
78
82
90
94
102
100
91
90
91
93
93
93
93
93
94
95
96
96
96
94
93
90
90
89
90
89
91
91
91
91
91
90
90
89
89
87
85
84
84
85
211
210
209
208
208
208
208
208
208
208
206
206
204
204
205
205
205
205
206
206
206
206
206
206
206
206
205
205
205
205
205
205
205
205
202
202
202
202
202
202
203
203
201
203
204
204
204
204
204
204
205
203
203
203
203
203
203
203
203
203
204
205
204
204
206
206
206
206
206
204
204
204
204
204
206
206
206
206
205
205
205
205
205
205
205
205
205
205
203
203
202
202
201
201
201
201
202
202
202
202
203
203
203
203
203
202
200
207
198
205
178
112
96
98
100
100
98
93
89
86
89
93
94
95
97
98
98
95
91
86
84
83
83
83
83
82
81
81
78
78
78
75
72
69
69
69
71
71
72
73
75
77
80
80
79
79
80
80
80
77
74
73
74
74
74
76
78
80
80
80
83
85
89
84
76
69
70
72
79
86
94
86
75
70
77
78
79
80
82
82
79
78
78
78
76
87
83
120
112
103
92
152
164
105
88
81
90
93
73
81
85
81
78
74
74
79
79
73
74
76
76
80
77
56
80
69
59
57
57
57
55
52
51
52
54
56
60
64
66
65
66
65
65
63
62
59
59
62
62
62
63
71
71
64
64
66
65
73
78
77
74
72
70
73
78
81
84
85
85
86
85
88
94
96
94
95
100
103
99
92
91
84
86
87
85
85
83
82
82
80
82
94
77
81
98
112
89
86
95
100
97
108
132
174
200
201
199
187
163
132
73
76
88
100
107
106
106
93
84
73
73
85
86
88
83
82
84
86
86
77
69
71
73
74
77
81
83
79
79
91
98
92
98
115
131
136
147
154
148
143
121
105
82
63
49
48
47
48
52
56
65
71
81
173
196
192
197
196
199
197
198
198
198
198
198
198
197
197
196
196
196
196
196
196
197
196
198
199
200
200
200
200
199
199
198
198
197
196
197
197
197
196
196
195
195
193
194
193
193
193
193
193
193
193
195
195
195
195
196
196
198
198
198
198
199
199
200
200
200
200
201
201
201
201
200
200
200
199
199
198
197
197
197
197
195
195
195
195
195
195
196
196
197
196
197
197
197
197
195
195
197
197
198
198
199
199
197
197
199
199
199
199
200
200
200
200
200
200
200
200
202
202
202
202
203
203
204
204
204
204
204
204
205
205
206
206
208
208
209
209
209
209
209
209
209
209
208
208
208
208
208
208
208
207
205
205
206
206
205
205
206
206
204
204
205
205
206
206
207
207
207
207
207
207
208
208
208
208
209
209
209
209
209
209
210
204
198
198
205
210
211
210
211
214
206
183
146
115
97
88
72
76
89
92
85
82
84
86
86
87
87
86
91
91
93
94
97
96
96
94
95
96
99
106
102
90
98
96
94
90
87
89
92
97
101
100
91
90
91
94
94
94
93
93
94
95
95
95
96
94
93
90
91
91
92
92
92
92
92
92
91
90
90
89
90
91
92
93
94
92
211
210
210
209
209
209
209
209
208
208
206
206
206
206
206
206
206
206
206
206
206
206
206
206
206
206
206
206
206
206
206
206
206
205
205
203
203
203
203
203
205
205
205
205
205
206
206
206
206
205
205
205
204
204
205
205
205
205
205
205
206
206
206
206
207
207
206
206
206
206
206
204
206
206
207
207
207
207
207
207
207
207
207
207
207
207
207
207
206
206
206
206
206
206
206
206
206
205
206
205
205
205
205
205
204
203
201
208
200
206
178
108
94
100
100
100
96
90
86
86
90
93
95
95
96
97
98
95
91
85
83
82
82
82
82
82
79
78
80
80
77
75
72
69
69
69
69
71
73
74
76
77
80
80
79
79
80
79
79
77
73
72
73
74
74
73
74
81
81
83
85
89
92
87
77
69
70
71
80
94
102
87
74
68
73
74
75
75
76
75
73
72
72
72
68
84
85
113
121
102
107
154
165
104
86
77
90
95
74
78
83
81
77
72
74
81
80
74
77
81
80
85
80
61
85
72
60
56
56
56
53
51
50
52
53
56
62
66
69
69
66
64
64
63
60
58
59
61
62
62
59
66
66
59
62
66
65
65
67
70
74
72
72
74
79
83
85
85
85
85
85
88
95
96
94
95
100
106
104
91
90
87
91
88
85
86
87
87
87
78
77
104
87
70
85
117
105
99
102
103
107
104
115
151
192
208
197
189
173
146
82
71
83
108
115
115
114
101
84
73
73
85
86
88
83
81
78
79
79
70
64
67
75
81
83
84
85
82
81
92
100
92
96
116
137
146
149
151
138
128
126
112
88
69
51
50
49
50
50
50
60
68
85
175
198
193
197
194
199
196
196
198
198
198
197
197
197
197
196
196
195
195
195
195
195
195
197
195
195
195
195
197
197
195
196
196
196
195
196
196
196
196
196
195
195
193
195
194
194
194
195
195
195
195
196
196
196
196
196
196
198
198
198
198
199
199
200
200
200
201
201
201
201
201
200
200
200
199
199
198
198
198
198
198
197
197
196
196
196
196
196
196
196
196
196
196
196
196
197
197
197
197
198
198
199
199
197
197
199
199
199
199
200
200
200
200
201
201
201
201
202
202
203
203
204
204
205
205
205
205
205
205
206
206
206
206
208
208
208
208
208
208
208
208
208
208
208
208
208
208
208
208
208
208
207
207
207
207
207
207
207
207
205
205
205
205
207
207
207
207
207
207
207
207
208
208
208
208
209
209
209
209
209
210
209
209
206
207
209
208
199
189
178
171
116
105
87
81
83
87
89
83
74
72
79
87
90
91
90
90
89
87
85
85
85
84
88
90
94
97
101
101
103
109
103
90
91
94
97
99
101
98
94
98
100
100
93
91
93
95
95
95
94
94
95
95
95
95
96
94
93
91
93
94
96
96
97
96
95
94
94
91
91
90
91
91
92
93
94
92
211
210
210
209
209
209
209
209
209
209
207
207
206
206
206
206
206
206
207
207
207
207
207
207
207
207
206
206
206
206
206
206
206
206
205
205
205
205
205
205
206
206
205
206
206
207
207
207
207
206
206
205
204
205
205
205
205
205
205
205
206
206
206
206
207
207
206
206
206
206
206
206
206
206
207
207
207
207
207
207
207
207
207
207
207
207
207
207
207
207
207
207
208
208
208
208
208
207
206
206
206
206
206
206
205
204
203
208
201
206
178
106
94
100
99
99
94
89
86
86
90
93
95
95
96
97
98
95
91
85
83
82
82
82
82
81
78
77
78
78
78
76
75
74
74
73
72
72
73
74
76
77
80
80
79
79
80
79
79
76
73
72
71
70
70
71
73
79
83
85
86
90
94
90
80
70
69
70
80
96
105
88
75
68
72
72
75
77
77
77
78
77
76
79
73
80
88
113
120
103
109
119
116
94
81
72
76
88
79
84
85
79
77
72
74
83
83
73
72
75
74
80
80
66
85
76
60
55
56
54
52
51
50
52
52
55
62
66
71
70
65
63
64
62
59
57
58
61
62
62
57
62
63
58
59
63
64
64
62
65
74
74
73
77
84
86
83
81
83
84
85
88
90
89
90
94
99
106
107
95
92
92
93
89
85
85
84
85
88
80
78
102
95
84
88
108
105
113
118
103
106
111
101
118
153
187
195
189
180
157
87
69
85
114
120
121
122
111
91
73
73
84
87
86
86
81
73
72
75
61
60
67
79
86
86
86
86
83
82
96
100
89
95
119
144
144
150
149
132
118
119
105
81
62
51
52
50
52
52
52
57
65
82
182
195
192
197
193
200
196
195
196
197
197
197
197
197
197
196
196
195
195
195
195
195
195
194
193
193
193
193
193
193
194
194
194
195
195
196
196
196
196
196
195
195
193
195
193
193
193
195
195
195
195
196
196
196
196
196
196
198
198
198
198
199
199
200
200
200
201
201
201
201
201
200
200
200
199
199
198
198
198
198
198
197
197
196
196
196
196
196
196
196
196
196
196
196
196
197
197
197
197
198
198
199
199
197
197
199
199
199
199
200
200
200
200
201
201
201
201
204
203
203
203
204
204
205
205
205
205
205
205
206
206
206
206
208
208
208
208
208
208
208
208
208
208
208
208
208
208
208
208
208
208
207
207
207
207
207
207
207
207
205
205
205
205
207
207
207
207
207
207
207
207
209
208
208
208
209
210
210
210
209
209
209
212
211
197
174
154
132
113
94
86
85
80
82
90
91
88
87
86
85
84
83
84
85
87
87
89
86
86
86
87
89
90
94
97
101
102
102
101
102
106
103
95
91
98
99
105
105
104
96
98
98
101
96
93
91
93
95
98
93
93
93
93
93
94
97
96
94
91
93
94
96
97
98
97
97
96
94
90
90
90
91
89
86
83
83
85
212
212
210
210
210
210
211
211
209
209
207
207
207
207
207
207
207
207
207
207
207
207
207
207
207
207
207
207
207
207
207
207
207
206
206
204
206
206
206
207
207
208
207
207
207
207
207
207
207
207
206
206
206
206
206
206
206
206
206
206
206
206
207
207
207
207
207
207
207
206
207
206
207
207
207
207
208
208
208
208
208
208
207
207
207
207
207
207
208
208
208
208
208
208
208
208
208
207
207
206
206
206
206
206
206
206
203
208
202
206
179
103
94
99
100
96
91
88
88
88
91
93
94
94
96
96
95
91
88
84
82
81
80
82
81
79
78
76
77
77
77
76
75
73
73
72
73
72
73
75
76
77
80
81
81
81
80
78
77
76
74
72
71
65
65
71
75
80
83
85
88
90
93
90
83
73
69
69
76
88
96
88
74
70
74
78
78
79
80
82
82
79
76
80
83
83
91
100
107
101
105
96
98
92
83
72
71
80
82
83
81
79
77
74
74
83
83
74
71
74
74
77
80
71
81
80
65
55
55
49
52
52
51
50
51
55
61
68
71
70
66
64
63
62
58
56
57
58
62
59
59
61
64
62
62
62
64
63
61
66
75
76
75
78
85
82
78
78
83
86
88
91
87
81
85
93
100
109
108
105
96
100
95
90
85
80
80
85
88
86
83
95
95
84
84
93
100
111
102
99
88
83
112
98
127
180
179
186
187
165
75
72
89
110
118
121
124
119
102
74
72
80
87
82
88
80
72
65
70
53
61
71
82
90
90
89
89
86
88
100
102
89
96
127
146
154
154
155
141
119
107
80
57
48
51
52
53
52
51
53
54
61
85
193
190
191
198
193
201
196
195
195
196
196
195
195
195
195
196
196
196
196
196
196
196
193
193
192
193
193
193
193
193
193
194
194
194
195
195
195
196
195
195
195
195
195
195
195
196
196
195
195
196
196
196
196
196
197
198
198
198
198
197
198
198
200
200
201
201
201
201
201
201
201
200
200
200
200
199
199
198
198
198
198
198
198
198
198
198
196
198
197
196
196
197
197
197
197
196
196
197
197
197
197
199
199
199
199
200
200
200
200
200
200
201
201
201
201
202
202
203
203
204
204
205
205
207
207
207
207
206
206
206
206
208
208
208
206
208
206
206
206
206
206
206
206
207
207
207
207
208
208
208
208
208
208
208
208
208
208
208
208
207
207
206
206
207
208
208
208
213
198
198
213
209
209
209
209
213
209
214
225
200
211
189
127
102
92
85
91
97
96
95
92
90
90
89
88
89
87
86
86
87
86
84
83
83
85
88
89
87
87
87
87
88
90
95
97
101
99
99
100
101
102
101
98
98
108
102
105
103
105
97
98
100
100
98
92
91
94
95
94
93
93
93
92
91
93
98
98
93
91
93
93
95
96
96
96
94
94
95
95
93
91
90
88
83
77
76
83
212
212
210
210
210
210
211
211
209
209
209
209
207
207
207
207
207
207
208
208
208
208
208
208
208
208
207
207
207
207
207
207
207
207
206
206
207
207
207
207
208
208
208
208
209
208
208
208
208
208
207
206
206
206
206
206
206
206
206
206
206
206
207
207
207
207
207
207
207
206
207
207
207
207
207
207
208
208
208
208
208
208
207
207
207
207
207
207
208
208
208
208
208
208
208
208
208
208
207
207
207
207
207
207
207
206
206
206
203
206
179
102
94
99
97
94
89
88
88
88
91
93
94
94
96
96
91
88
84
83
82
81
80
82
81
78
76
74
75
75
75
74
72
71
71
71
73
72
73
75
76
78
81
81
81
81
80
77
76
75
74
75
77
71
71
77
80
80
83
85
85
88
90
87
81
72
71
71
72
73
79
84
75
69
74
75
78
79
82
83
82
78
73
73
78
82
86
77
85
101
100
78
82
89
84
78
74
77
82
81
79
79
77
75
73
77
77
74
73
74
74
76
79
73
78
85
73
57
51
49
52
52
51
50
50
53
61
66
71
69
66
65
64
60
57
55
56
58
61
59
61
62
66
66
63
61
63
66
64
69
73
76
78
82
81
77
80
84
87
91
92
95
91
83
87
97
105
109
108
106
96
100
97
91
84
79
82
89
95
95
90
91
91
86
82
84
93
103
97
103
112
119
115
105
126
165
180
182
181
155
90
78
88
100
108
112
113
112
104
74
72
77
83
83
87
81
75
66
66
52
65
74
86
94
90
90
88
88
93
100
99
92
102
127
140
148
155
137
128
132
131
105
81
73
52
53
55
52
53
51
53
57
98
196
190
191
198
192
202
196
193
194
195
195
195
195
195
195
196
196
196
196
196
196
196
195
193
193
194
194
194
193
193
193
194
193
194
195
195
195
196
195
195
195
195
195
195
195
197
197
195
195
196
196
196
196
197
197
198
198
198
198
197
198
198
200
200
201
201
201
201
201
201
201
200
200
200
200
199
199
198
198
198
198
198
198
198
198
198
196
198
197
196
197
197
197
197
197
196
196
197
197
197
197
199
199
199
199
200
200
200
200
200
200
201
201
201
201
202
202
204
204
204
204
205
205
207
207
207
207
206
206
206
206
208
208
208
206
208
206
206
206
206
206
206
206
207
207
207
207
208
208
208
208
208
208
208
208
208
208
208
208
207
207
206
206
207
207
208
212
216
213
214
216
212
209
209
205
202
205
206
201
141
115
83
72
81
87
93
93
93
92
90
90
88
89
90
89
89
87
87
86
85
84
84
84
83
84
87
89
90
88
88
86
85
88
92
92
91
92
97
103
106
103
95
92
101
109
103
105
104
105
95
99
106
98
90
90
93
104
100
88
93
100
100
98
95
95
97
98
95
94
95
95
96
96
96
93
89
90
99
104
102
95
88
84
83
77
78
84
212
212
211
211
211
211
211
211
209
209
209
209
208
208
208
208
208
208
208
208
208
208
208
208
208
208
209
209
209
209
209
209
209
208
208
207
208
208
208
208
209
209
211
209
211
211
211
211
211
209
208
208
208
208
208
208
208
208
207
207
207
207
208
208
208
208
207
207
207
207
208
207
208
208
209
209
209
209
209
209
209
209
209
209
209
209
209
209
209
209
209
209
209
209
209
209
209
209
209
208
208
208
208
208
207
207
207
208
205
207
182
99
93
98
96
91
89
88
88
88
91
93
94
94
94
94
90
84
83
83
82
79
79
80
79
78
75
71
71
71
70
71
71
71
71
71
72
72
73
75
77
81
82
81
81
81
78
76
74
75
74
77
79
76
76
81
81
81
83
83
81
82
84
80
75
70
72
77
77
71
70
74
71
66
69
73
76
77
77
78
80
78
73
69
76
98
94
82
86
118
110
81
72
79
84
85
81
78
85
85
79
77
76
75
73
67
67
73
74
74
76
76
78
73
78
92
85
58
45
51
56
52
51
50
50
53
61
69
71
70
67
68
64
61
58
56
56
57
58
59
60
62
64
64
63
61
63
66
70
74
73
75
77
81
78
77
84
86
84
84
87
94
94
85
86
92
102
106
105
103
94
98
98
92
84
79
82
89
95
99
97
91
93
95
92
85
89
98
95
106
121
133
128
135
162
194
183
180
171
140
90
78
88
102
116
120
116
111
103
74
73
72
79
87
83
85
78
73
60
54
67
76
88
96
90
90
87
96
99
93
92
99
122
139
149
151
141
128
124
133
132
106
82
75
54
54
55
54
54
50
53
54
118
192
194
189
197
191
200
194
192
194
195
195
193
193
195
195
196
196
196
196
196
196
196
195
195
193
194
194
194
194
194
194
193
193
194
194
193
193
195
195
195
195
195
195
196
196
197
197
197
197
198
198
197
197
198
198
198
198
198
198
197
198
198
200
200
201
201
202
201
201
201
201
200
200
200
200
199
199
199
199
199
199
199
199
199
199
199
198
199
198
198
198
198
198
198
198
197
197
197
197
197
197
199
199
199
199
200
200
200
200
200
200
201
201
202
202
203
203
204
204
205
205
206
206
208
208
208
208
208
208
208
208
208
208
208
206
206
205
205
205
205
205
205
205
207
207
207
207
208
208
208
208
208
208
208
208
208
208
208
208
207
207
206
206
207
207
208
205
202
204
204
202
205
209
209
208
218
175
124
95
65
65
76
92
86
86
86
87
89
89
89
89
88
88
89
88
88
87
87
86
85
84
84
84
84
84
89
89
89
88
87
86
85
88
91
91
90
90
94
99
103
99
91
91
97
98
104
103
103
99
100
99
105
98
90
90
93
104
100
88
93
100
100
100
98
97
95
95
98
100
100
98
97
96
96
93
89
90
99
104
103
96
88
86
85
82
82
87
212
212
211
211
211
211
211
211
210
210
209
209
208
208
208
208
208
208
209
209
209
209
209
209
209
209
209
209
209
209
209
209
209
209
208
208
209
209
209
209
211
211
211
211
212
212
212
212
212
211
209
208
208
208
208
208
208
208
207
207
207
207
208
208
208
208
207
207
207
207
208
208
208
208
209
209
209
209
209
209
209
209
209
209
209
209
209
209
209
209
209
209
209
209
209
209
209
209
209
209
209
209
209
209
208
208
206
206
207
207
182
97
92
95
92
89
89
89
89
88
91
93
94
94
93
92
90
84
83
83
82
79
79
80
79
77
74
70
68
68
68
69
69
70
71
71
72
72
75
76
77
81
83
81
78
77
76
73
75
75
75
76
75
71
72
79
80
81
82
81
78
78
81
75
69
66
72
77
78
71
67
69
70
65
67
72
75
75
75
76
77
76
72
62
62
88
82
74
76
104
90
76
71
75
84
89
85
77
83
89
84
75
72
75
71
62
62
70
77
78
77
74
75
73
80
93
88
62
47
53
56
53
52
50
49
50
61
70
72
69
67
67
63
58
57
55
55
56
57
58
59
60
62
62
61
61
62
66
71
74
69
68
70
77
81
81
83
81
77
73
78
86
88
81
81
86
92
98
100
98
96
97
98
96
86
79
75
80
84
89
92
91
94
97
98
94
91
93
97
103
111
117
101
128
174
208
184
179
164
131
75
72
94
118
134
136
131
120
105
73
73
70
72
86
83
91
82
78
54
56
68
78
90
98
90
89
89
100
103
90
89
103
144
156
166
155
120
132
133
124
111
85
61
53
55
54
52
54
54
51
51
53
135
191
196
189
195
190
198
193
191
193
194
194
193
193
195
195
196
196
196
196
196
196
196
195
195
193
194
194
194
194
194
194
193
193
194
194
193
193
195
195
195
195
195
195
196
196
197
197
197
197
198
198
197
197
198
198
198
198
198
198
197
198
198
200
200
201
201
202
201
201
201
201
200
200
200
200
199
199
199
199
199
199
199
199
199
199
199
198
199
198
198
198
198
198
198
198
197
197
197
197
197
197
199
199
199
199
199
199
199
199
200
200
200
200
201
201
202
202
204
204
204
204
205
205
207
207
207
207
206
206
206
206
208
208
208
206
206
205
205
205
205
205
205
205
206
206
206
206
207
207
207
207
207
206
207
207
207
207
207
207
207
207
206
207
207
207
208
208
205
219
220
206
209
208
208
208
149
90
61
78
87
97
99
94
82
84
85
86
87
87
89
89
88
88
89
88
88
87
86
84
84
84
84
84
84
85
87
89
88
88
86
86
86
88
92
93
92
90
88
87
90
91
91
96
97
94
108
100
95
88
105
104
102
97
93
91
92
97
97
92
88
90
92
96
98
97
93
93
99
102
103
100
99
97
96
96
96
96
95
95
93
92
94
95
93
85
83
88
212
212
212
212
212
212
212
212
211
211
210
210
209
209
209
209
209
209
210
210
210
210
210
210
210
210
209
209
209
209
209
209
209
209
208
208
209
209
209
210
212
212
211
211
211
211
211
211
211
211
209
208
208
208
208
208
208
208
208
208
208
208
209
209
209
209
208
208
208
208
209
209
209
209
209
209
209
209
209
209
210
210
210
209
209
209
209
209
209
210
210
210
209
209
209
209
209
209
209
209
209
209
209
209
209
209
208
208
207
207
183
98
91
94
90
89
88
88
87
86
90
92
94
94
94
93
92
85
82
83
82
81
81
81
79
77
74
70
68
68
69
68
70
70
71
71
72
73
75
75
78
83
83
80
78
77
76
75
76
76
76
76
73
68
71
80
81
80
81
81
78
78
78
72
66
63
68
71
71
70
68
69
70
65
66
72
76
76
75
75
76
74
72
64
61
75
73
75
79
95
83
84
76
75
79
82
81
74
81
90
86
72
69
74
70
64
64
71
77
84
80
74
73
76
80
89
88
68
49
53
55
52
50
49
48
49
61
72
74
68
66
66
62
59
57
56
53
52
54
57
57
60
61
61
60
62
63
63
66
68
67
67
68
76
80
80
80
78
74
70
74
83
85
81
81
84
87
90
93
94
94
94
98
101
94
82
75
76
78
79
84
91
95
95
96
98
93
90
122
92
85
107
88
102
142
194
182
164
155
98
66
72
81
112
133
134
132
123
107
72
74
72
68
77
85
96
87
79
54
57
64
59
69
95
101
94
92
97
103
93
93
110
145
156
157
148
135
134
134
134
105
68
51
63
51
52
51
53
52
51
47
56
152
193
196
188
193
191
196
193
193
192
192
192
193
193
193
193
194
194
194
194
194
194
195
194
194
193
193
193
192
192
192
192
192
192
193
193
192
192
193
193
194
194
194
194
195
195
195
195
196
196
196
196
196
196
198
198
197
197
199
199
199
199
200
200
201
201
202
202
201
201
201
201
200
200
200
200
199
199
199
199
199
199
199
199
199
199
199
199
199
199
199
199
199
199
199
199
197
197
197
197
197
197
198
198
198
198
199
199
199
199
199
199
199
199
201
201
202
202
204
204
204
204
205
205
207
207
207
207
206
206
206
206
206
206
206
206
206
206
206
206
206
206
205
205
206
206
206
206
206
206
207
206
206
204
206
206
205
205
207
207
206
206
206
206
207
207
208
208
219
206
204
219
213
195
178
153
94
93
93
93
90
84
74
68
85
85
85
85
87
88
90
87
87
87
89
90
90
88
85
83
84
83
84
84
84
85
86
87
88
88
86
86
86
88
92
93
93
94
92
90
90
89
93
97
97
95
109
97
91
81
103
110
106
97
93
95
95
96
96
90
88
89
93
96
97
95
93
96
99
101
103
101
99
99
99
100
100
100
96
94
94
95
98
101
100
94
88
88
212
212
212
212
212
212
212
212
211
211
210
210
209
209
209
209
209
209
210
210
210
210
210
210
210
210
209
209
209
209
209
209
209
209
208
208
209
209
210
210
212
212
212
211
211
211
211
211
211
210
209
208
208
208
208
208
208
208
208
208
208
208
209
209
209
209
208
208
208
208
209
209
209
209
210
210
210
210
209
209
210
210
209
209
209
209
209
209
209
209
210
210
209
209
209
209
209
209
209
209
209
209
209
209
209
209
208
208
207
207
184
98
89
91
90
90
88
88
87
86
90
92
93
94
94
94
91
83
78
81
81
81
81
81
79
77
74
70
69
69
69
69
70
70
71
71
72
73
75
75
78
84
84
78
77
77
77
76
77
77
77
77
75
69
71
80
80
80
78
80
80
81
76
70
66
65
66
65
66
69
69
71
71
64
65
72
77
77
78
78
79
79
77
73
70
67
65
80
86
87
88
88
79
74
74
75
77
76
79
85
83
75
70
71
69
68
68
66
69
79
83
83
82
81
76
81
86
76
57
54
53
53
51
50
50
49
59
71
74
68
65
66
64
59
55
55
54
53
55
55
57
57
60
59
59
63
63
59
56
61
70
75
76
80
76
69
69
71
69
70
75
83
85
81
80
80
84
85
89
91
94
96
100
107
102
88
81
81
81
80
83
91
96
96
94
94
91
94
87
84
103
133
134
132
140
164
166
157
148
82
73
75
78
107
122
123
125
120
106
74
75
77
72
67
82
98
94
79
64
59
60
62
74
89
100
101
96
93
102
97
100
119
151
156
152
147
135
134
134
134
122
93
76
79
51
50
50
50
51
52
54
65
170
195
195
188
191
192
194
192
193
193
192
192
193
193
193
193
195
194
194
194
194
194
195
194
194
193
193
193
192
192
192
192
192
192
193
193
192
192
193
193
194
194
195
194
195
195
195
195
196
196
196
196
196
197
198
198
197
197
199
199
199
199
200
200
201
201
202
202
201
201
201
201
200
200
200
200
199
199
199
199
199
199
199
199
199
199
199
199
199
199
199
199
199
199
199
199
197
197
197
197
197
197
198
198
198
198
198
198
198
198
198
198
199
199
200
200
201
201
203
203
203
203
204
204
206
206
206
206
205
205
205
205
206
206
206
206
206
206
206
206
207
207
206
206
204
204
204
204
204
204
206
204
204
203
204
204
205
204
205
205
206
206
206
206
207
207
208
208
195
210
208
188
150
106
84
93
93
93
93
94
62
72
87
97
86
86
86
86
88
89
88
86
86
88
89
90
90
88
84
82
83
83
84
84
84
85
86
86
88
86
86
87
86
88
92
93
95
101
104
104
104
98
95
98
100
98
104
96
91
84
98
109
110
106
106
104
98
91
96
103
100
99
102
100
97
92
95
96
97
98
100
99
98
95
95
94
96
97
102
102
102
98
94
96
102
102
95
93
212
212
212
212
212
212
212
212
211
211
210
210
209
209
209
209
210
210
210
210
211
211
211
211
211
211
212
212
212
212
212
212
212
212
211
211
212
212
212
212
213
213
213
213
214
214
214
214
214
213
212
210
210
210
210
210
209
209
210
211
210
210
211
211
211
211
209
209
209
209
209
209
209
209
211
211
211
211
211
211
211
211
211
211
211
211
211
211
211
211
211
211
211
211
211
211
211
211
211
211
211
211
211
210
209
209
209
209
208
208
186
104
87
90
90
90
90
88
87
86
90
92
93
94
95
94
90
78
75
80
81
81
81
81
79
77
74
70
69
69
69
69
70
70
71
71
72
73
75
76
78
84
84
78
77
77
77
76
78
78
78
81
78
71
71
76
80
80
81
80
78
77
73
69
68
69
69
62
65
69
69
70
70
64
64
72
77
77
78
78
79
79
80
77
63
44
40
70
79
62
76
75
72
71
70
71
78
83
81
76
76
79
75
68
66
69
67
64
65
72
80
79
81
81
77
80
88
87
64
51
51
55
54
54
51
50
56
70
76
69
65
69
67
60
57
54
55
56
57
57
59
59
59
59
60
64
64
59
56
60
70
74
75
79
75
66
66
69
71
73
76
83
85
81
80
80
84
85
89
91
94
97
103
111
107
94
86
86
87
88
90
90
97
104
101
90
86
98
82
90
109
126
161
156
157
162
160
162
154
76
81
79
75
99
113
115
117
114
106
77
79
82
79
66
79
98
98
77
74
61
56
69
80
84
94
100
100
96
100
100
109
135
156
157
148
140
135
134
134
134
127
111
95
85
61
51
50
50
49
55
63
81
186
196
195
191
191
192
192
192
193
193
193
193
193
193
193
193
195
195
195
195
195
195
195
193
194
193
193
193
192
192
192
192
192
192
193
193
192
192
194
194
194
194
195
194
195
195
195
195
197
197
197
197
196
196
198
198
197
197
199
199
199
199
200
200
201
201
202
202
201
201
201
201
200
200
200
200
199
199
199
199
199
199
199
199
199
199
199
199
200
200
200
200
200
200
199
199
199
199
198
198
198
198
198
198
198
198
198
198
198
198
198
198
199
199
200
200
201
201
203
203
203
203
204
204
205
205
205
205
205
205
205
205
206
206
206
206
207
207
207
207
206
206
205
205
205
205
205
205
204
204
206
205
205
204
205
205
204
205
206
205
207
207
206
206
207
207
208
208
209
223
200
155
104
72
66
96
93
93
93
94
82
81
78
80
85
86
87
88
88
88
84
86
87
86
89
90
87
87
84
83
84
84
84
84
85
85
86
86
87
87
87
86
85
87
92
92
96
104
106
104
104
98
95
101
104
101
91
91
90
94
97
109
112
111
111
109
103
96
101
108
107
102
100
96
94
94
95
95
94
94
95
95
96
96
95
93
92
93
97
98
97
93
90
90
96
100
96
93
212
212
212
212
212
212
212
212
211
211
210
210
209
209
209
209
210
210
210
210
211
211
211
211
211
211
212
212
212
212
212
212
212
212
211
211
212
212
212
212
213
213
213
213
214
214
214
214
214
213
212
212
212
212
212
211
210
211
211
211
211
211
211
211
211
211
209
209
209
209
209
209
209
209
211
211
211
211
211
211
211
211
211
211
211
211
211
211
211
211
211
211
211
211
211
211
211
211
211
211
211
211
211
211
209
209
209
209
208
208
186
110
85
90
89
89
88
87
85
86
90
92
92
93
97
95
88
76
72
77
81
81
81
81
79
77
74
70
69
69
69
69
70
70
71
70
71
72
75
76
78
83
83
78
77
77
76
73
75
76
78
82
80
72
71
73
78
78
77
78
78
76
71
71
70
70
66
59
64
69
69
69
67
64
64
71
74
76
76
74
73
73
72
76
72
56
62
80
90
88
88
80
70
68
69
70
78
89
84
71
74
81
78
67
64
69
64
67
67
71
70
66
71
78
83
87
91
89
71
54
49
52
54
54
53
50
52
66
74
69
65
70
68
60
54
53
57
58
59
59
59
56
56
59
61
64
64
62
61
64
63
63
67
74
77
72
71
74
78
80
79
82
84
84
84
86
87
88
92
94
96
99
109
117
106
97
91
89
85
90
93
93
98
109
103
84
79
101
107
106
101
92
141
160
170
177
167
178
170
83
87
80
73
97
108
111
113
110
103
84
85
86
84
72
71
87
95
87
86
66
59
76
81
80
92
96
99
99
99
101
117
144
156
152
147
130
135
135
134
134
120
113
96
78
73
52
50
53
48
57
71
90
188
197
196
192
192
192
192
192
193
193
193
193
194
193
193
194
195
195
195
195
195
195
195
193
194
193
193
193
192
192
192
192
192
192
192
192
191
191
193
193
194
194
195
194
195
195
195
195
197
197
197
197
196
196
198
198
197
197
199
199
199
199
200
200
201
201
202
202
201
201
201
200
199
198
198
198
197
197
198
198
197
197
197
197
197
197
198
198
199
199
199
199
199
199
199
199
198
198
198
198
198
198
198
198
198
198
198
198
198
198
198
198
198
198
199
199
200
200
202
202
202
202
203
203
204
204
204
204
204
204
204
204
205
205
205
205
206
204
204
205
205
205
205
205
202
202
204
202
203
203
205
205
206
205
205
205
205
204
206
206
207
207
207
206
207
207
208
208
213
194
145
95
64
74
88
98
98
94
94
98
84
82
79
79
85
86
87
88
88
86
86
89
86
86
86
86
84
84
83
83
85
84
84
83
84
85
85
85
86
86
86
86
85
87
91
90
93
97
98
94
95
93
95
104
110
105
90
92
91
95
94
114
118
100
95
104
107
107
105
100
96
95
91
89
91
94
94
94
92
92
93
93
95
96
97
97
94
93
91
89
87
87
91
91
91
91
93
90
212
212
212
212
212
212
212
212
212
212
210
210
210
210
210
210
210
210
211
211
211
211
212
212
212
212
212
212
212
212
212
212
212
212
210
210
211
211
211
211
214
214
215
215
215
215
214
214
214
214
213
213
213
213
213
213
214
214
212
212
213
213
211
211
212
212
211
211
211
211
210
210
210
210
212
212
212
212
212
212
212
212
212
212
212
212
212
212
212
212
212
212
212
212
212
212
212
212
212
212
212
212
212
212
210
210
210
211
209
209
187
117
82
88
88
88
87
86
84
85
90
90
91
93
99
98
88
77
72
76
80
80
80
80
78
76
72
70
69
69
69
69
70
70
70
70
70
71
76
77
78
81
83
81
78
76
75
71
70
73
81
82
80
73
72
75
78
78
76
76
77
76
71
71
69
68
65
63
64
66
67
67
67
64
64
68
72
74
73
73
72
71
71
76
77
62
75
81
91
98
83
80
74
70
71
70
75
86
86
78
78
77
82
68
64
70
62
67
67
68
64
63
70
78
85
89
88
85
74
57
49
51
53
52
51
49
51
65
74
69
65
69
66
61
56
54
57
57
57
58
59
55
55
60
62
64
64
63
64
63
58
58
65
71
74
73
74
74
79
79
79
81
84
84
85
87
88
90
93
96
98
100
107
116
101
104
102
94
78
88
93
96
100
102
99
88
81
95
94
105
90
101
101
106
140
149
172
166
122
95
75
79
86
98
104
108
111
107
101
91
87
86
87
80
70
77
85
94
93
74
76
82
81
75
95
95
98
99
76
95
118
137
157
139
130
133
118
141
157
157
162
120
91
90
52
65
45
57
39
46
61
110
192
198
197
194
192
193
193
193
193
193
193
193
194
194
194
194
195
195
195
195
195
195
195
194
193
192
192
193
193
193
191
192
191
191
191
191
192
192
193
193
192
193
194
194
195
195
195
195
197
197
197
197
196
196
197
197
198
198
199
199
199
199
200
200
200
200
201
201
200
200
200
199
198
197
197
197
195
195
195
195
195
195
195
195
195
195
197
197
198
198
199
199
199
199
198
198
198
198
197
197
197
197
196
196
197
197
196
196
197
197
197
197
198
198
199
199
200
200
201
201
202
202
202
202
203
203
203
203
203
203
204
204
204
204
205
204
204
203
204
204
204
203
202
202
202
201
202
201
202
202
204
204
204
202
202
203
207
206
201
200
201
203
203
201
199
198
198
199
209
128
86
105
79
74
80
92
101
79
79
101
100
86
84
94
85
86
88
88
88
87
87
87
85
85
83
81
80
80
83
84
87
85
83
82
84
84
85
86
85
85
86
86
87
87
90
90
90
91
93
91
91
91
93
102
106
101
93
96
92
85
86
108
113
90
89
106
107
105
101
92
91
93
91
90
92
93
93
93
92
92
93
93
95
95
95
95
96
95
91
89
89
89
91
91
90
90
91
91
212
212
212
212
212
212
212
212
212
212
210
210
210
210
210
210
210
210
211
211
211
211
212
212
212
212
212
212
212
212
212
212
212
211
210
210
211
211
212
212
214
214
214
215
215
215
214
214
214
214
214
214
214
214
214
214
214
214
214
214
214
214
213
213
213
212
212
211
211
211
210
210
210
210
212
212
212
212
212
212
212
212
212
212
212
212
212
212
212
212
212
212
212
212
212
212
212
212
212
212
212
212
212
212
210
210
210
210
210
209
187
123
79
88
86
86
86
85
83
85
90
90
90
93
98
97
87
77
73
76
80
80
80
80
78
76
72
70
69
69
69
69
70
70
70
69
69
70
76
77
78
80
81
81
78
77
73
71
72
77
84
83
78
73
73
76
78
77
75
75
77
76
72
70
68
66
65
66
65
62
62
64
65
64
64
65
69
72
73
73
72
72
72
76
77
65
73
80
86
87
77
82
79
71
69
67
67
75
85
89
86
75
82
68
64
70
60
65
66
66
64
65
71
75
82
82
79
74
71
60
52
50
51
50
51
48
50
64
74
69
65
69
65
60
56
56
57
56
56
58
59
54
54
60
63
64
64
61
63
59
61
61
64
67
71
72
72
73
75
77
76
79
81
83
82
84
87
88
89
91
96
93
94
106
101
114
112
103
80
88
96
102
98
91
97
104
95
83
90
100
85
96
113
118
151
161
168
163
118
91
79
80
83
98
103
105
110
108
102
91
85
87
91
89
77
72
76
92
92
81
76
82
82
84
98
98
98
98
91
112
128
142
152
133
120
122
133
149
156
150
152
127
110
110
54
60
50
57
51
61
71
139
197
198
196
194
194
193
193
193
193
193
193
193
194
194
194
194
195
195
195
195
195
195
195
194
193
192
192
192
193
193
191
191
191
191
189
189
191
191
192
192
193
193
194
194
195
195
195
195
197
197
197
197
196
196
197
197
198
198
199
199
199
199
200
200
200
200
201
201
200
200
200
198
197
195
195
195
194
194
194
194
194
194
194
194
194
194
195
195
197
197
198
198
198
198
198
198
197
197
197
197
197
197
196
196
197
197
196
196
197
197
197
197
197
197
198
198
199
199
200
200
201
201
201
201
202
202
202
202
202
202
203
203
203
203
204
203
203
202
202
202
202
202
202
202
200
200
200
200
201
201
202
199
194
194
198
200
202
200
195
192
192
193
193
192
211
211
212
211
149
104
83
85
106
105
94
80
101
84
84
102
97
83
80
90
85
86
88
88
89
89
89
88
86
86
84
81
80
80
84
87
88
85
83
81
84
85
85
85
85
85
86
86
87
87
89
89
90
90
92
92
92
92
93
93
92
90
91
93
87
76
78
93
98
86
96
112
110
98
91
89
91
96
96
93
93
93
93
93
93
93
95
95
95
95
95
95
95
95
94
94
92
92
92
92
93
93
93
91
212
212
212
212
212
212
212
212
212
212
211
211
211
211
211
211
211
211
212
212
212
212
213
213
213
213
214
214
214
214
214
214
214
214
213
213
214
214
214
214
215
215
217
217
217
217
217
217
217
217
217
217
217
217
216
216
216
216
216
216
216
215
215
214
214
214
213
213
213
213
211
211
211
211
212
212
212
212
212
212
212
212
212
212
212
212
212
212
212
212
212
212
212
212
212
212
212
212
212
212
212
212
212
212
210
210
211
211
210
209
191
132
80
88
86
86
86
85
83
85
91
91
91
94
98
91
85
77
74
76
80
80
80
80
78
76
72
69
69
70
69
69
70
69
69
69
69
70
76
78
78
78
80
80
80
77
73
71
73
76
77
76
75
73
75
76
78
77
75
75
76
76
73
71
68
66
65
67
69
64
58
61
62
62
63
63
65
72
73
73
72
71
71
73
75
72
66
82
83
67
76
90
88
69
61
67
65
64
75
88
88
75
82
69
64
74
58
65
66
65
65
65
68
71
76
79
77
73
70
65
55
49
49
50
50
50
51
64
73
71
66
69
65
60
57
57
57
56
56
58
58
53
54
60
64
64
63
60
60
60
62
63
63
64
68
69
71
72
74
75
75
78
80
81
82
82
84
86
86
86
87
85
87
99
99
114
117
116
90
88
94
102
98
87
91
105
109
96
84
94
80
90
113
118
151
160
162
157
112
85
89
82
80
94
101
102
109
111
105
87
80
88
96
98
87
72
68
82
87
86
76
81
86
98
98
98
98
98
97
119
131
139
143
133
133
145
156
163
156
139
142
128
112
99
56
52
60
53
50
63
69
183
199
197
196
196
196
194
194
194
195
195
195
195
196
196
196
195
197
197
197
196
196
196
196
195
195
193
193
193
194
193
193
191
193
192
192
190
192
192
193
194
194
194
195
196
197
197
197
197
198
198
198
198
197
197
199
199
199
199
200
200
200
200
200
200
202
202
202
202
200
200
200
198
196
195
195
195
194
194
194
194
194
194
194
194
194
194
195
195
197
197
198
198
198
198
198
198
196
196
196
196
196
196
196
196
197
197
196
196
197
197
197
197
197
197
198
198
199
199
200
200
201
201
201
201
202
202
202
202
203
203
204
204
204
204
204
203
203
202
202
202
201
201
200
200
200
200
200
200
201
201
203
203
201
200
197
198
200
199
194
193
197
201
201
200
183
183
183
183
171
160
148
126
94
86
84
91
93
90
90
95
90
76
73
83
86
85
88
88
89
89
91
89
89
87
87
84
83
84
89
92
91
88
84
81
83
84
85
85
84
85
87
87
87
86
89
89
90
90
92
92
92
92
92
91
90
90
94
96
90
82
83
87
90
90
102
105
98
92
85
88
95
99
96
90
93
95
95
95
94
94
95
95
95
95
95
95
95
95
95
95
96
96
97
94
94
93
93
93
212
212
212
212
212
212
212
212
212
212
211
211
211
211
211
211
211
211
212
212
212
212
213
213
213
213
214
214
214
214
214
214
214
214
213
213
214
214
214
214
215
215
216
217
217
217
217
217
217
217
217
217
217
217
216
216
216
216
217
217
217
215
215
214
214
214
213
213
213
213
211
211
211
211
212
212
212
212
212
212
212
212
212
212
212
212
212
212
212
212
212
212
212
212
212
212
212
212
212
212
212
212
212
212
210
210
211
211
210
209
192
134
83
87
85
85
85
84
83
85
91
92
91
92
93
87
84
77
74
76
80
80
78
77
76
73
71
69
69
70
69
68
68
68
68
68
68
69
75
76
77
78
80
80
78
76
73
70
68
66
68
69
72
73
73
75
78
78
75
73
75
76
73
71
68
64
64
67
70
69
60
58
61
62
62
63
65
70
72
73
72
69
69
72
76
78
61
80
77
52
75
94
90
65
53
71
76
64
61
77
84
76
84
72
68
75
57
63
66
66
66
66
68
70
76
78
81
82
78
72
60
49
49
50
50
49
51
64
71
69
66
68
65
60
57
56
56
55
55
57
57
53
54
60
64
64
64
60
57
57
62
63
61
62
65
67
67
70
73
75
75
75
78
80
81
82
83
84
84
84
85
84
88
96
91
103
114
128
102
84
83
96
103
94
88
95
107
110
79
90
75
86
101
107
139
149
157
152
108
81
94
84
77
89
97
100
104
113
110
88
77
91
100
102
94
76
65
67
78
85
71
77
93
108
95
99
98
100
89
110
124
126
133
138
161
187
172
171
154
132
138
125
96
67
59
45
65
54
42
50
74
201
199
196
197
196
196
195
195
194
194
194
194
194
195
195
195
196
197
197
197
197
196
196
196
195
195
193
193
193
194
193
193
191
192
191
191
190
191
191
193
193
194
194
196
196
197
197
197
197
198
198
198
198
197
197
199
199
199
199
200
200
200
200
200
200
202
202
202
202
200
200
200
198
196
195
195
195
194
194
194
194
194
194
194
194
194
194
195
195
197
197
197
197
196
196
196
196
196
196
196
196
196
196
196
196
195
195
195
195
195
195
195
195
195
195
197
197
198
198
199
199
200
200
200
200
201
201
201
201
202
202
203
203
202
202
203
204
204
202
197
202
201
201
199
200
200
200
200
200
201
201
202
201
194
181
164
148
134
128
123
119
103
103
104
106
107
108
109
109
122
148
170
168
144
94
76
101
91
93
93
91
89
72
70
82
87
83
87
88
89
91
92
92
89
89
89
86
87
87
91
92
92
88
84
80
82
84
85
85
87
85
87
87
86
86
89
89
90
90
92
92
92
93
95
93
92
94
97
99
98
94
89
91
101
108
104
95
90
92
91
91
92
97
95
92
92
93
94
94
94
94
95
95
95
95
96
95
93
95
95
94
94
97
97
94
94
94
94
93
212
212
211
211
211
211
211
211
211
211
211
211
211
211
211
211
212
212
212
212
213
213
213
213
213
214
214
214
214
214
214
214
214
214
213
213
214
214
215
215
217
217
216
216
217
217
218
218
218
218
218
218
218
218
218
218
218
218
216
216
216
216
215
215
215
214
214
213
213
213
211
211
211
211
213
213
213
213
213
213
213
213
213
213
213
213
213
213
213
213
213
213
213
213
213
213
213
213
213
213
213
213
213
213
212
212
212
212
210
211
195
139
85
87
84
84
84
84
84
86
88
90
91
92
89
87
82
78
75
77
78
78
78
75
74
72
71
69
70
70
69
68
66
65
66
66
68
69
73
75
77
76
77
77
77
76
72
70
68
66
65
68
73
73
72
73
77
77
73
72
75
76
75
72
66
63
63
66
70
71
63
59
61
60
60
67
67
70
71
72
71
67
67
70
72
79
66
80
76
54
75
86
90
69
50
68
76
64
56
74
83
77
89
79
75
76
57
62
66
66
68
68
69
71
76
77
82
83
84
78
66
54
49
51
51
50
51
61
69
70
65
67
64
60
58
56
55
55
55
56
57
57
56
59
61
61
61
59
56
56
58
60
60
61
62
63
66
70
74
77
76
76
78
80
82
83
84
83
84
86
88
92
90
97
84
97
111
134
114
92
84
89
98
97
90
87
95
105
79
99
133
122
137
131
142
149
154
150
98
78
99
100
74
84
95
96
99
114
116
99
80
88
98
107
101
77
62
60
68
74
76
74
82
96
91
103
112
102
105
118
131
143
160
168
178
178
173
152
138
139
129
104
84
72
60
61
61
58
50
51
97
213
198
197
197
197
197
196
196
195
195
195
195
195
196
196
198
198
198
198
198
198
198
198
198
196
196
195
195
195
195
195
195
195
193
193
193
192
193
193
194
194
195
195
197
197
198
198
199
199
199
199
199
199
199
199
200
200
200
200
200
200
201
201
201
201
201
201
201
201
200
200
200
198
197
195
195
195
194
194
194
194
194
194
194
194
194
194
194
194
195
195
197
197
196
196
196
196
196
196
196
196
196
196
196
195
195
194
194
194
194
194
194
194
194
194
195
195
197
197
198
198
199
199
199
199
200
200
200
200
200
200
202
202
201
201
203
203
204
201
197
188
188
195
205
209
208
202
197
193
178
154
128
112
94
85
81
85
89
94
101
103
102
100
102
103
104
106
108
108
101
96
99
110
149
119
94
87
105
101
96
95
93
95
89
83
75
82
86
89
90
90
89
89
89
89
88
88
87
87
89
90
90
87
84
81
81
83
87
89
86
85
86
86
86
86
87
90
91
91
92
92
93
92
92
91
92
93
95
97
100
99
94
94
105
113
104
91
89
94
95
89
89
93
96
96
93
92
92
92
92
92
93
93
94
94
94
93
93
97
98
94
92
99
99
93
93
93
93
89
212
212
211
211
211
211
211
211
211
211
211
211
211
211
211
211
212
212
212
212
213
213
213
213
213
213
214
214
214
214
214
214
214
214
213
213
214
214
215
215
217
217
216
216
217
217
218
218
218
218
218
218
218
218
218
218
218
218
216
216
216
216
215
215
215
214
214
213
213
213
211
211
211
211
213
213
213
213
213
213
213
213
213
213
213
213
213
213
213
213
213
213
213
213
213
213
213
213
213
213
213
213
213
213
212
212
212
212
210
211
196
141
87
86
82
83
83
83
85
88
91
91
91
90
88
86
82
79
76
77
78
78
76
74
73
71
69
69
70
70
69
68
66
68
66
66
68
69
72
75
76
76
78
77
76
75
73
73
72
72
72
72
72
71
72
72
75
75
76
75
75
75
75
72
66
63
64
64
65
67
67
65
63
59
59
63
69
70
70
70
71
65
65
67
65
72
76
88
87
74
75
81
91
85
55
50
60
63
63
78
83
75
88
79
76
76
55
60
62
63
66
67
68
68
71
68
72
76
84
85
73
59
51
50
49
49
49
57
67
69
66
65
64
60
58
56
56
56
58
58
59
60
59
59
57
55
53
53
53
53
53
54
61
67
67
65
66
68
73
75
75
76
78
80
82
83
83
84
82
86
92
93
93
94
84
97
109
131
124
111
99
85
81
90
96
89
84
90
103
110
140
135
145
151
150
164
153
145
95
88
118
123
94
90
91
92
97
113
118
109
89
84
94
112
106
82
64
62
62
62
75
74
76
89
93
107
108
101
102
127
152
169
183
182
170
167
154
144
146
160
142
126
105
85
61
62
62
62
55
57
125
209
197
197
197
197
197
197
198
196
196
195
196
196
196
196
199
199
198
198
199
199
199
199
199
198
197
196
196
196
196
196
195
195
194
194
193
193
194
194
195
195
197
197
198
198
199
199
200
200
199
199
200
200
200
200
200
200
200
200
200
200
201
201
201
201
201
201
201
201
200
200
200
198
197
195
195
195
194
194
194
194
194
194
193
193
194
194
194
194
195
195
195
195
195
195
195
195
196
196
196
196
196
196
196
195
194
193
193
193
193
193
193
193
193
193
194
194
195
195
197
197
198
198
198
198
199
199
199
199
199
199
200
200
200
200
201
198
196
198
206
213
214
208
198
188
173
161
148
135
117
95
76
80
92
98
98
89
85
87
90
94
97
99
99
99
99
98
98
98
106
106
98
84
94
110
118
112
117
113
106
103
99
95
89
85
75
80
84
89
90
90
89
89
88
88
87
87
86
86
87
87
87
85
85
83
83
84
85
87
87
86
87
86
86
86
89
90
91
91
92
92
93
93
95
95
96
96
97
97
98
97
99
98
99
99
96
88
89
95
95
89
89
92
94
94
91
90
90
90
92
92
93
93
94
93
93
92
96
103
103
96
94
103
103
94
90
88
84
82
211
211
210
210
210
210
210
210
210
210
211
211
211
211
212
212
212
212
213
213
212
212
213
213
213
213
215
215
215
215
215
215
216
216
215
215
215
215
216
216
217
217
219
219
219
219
219
219
219
219
219
219
219
219
219
219
219
219
216
216
216
215
215
213
214
214
213
213
213
213
213
213
213
213
213
213
212
212
212
212
212
212
212
212
212
212
212
212
212
212
212
212
212
212
212
212
212
212
212
212
212
212
212
212
210
210
210
210
210
209
199
144
89
86
81
82
81
83
86
90
93
93
93
91
89
85
82
79
77
78
78
78
78
74
73
71
69
69
70
70
70
71
70
70
69
70
70
71
73
75
76
78
80
77
76
75
75
75
72
72
71
69
66
66
69
70
71
73
76
77
77
77
76
73
66
63
63
63
61
63
66
68
67
59
56
62
67
67
69
69
71
64
64
69
67
65
82
86
90
96
84
83
89
99
69
40
47
65
67
75
77
70
83
76
76
78
56
57
59
59
61
62
63
64
66
62
64
70
77
81
76
64
51
46
47
48
51
54
61
64
66
65
64
60
59
57
57
58
60
59
59
59
58
57
57
55
54
54
56
56
57
57
61
61
65
64
64
65
71
72
74
76
78
80
81
82
83
84
84
89
91
92
96
93
87
94
98
119
124
119
108
98
89
87
93
89
84
90
90
79
104
106
122
145
128
143
150
134
93
102
145
158
121
98
89
89
96
110
119
116
99
82
92
115
114
91
71
65
59
58
68
76
71
82
102
110
103
105
109
145
173
188
200
177
163
163
146
141
150
168
137
134
113
80
61
62
62
63
62
65
167
202
197
198
198
198
198
198
199
198
198
198
199
199
199
199
199
199
200
200
200
200
200
200
200
199
199
197
197
197
198
198
198
198
195
195
195
195
195
195
196
196
198
198
199
199
200
200
200
200
201
201
201
201
201
201
201
201
202
202
202
202
201
201
201
201
200
200
201
201
200
200
200
198
197
194
194
194
193
193
193
193
193
193
193
193
193
193
193
194
195
195
195
195
196
196
196
196
196
196
196
196
196
196
196
195
194
193
193
193
193
193
193
193
193
193
194
194
195
195
197
197
198
198
198
198
199
199
199
199
199
199
200
200
201
201
201
199
197
197
199
198
187
170
149
128
105
92
85
79
79
85
93
91
81
81
91
102
105
104
100
99
98
100
100
100
113
112
112
112
95
95
103
110
90
105
110
103
117
113
106
103
99
95
89
85
75
77
84
88
90
90
90
90
88
88
88
87
86
85
85
85
84
85
87
89
89
87
87
86
84
84
86
87
87
86
91
91
91
91
92
91
93
95
96
96
96
96
96
96
95
97
99
104
104
90
87
82
83
94
94
88
92
94
92
90
87
87
88
89
92
92
93
93
93
92
92
91
93
99
99
91
90
98
98
89
82
78
76
78
211
211
210
210
210
210
210
210
210
210
211
211
211
211
212
212
211
211
212
212
212
212
213
213
213
214
215
215
215
215
215
215
216
216
215
215
215
215
216
216
217
217
219
219
219
219
219
219
219
219
219
219
219
219
219
219
219
219
216
216
216
215
215
213
214
214
213
213
213
213
213
213
213
213
213
213
212
212
212
212
212
212
212
212
212
212
212
212
212
212
212
212
212
212
212
212
212
212
212
212
212
212
212
212
210
210
210
210
210
209
202
148
88
88
81
82
81
83
87
91
91
92
95
92
89
85
82
80
78
78
78
78
78
74
72
71
69
69
70
70
71
72
72
73
73
72
71
71
73
76
78
78
80
77
76
75
73
73
71
70
69
66
64
61
64
71
73
77
81
83
78
76
76
72
68
64
64
62
60
61
65
68
66
59
56
60
66
66
66
66
67
63
65
74
75
65
80
76
81
96
88
84
85
94
82
50
49
67
63
71
71
67
81
72
74
76
57
57
56
55
58
59
60
60
63
62
65
70
66
70
75
69
58
48
44
46
49
51
61
67
67
67
64
60
58
57
58
59
60
58
56
52
52
54
59
59
60
63
63
62
63
63
61
56
58
61
63
61
66
70
73
76
78
80
81
82
82
84
85
88
91
92
96
91
88
89
85
101
107
108
107
121
119
91
83
83
89
102
91
69
88
95
131
161
133
128
151
129
90
111
164
181
140
109
91
84
92
109
119
117
105
88
93
110
115
97
76
69
62
53
58
72
75
78
106
110
104
111
130
169
194
192
192
168
156
155
155
144
146
159
120
124
103
63
63
63
63
64
62
71
195
195
197
197
198
198
198
198
199
198
198
198
199
199
199
199
199
199
200
200
200
200
200
200
200
199
199
197
197
197
198
198
198
198
195
195
195
195
195
195
196
196
198
198
199
199
200
200
200
200
201
201
201
201
201
201
201
201
202
202
202
202
201
201
201
201
200
200
200
200
200
200
200
198
197
194
194
194
193
193
193
193
193
193
192
192
193
193
193
194
195
195
195
195
196
196
196
196
196
196
196
196
196
196
196
195
194
193
193
193
193
193
193
193
193
193
194
194
195
195
197
196
197
197
197
198
199
199
199
199
200
199
201
200
201
201
201
206
206
195
172
150
124
103
85
73
69
75
82
87
89
88
86
86
87
89
97
102
101
98
93
89
98
99
99
100
103
103
102
103
115
86
83
108
87
90
98
115
105
94
105
97
95
101
83
85
77
77
83
88
90
90
90
90
88
88
88
87
86
85
85
84
82
83
88
91
90
88
84
83
83
84
86
87
87
89
91
92
93
92
92
91
92
92
91
90
90
90
89
88
89
93
97
110
113
92
82
85
85
91
90
90
93
93
87
85
85
85
86
89
92
91
87
85
86
92
88
94
87
88
87
79
79
86
86
79
74
72
72
72
209
209
209
209
209
209
209
209
209
209
211
211
211
211
211
211
212
212
213
213
213
213
213
213
214
214
214
214
216
216
216
216
217
217
215
215
216
216
216
216
216
216
217
217
217
217
217
217
217
217
217
217
217
217
217
217
216
216
216
216
215
215
214
214
214
214
212
212
212
213
213
213
212
212
212
212
212
212
212
212
212
212
211
211
211
211
210
210
210
210
210
210
210
210
210
211
211
211
211
211
211
211
211
211
209
209
209
209
208
208
209
156
88
89
81
80
81
84
87
89
88
89
93
92
88
86
84
81
78
78
80
78
77
73
72
69
69
69
70
70
72
72
75
75
76
73
72
71
75
76
78
78
78
76
74
74
73
71
72
71
69
67
65
56
57
69
74
77
82
82
78
75
75
70
66
65
64
63
61
60
63
66
64
59
57
59
64
64
65
65
62
63
68
75
75
67
75
77
76
82
78
77
99
89
75
65
42
68
82
74
74
77
79
85
74
72
62
58
56
71
71
56
59
60
60
62
64
72
75
64
71
74
62
51
45
44
45
49
58
69
69
67
64
60
58
57
59
60
60
60
57
52
50
53
60
59
61
67
65
60
61
65
62
60
62
65
64
62
63
69
72
75
78
79
79
80
82
83
84
86
89
92
96
92
91
111
90
79
100
121
106
123
140
115
98
104
88
100
100
98
97
95
148
151
151
148
148
121
87
134
178
173
167
163
112
105
97
102
115
129
124
100
93
105
114
123
96
79
96
80
47
65
78
81
120
105
99
122
190
189
190
190
188
160
169
165
149
145
138
134
117
109
102
95
64
63
63
64
58
98
207
190
198
198
198
198
198
198
199
199
199
198
199
199
199
199
200
200
201
201
201
201
201
201
201
200
200
198
198
198
198
198
196
196
196
196
195
195
196
196
198
198
198
198
198
198
199
199
199
199
200
200
200
200
201
201
201
202
200
200
200
200
200
200
199
199
200
200
200
200
200
200
200
198
195
194
193
193
192
192
190
190
192
192
192
192
191
191
193
193
194
195
196
196
196
196
196
196
197
197
197
197
198
198
197
195
194
193
192
192
193
193
193
193
193
193
194
194
194
194
195
195
196
196
196
196
182
189
199
206
201
200
200
198
202
198
203
186
170
129
85
73
80
84
91
92
89
87
88
89
90
90
91
89
90
93
96
96
96
94
92
91
98
98
98
99
101
100
96
99
112
89
84
105
103
92
93
105
100
89
108
97
95
104
81
86
80
77
83
88
91
92
91
91
89
89
87
86
85
85
85
83
82
83
88
89
89
87
82
82
82
86
88
88
87
88
89
93
94
93
91
88
87
86
84
84
84
84
84
82
83
84
89
100
104
90
76
84
87
90
84
87
87
84
80
79
81
84
84
86
89
86
77
74
82
84
95
90
80
79
76
72
74
77
77
75
72
72
72
74
209
209
209
209
209
209
209
209
209
209
210
210
210
210
209
209
210
210
210
210
213
213
213
213
214
214
214
214
216
216
216
216
217
217
215
215
216
216
216
216
216
216
217
217
217
217
217
217
217
217
217
217
217
217
217
217
216
216
216
216
215
215
214
214
214
214
212
212
213
213
213
213
212
212
212
212
212
212
212
212
212
212
211
211
211
211
210
210
210
210
210
210
210
210
211
211
211
211
211
211
211
211
211
211
209
209
209
209
208
208
209
163
91
88
82
80
81
83
86
90
88
89
92
92
89
87
85
82
80
78
80
78
75
72
69
69
69
69
70
70
71
71
73
75
76
72
71
70
75
77
80
78
77
75
73
73
72
70
72
69
64
64
60
51
51
62
66
70
74
77
77
75
73
67
66
66
65
63
63
61
62
64
63
60
59
57
62
62
62
64
62
64
67
69
70
69
71
76
74
71
71
71
93
86
77
70
48
61
71
71
83
81
78
77
77
74
68
61
59
62
62
57
59
60
59
60
61
72
72
60
85
83
66
49
44
45
44
47
53
66
71
69
65
63
60
58
57
59
60
62
61
58
52
54
60
59
59
67
66
58
58
65
64
65
65
66
66
62
62
69
72
73
77
78
79
80
80
83
84
85
89
92
96
91
92
111
91
76
94
126
92
102
114
104
94
101
84
95
127
130
133
134
159
154
153
159
143
118
88
139
183
177
172
167
164
147
129
109
119
130
120
93
93
103
114
123
90
66
86
86
53
57
74
83
108
97
117
166
194
194
195
195
181
151
160
157
176
171
165
160
149
137
127
115
66
64
64
66
60
124
207
191
198
198
198
198
198
198
199
199
199
198
199
199
199
199
200
200
201
201
201
201
201
201
201
200
200
198
198
198
198
198
196
196
196
196
195
195
196
196
198
198
198
198
198
197
199
199
199
199
200
200
200
200
201
201
202
202
200
200
200
200
200
200
199
199
200
200
198
198
199
199
198
197
194
194
193
193
192
192
190
190
192
192
190
190
191
191
193
193
194
195
196
196
196
196
196
196
197
197
197
197
198
198
197
195
194
193
192
192
193
193
193
193
193
193
194
194
194
194
195
195
196
196
196
196
211
201
188
177
202
203
201
198
188
164
121
77
82
84
82
81
94
91
84
83
85
87
89
89
90
90
93
95
96
97
100
97
96
94
94
95
97
96
96
99
102
101
96
96
99
95
93
101
102
107
97
97
103
107
93
95
96
93
93
83
77
77
82
88
91
92
91
91
89
89
87
86
85
85
85
83
82
83
88
88
87
87
83
82
82
84
88
88
86
86
87
91
92
91
88
86
82
80
78
78
78
79
79
78
78
79
81
82
82
79
65
78
82
84
74
79
78
76
76
76
79
81
83
85
85
83
75
71
90
127
119
82
74
78
74
71
74
76
76
75
75
74
74
75
207
207
207
207
207
207
207
207
207
207
209
209
209
209
209
209
210
210
210
210
212
212
213
213
214
214
214
214
216
216
216
216
218
218
216
216
216
216
216
216
216
216
217
217
217
217
217
217
217
217
217
217
217
217
217
217
216
216
215
215
214
214
213
213
213
213
211
211
211
211
213
213
212
212
212
212
211
211
211
211
211
211
209
209
209
209
209
209
209
209
209
209
209
208
208
208
208
208
208
208
208
208
208
208
208
208
207
206
208
207
203
170
95
82
80
79
80
83
86
89
89
91
92
93
93
91
88
82
80
80
80
78
75
70
68
69
69
69
70
70
71
71
71
71
73
71
70
71
77
78
80
80
77
73
72
73
73
71
72
69
64
62
59
56
56
59
62
66
71
74
75
75
70
66
66
67
65
64
65
62
62
63
63
60
55
55
59
62
62
65
66
66
64
63
67
71
69
65
68
71
68
71
85
83
81
78
56
51
55
63
76
78
82
84
84
79
74
70
56
50
50
56
60
59
58
60
55
65
65
55
85
88
78
59
48
46
44
45
48
60
72
69
67
65
63
60
59
56
57
61
61
63
58
58
61
59
59
68
70
63
63
68
66
65
65
66
67
63
62
67
70
72
77
79
79
79
80
82
83
85
89
91
96
90
94
111
111
80
81
114
88
89
97
99
88
94
77
89
105
111
121
127
159
142
142
159
135
116
91
146
188
183
177
174
178
169
156
134
139
145
129
96
93
103
114
123
105
52
60
68
67
51
71
83
114
113
158
220
202
201
201
201
187
159
168
164
168
163
157
152
149
133
115
99
66
64
64
67
68
163
206
196
198
198
198
198
198
198
199
199
199
199
200
200
200
200
200
200
201
201
201
201
201
201
201
200
200
198
198
198
198
198
197
197
196
196
196
196
196
196
198
198
197
196
197
197
197
197
198
198
200
200
200
200
201
201
202
202
200
200
200
200
199
199
199
199
198
198
198
196
195
195
195
193
193
192
190
190
189
189
189
189
189
189
190
190
190
190
191
193
194
194
195
195
196
196
196
196
197
197
196
196
197
197
197
195
194
193
192
192
193
193
193
193
193
193
194
194
194
194
194
194
196
196
197
196
193
193
196
197
202
194
175
158
115
81
65
86
74
78
81
84
95
91
84
83
85
87
89
89
90
91
93
94
95
97
99
97
95
94
94
95
96
96
96
97
102
101
96
91
92
97
99
99
98
103
107
101
107
116
83
94
97
85
100
82
75
76
82
87
91
92
91
91
90
90
89
87
85
84
84
84
83
83
87
88
86
84
83
81
83
84
87
87
85
83
85
86
86
84
84
80
78
77
75
75
76
76
78
75
74
75
75
76
75
72
65
78
80
80
69
74
76
74
76
76
78
80
81
81
81
79
78
76
94
124
111
63
82
78
75
72
75
76
76
75
75
74
74
75
206
206
206
206
206
206
206
206
207
207
206
206
206
206
207
207
209
208
208
208
211
211
212
212
213
213
214
214
215
215
215
215
217
217
215
215
215
215
215
215
216
216
215
215
216
216
216
216
216
216
216
216
216
216
216
216
215
215
214
214
213
213
211
211
212
212
211
211
213
213
214
214
213
213
212
212
212
212
212
212
212
212
211
211
211
211
210
210
210
210
208
207
207
207
207
207
207
207
207
207
207
207
207
207
207
207
207
204
208
205
200
174
104
79
79
78
78
82
86
89
89
91
92
93
93
92
87
81
80
78
78
76
72
70
69
69
69
69
69
69
69
70
70
71
71
70
71
72
78
80
80
77
76
73
72
72
74
73
73
72
69
65
63
63
62
62
64
69
73
74
74
73
67
66
66
69
68
65
65
62
62
62
62
60
55
55
58
60
60
64
69
67
62
58
64
76
69
56
60
68
64
67
79
81
83
86
62
46
44
57
55
69
90
104
89
84
77
74
56
41
41
54
57
57
57
58
51
60
60
51
73
81
87
75
59
45
42
45
50
58
68
68
67
66
65
63
61
59
56
59
59
63
61
60
64
63
63
70
72
65
64
68
67
65
65
66
67
63
62
66
70
71
74
78
79
79
79
80
82
84
89
91
94
89
93
111
134
98
74
84
90
97
99
97
83
90
74
84
87
97
111
121
148
122
121
147
129
114
94
152
193
188
182
177
174
170
165
161
165
168
146
110
93
103
114
123
122
56
42
41
71
58
64
79
98
104
150
215
208
205
205
205
205
176
185
181
172
166
160
155
158
139
116
96
66
65
65
64
73
189
206
200
198
198
198
198
198
198
198
198
199
199
199
199
199
199
200
200
199
199
200
200
200
200
200
199
198
197
197
197
197
197
196
196
196
196
195
195
196
196
197
197
195
195
195
195
196
196
197
197
197
197
197
197
199
199
199
199
198
198
198
198
197
197
197
197
198
198
196
195
194
194
193
191
190
189
189
189
188
188
188
188
188
188
188
188
189
189
190
191
192
193
194
194
195
195
196
196
195
195
195
195
195
195
194
194
193
193
192
192
193
193
193
193
193
193
194
193
193
192
193
193
199
196
197
194
193
193
196
197
169
132
91
60
66
79
86
88
91
89
85
84
81
86
90
92
88
87
88
88
90
91
92
92
91
91
92
92
92
92
93
93
93
93
93
97
102
98
92
89
91
96
101
102
101
98
102
107
104
104
91
95
96
91
91
81
77
77
82
88
91
92
91
90
90
90
89
87
85
82
82
84
83
83
86
86
85
84
83
81
83
83
86
83
81
78
79
80
79
79
78
76
74
74
74
74
75
75
76
76
75
74
71
72
72
75
71
82
81
80
69
74
76
74
74
74
74
75
76
76
77
75
77
84
85
78
75
75
78
77
75
72
75
76
76
75
75
74
74
75
204
204
204
204
205
205
204
204
205
205
205
205
205
205
206
206
207
207
207
207
210
210
210
210
212
212
213
213
215
215
215
215
216
216
215
215
215
215
215
215
215
215
215
215
215
215
215
215
215
215
215
215
215
215
215
214
214
213
214
213
213
212
210
210
211
211
211
213
213
213
213
213
213
213
212
212
211
211
211
211
211
211
209
209
210
210
209
208
208
207
207
205
205
205
205
205
205
205
205
205
205
205
205
205
206
207
205
202
209
204
200
181
119
77
79
78
78
81
85
88
89
91
92
92
93
91
85
79
78
78
78
75
72
71
69
69
68
68
69
69
69
69
71
71
72
71
72
75
80
81
81
77
75
73
73
73
73
73
73
72
71
67
66
65
64
62
64
71
73
72
74
72
67
67
67
69
70
67
64
63
63
63
62
61
57
58
60
61
62
65
69
68
62
56
61
77
72
56
60
64
61
54
63
71
83
90
81
57
42
44
54
57
64
68
84
81
75
69
63
59
50
51
54
56
56
55
52
56
55
52
68
52
59
77
68
49
38
41
50
59
66
67
67
67
66
63
62
61
59
56
58
63
64
60
65
67
67
71
73
66
63
66
67
66
66
70
68
64
60
66
70
71
76
78
80
80
79
79
81
84
88
92
92
88
89
99
142
116
81
84
74
102
106
127
129
117
112
76
85
91
97
110
133
138
146
152
147
127
108
169
212
202
188
178
176
165
165
176
189
196
179
146
98
120
130
123
128
76
61
47
70
71
54
78
75
125
172
194
209
207
206
206
198
178
166
153
161
170
164
146
146
146
126
88
68
50
66
61
93
205
188
204
196
196
196
196
196
196
197
197
198
198
199
199
199
199
199
199
199
199
199
199
199
199
199
198
197
196
196
196
196
196
195
195
195
195
195
195
195
195
196
195
194
194
194
194
195
195
195
195
196
196
196
196
197
197
198
198
196
196
197
197
196
196
196
196
197
196
196
196
195
194
193
191
190
188
188
188
187
186
186
187
187
187
188
188
188
188
190
190
190
191
193
193
194
194
193
193
194
194
194
194
194
194
193
193
193
192
192
192
193
193
193
193
193
193
193
193
192
191
193
193
200
190
190
201
223
196
165
124
102
79
62
62
90
91
88
86
86
89
89
86
89
86
90
89
90
88
90
90
91
91
92
92
91
91
91
90
91
91
91
91
92
92
93
97
101
93
88
91
95
94
96
103
105
97
98
107
104
96
102
96
96
97
87
84
79
76
80
85
89
89
89
89
90
90
89
89
87
81
81
84
84
83
84
84
85
83
83
81
81
81
83
81
80
77
76
76
77
77
76
76
74
73
72
71
74
75
76
77
76
75
74
72
74
78
71
81
81
81
70
75
77
75
75
74
73
73
73
73
74
73
77
84
79
71
68
75
76
77
75
74
75
76
76
76
75
75
75
76
203
203
203
203
204
204
203
203
204
204
202
202
202
202
202
202
204
204
204
205
208
209
209
209
212
212
211
211
214
214
214
214
215
215
214
214
214
214
213
213
213
213
214
214
214
214
214
214
214
214
214
214
214
214
214
214
213
213
212
212
211
211
209
209
209
209
210
210
211
211
210
210
209
209
210
210
209
209
209
209
209
209
207
207
207
207
207
207
206
206
204
204
203
204
204
204
204
204
204
204
204
204
204
204
205
205
206
200
211
202
201
190
131
77
78
76
77
80
85
88
89
91
92
92
93
91
84
78
77
77
77
75
72
71
69
69
68
68
68
68
68
68
69
69
70
70
71
73
78
80
80
75
73
72
72
72
73
73
74
74
74
72
71
70
69
66
69
77
78
73
73
71
67
69
70
70
69
65
64
64
64
63
62
60
55
58
62
63
63
65
68
67
62
55
55
68
72
70
72
68
58
46
58
67
79
88
88
67
46
41
54
57
64
65
63
64
71
75
78
78
66
54
54
55
55
54
55
55
54
54
66
54
47
61
71
60
38
33
43
59
63
64
67
67
66
63
63
63
61
57
58
64
65
59
63
67
67
70
72
66
62
65
66
66
66
70
70
64
60
65
70
71
76
77
78
79
80
80
82
84
88
91
91
88
87
93
129
124
100
82
89
102
91
102
112
112
135
113
84
94
106
112
143
145
149
151
145
135
116
168
210
203
194
186
176
164
165
177
200
209
197
168
126
134
137
133
131
81
66
51
99
89
59
74
74
149
196
193
208
208
206
206
200
185
178
169
158
159
154
144
158
149
129
99
73
54
71
63
128
202
191
203
196
196
196
196
196
196
196
196
198
198
198
198
198
198
198
198
197
197
197
197
198
198
198
196
196
195
195
195
195
195
195
195
194
194
194
194
195
195
195
194
193
193
193
193
194
194
194
194
195
195
195
195
196
196
196
196
195
195
196
196
195
195
195
194
194
194
194
194
193
191
190
190
188
187
187
187
185
185
185
185
186
186
187
187
187
187
189
189
189
190
192
192
193
193
193
193
192
192
193
193
193
193
192
192
192
192
192
192
193
193
193
193
193
193
193
192
191
189
191
191
193
204
202
189
157
128
101
86
56
81
96
94
84
87
92
95
91
89
89
89
89
89
89
89
88
88
90
90
91
91
93
93
92
92
92
91
91
90
91
91
91
91
92
96
97
89
87
95
99
95
95
101
104
101
101
108
109
97
116
100
94
103
86
94
80
69
72
78
84
85
87
87
88
89
90
89
86
79
80
84
84
83
83
83
84
83
83
81
81
80
81
79
78
76
76
76
77
77
78
78
79
77
77
74
75
75
77
78
78
77
79
77
78
79
71
81
82
82
71
76
78
77
78
78
78
78
79
78
79
84
79
68
70
80
80
74
74
76
75
75
75
76
76
76
75
75
75
75
202
202
202
202
203
202
202
202
202
202
202
202
202
202
202
202
204
204
204
205
207
207
208
209
212
212
212
211
214
214
214
214
215
215
214
214
214
214
214
214
214
214
214
214
213
213
213
213
213
213
213
213
213
213
213
213
212
212
212
212
211
211
209
209
209
208
208
207
207
207
207
207
206
206
206
206
205
205
205
205
205
205
204
204
203
203
204
204
204
204
203
203
203
203
202
202
202
202
202
202
203
203
203
203
203
205
203
201
210
203
201
201
140
77
78
76
77
81
85
88
88
91
93
93
93
91
85
79
78
78
77
75
72
71
70
70
69
69
68
68
66
66
66
66
68
68
69
70
74
77
77
73
71
71
70
70
70
71
73
74
74
72
71
70
69
66
69
77
78
73
71
67
69
71
71
71
68
64
65
65
67
65
63
61
55
58
62
63
63
65
67
65
62
61
61
57
62
75
77
70
63
57
53
61
74
82
96
77
50
39
54
57
64
65
63
64
71
75
82
87
70
50
54
54
54
54
55
55
55
55
60
61
55
55
68
70
49
30
32
54
62
64
68
67
66
63
63
64
64
60
60
67
68
61
59
64
64
68
71
67
64
66
66
66
66
70
71
66
63
66
70
71
76
77
77
78
81
83
82
84
88
90
88
89
88
88
109
132
121
81
90
96
79
87
85
88
129
135
109
124
146
142
157
155
151
149
143
145
125
166
206
203
201
198
178
166
166
177
198
212
207
182
145
145
154
168
138
86
71
57
82
72
42
56
57
132
180
177
199
211
206
207
205
195
195
191
186
173
168
172
158
138
117
100
79
62
77
69
166
196
197
197
198
196
196
196
197
197
197
197
197
197
197
197
198
198
198
198
197
197
197
197
198
198
198
196
196
195
195
195
195
195
195
195
194
194
194
194
195
195
195
194
193
192
193
193
192
192
194
194
195
195
195
195
196
196
196
196
195
195
196
196
195
193
193
192
192
190
190
189
188
188
188
187
187
186
186
186
184
184
184
184
186
186
187
187
187
187
189
189
189
189
191
191
192
192
192
192
192
192
192
192
192
192
192
192
192
192
192
192
193
193
192
193
193
193
193
192
191
190
190
190
187
183
160
133
87
78
70
77
113
89
74
78
81
87
97
100
89
89
90
90
90
90
90
90
89
89
90
90
91
92
93
93
92
92
91
90
90
90
91
91
91
91
92
93
92
86
89
96
99
100
100
96
100
105
105
103
105
104
110
103
94
92
87
89
78
69
73
77
81
81
81
82
84
89
90
90
87
79
80
86
85
83
83
83
84
83
81
81
79
79
78
77
77
76
76
76
78
78
79
79
79
77
77
75
75
75
80
80
79
78
79
79
80
79
74
81
82
82
71
76
78
77
78
78
78
78
80
79
79
84
79
68
70
80
80
74
74
77
77
77
76
76
76
76
75
75
75
75
202
202
202
202
203
203
203
201
201
201
201
201
202
202
202
202
202
202
203
203
206
206
207
208
209
211
209
211
211
211
211
211
213
213
211
211
211
211
211
211
213
213
212
212
212
212
212
212
212
212
212
212
212
212
212
212
212
212
210
210
210
209
208
208
207
206
204
203
204
204
204
204
204
203
202
202
202
202
202
202
202
202
201
201
201
201
201
201
202
202
201
201
201
201
201
201
201
201
201
201
201
201
202
202
202
204
201
204
206
201
201
208
154
76
79
78
78
81
84
87
86
90
93
93
93
91
85
79
78
78
77
75
72
71
70
70
69
69
68
66
66
65
65
64
65
65
66
67
72
73
74
72
71
69
67
66
66
65
66
66
66
66
65
65
65
63
64
70
71
67
69
67
70
70
70
67
65
64
65
65
67
65
63
62
57
58
61
65
65
63
64
63
61
67
71
58
54
65
68
68
71
72
48
56
69
78
94
84
60
42
54
57
64
69
72
71
69
61
71
78
67
42
54
54
54
54
55
54
57
55
59
66
60
49
61
73
61
36
27
45
62
67
69
67
64
62
63
64
64
63
63
66
65
58
56
62
66
61
65
67
66
66
66
66
66
70
70
66
64
67
72
72
76
74
75
77
80
83
82
83
87
89
88
88
88
88
98
129
129
92
74
87
75
90
88
71
96
116
108
129
146
145
168
162
154
148
141
154
133
165
204
205
207
208
177
165
166
177
186
203
203
181
143
147
173
207
142
91
77
62
78
78
61
85
82
131
179
201
193
206
206
202
208
199
208
208
184
163
157
169
146
118
97
88
84
66
82
73
171
192
199
197
196
196
196
196
197
197
197
197
197
197
197
197
197
197
197
197
197
197
197
197
198
198
198
196
196
195
195
195
195
195
195
195
194
194
194
194
195
195
195
194
193
192
193
193
192
192
194
194
194
194
194
194
195
195
195
195
194
194
195
195
194
192
192
191
190
188
187
186
184
184
184
184
186
186
186
186
184
184
184
184
185
185
186
186
186
186
188
188
188
188
190
190
190
190
190
190
191
191
191
191
191
191
190
192
193
192
190
190
192
193
191
191
192
193
193
192
191
190
190
190
186
140
91
67
75
76
78
80
71
85
89
87
100
96
90
87
89
89
90
90
90
90
90
90
90
90
90
90
91
91
92
93
92
92
90
88
89
89
90
90
92
92
90
90
87
85
91
96
97
101
102
94
95
106
108
97
97
105
89
102
96
76
85
72
70
75
80
82
80
75
75
76
81
86
87
89
87
79
80
86
85
83
83
82
81
81
80
80
78
78
77
76
76
74
76
74
79
81
81
78
76
78
78
74
72
75
78
80
78
77
77
78
81
78
75
79
77
76
74
75
76
76
76
76
75
74
74
75
76
73
76
82
79
72
72
77
77
77
77
77
76
76
76
76
74
71
75
73
201
201
201
201
201
200
199
199
199
199
199
199
199
199
200
200
202
202
202
202
204
205
206
206
207
207
209
209
211
211
210
210
212
212
211
211
211
211
210
210
209
209
211
211
211
211
210
210
211
211
211
211
211
211
211
210
210
209
210
209
209
207
207
207
207
205
204
202
201
201
202
202
202
202
202
202
202
202
202
202
202
201
201
200
200
200
200
200
200
200
200
200
200
200
200
200
200
200
200
200
200
200
201
201
202
198
200
206
203
199
201
211
170
83
79
78
79
81
84
85
86
90
93
93
93
91
86
80
80
78
78
75
72
71
70
69
68
67
66
66
65
64
65
65
66
66
66
67
71
74
76
74
70
68
66
65
65
63
63
62
63
64
66
67
69
67
69
70
71
70
71
70
71
70
69
66
65
65
65
66
67
67
64
61
55
55
61
68
69
62
61
62
60
65
71
64
57
61
64
67
70
72
60
60
60
61
64
69
76
79
27
42
56
69
78
84
71
58
74
74
74
73
69
64
57
54
38
55
59
54
63
56
56
63
62
70
64
43
29
36
57
68
70
67
61
60
64
65
64
65
63
64
63
56
54
62
71
52
55
67
68
67
67
67
67
67
69
66
66
70
73
74
75
75
76
77
79
80
81
80
84
87
88
88
88
89
106
142
170
114
78
89
88
74
105
92
94
95
96
126
132
114
153
160
161
165
160
135
162
183
189
204
211
203
179
167
167
176
195
213
212
191
148
150
171
202
142
145
146
104
117
141
86
51
98
97
183
184
195
199
201
196
188
194
199
204
171
167
161
159
99
102
104
106
87
64
68
113
192
192
195
195
195
196
196
196
195
195
195
195
196
196
196
196
196
196
196
196
197
197
197
197
196
196
196
195
195
194
194
194
194
194
194
194
193
193
193
193
194
194
194
193
192
190
192
192
192
192
193
193
194
194
194
194
195
195
195
195
194
194
195
193
193
191
190
188
188
187
187
186
184
184
184
184
185
185
185
185
183
183
183
183
185
185
185
185
186
186
187
187
188
188
189
189
190
190
190
190
191
191
191
191
190
190
190
190
190
190
189
189
193
191
189
187
199
184
182
192
192
196
185
146
87
87
87
87
73
75
83
89
92
87
91
91
91
91
90
91
89
90
89
89
91
91
91
91
90
90
90
90
90
91
93
93
94
91
89
87
87
88
88
90
92
91
89
87
86
86
90
94
95
99
100
95
96
101
103
101
96
99
89
95
87
71
72
63
63
69
75
77
76
76
76
78
80
82
86
89
86
79
79
85
86
83
83
82
81
80
79
78
77
76
76
74
74
74
75
75
78
84
83
75
74
81
81
76
76
79
79
79
77
76
75
79
81
75
78
78
73
71
78
74
75
78
76
76
75
75
75
76
77
75
78
82
77
70
74
79
79
77
77
77
77
77
77
77
74
67
76
70
197
197
198
198
198
197
195
194
194
194
194
193
195
195
196
196
199
199
200
200
203
203
204
204
207
207
207
207
209
209
209
209
210
210
209
209
210
210
209
209
209
209
209
209
210
210
209
209
210
210
210
210
210
210
209
209
208
208
207
207
206
206
206
206
206
204
202
201
201
201
201
201
201
201
202
202
202
202
202
202
202
201
201
200
200
200
200
200
200
200
199
199
199
199
199
199
199
199
199
199
199
199
200
200
201
196
198
208
201
198
204
209
179
97
77
76
77
79
82
84
85
90
92
93
93
91
86
80
80
77
77
74
71
70
69
68
67
65
65
64
64
63
64
65
66
66
66
67
71
72
76
75
71
69
66
66
65
64
64
63
65
66
69
70
73
73
74
74
75
74
74
73
73
70
69
68
67
67
66
67
67
68
66
61
55
55
58
64
64
60
60
60
58
61
65
67
65
64
65
67
69
69
70
70
71
69
68
69
76
79
44
42
49
55
64
60
69
86
74
74
74
74
56
52
47
42
52
61
54
38
63
74
74
64
63
66
61
49
37
33
47
62
68
66
64
64
65
65
66
66
65
69
69
58
54
61
67
51
54
67
71
67
67
67
67
67
67
66
66
69
71
72
74
77
76
77
78
78
78
79
82
86
88
88
88
89
99
121
156
128
86
85
86
83
105
92
94
95
116
105
116
147
141
126
130
161
163
139
166
187
189
204
211
204
180
167
167
176
197
213
212
191
154
152
169
196
163
122
158
124
78
147
130
61
79
92
163
196
197
195
195
195
192
187
180
174
172
174
176
180
140
130
116
106
55
61
57
148
194
190
197
194
194
196
196
195
195
195
195
195
196
196
196
196
196
196
196
196
197
197
197
197
196
196
196
195
195
194
194
194
194
194
194
194
193
193
193
193
194
194
194
193
192
190
192
192
192
192
193
193
193
193
193
193
194
194
194
194
193
193
193
192
192
190
190
188
187
186
186
184
183
183
183
183
185
185
185
185
183
183
183
183
184
184
184
184
185
185
186
186
187
187
188
188
189
189
189
189
190
190
190
190
189
189
189
187
183
185
193
195
192
189
189
187
177
190
189
179
160
136
103
74
87
87
87
87
87
86
85
86
89
91
91
91
91
91
91
91
90
90
89
89
91
91
92
91
91
90
91
90
90
90
91
93
94
91
88
84
86
87
87
86
85
87
92
93
90
86
89
91
93
94
95
98
102
101
96
94
94
97
95
85
78
71
65
63
62
61
61
67
72
81
80
79
80
81
83
86
84
77
77
84
84
83
83
81
80
79
79
78
77
76
77
76
76
76
78
75
74
78
77
71
70
75
75
74
79
82
80
80
77
77
76
79
79
70
76
78
75
76
90
80
76
78
78
78
78
78
79
79
79
79
80
77
74
75
79
82
79
77
77
77
77
77
77
78
75
67
80
73
194
194
194
194
194
193
192
190
190
190
191
190
192
192
193
193
195
196
199
200
202
202
203
204
207
207
207
207
210
209
209
209
210
211
210
210
210
209
209
209
209
209
208
208
208
207
207
207
207
207
207
207
208
208
207
207
207
207
206
206
206
205
205
205
205
204
202
201
201
201
201
201
201
201
202
202
202
202
202
202
202
201
201
200
200
200
200
200
200
200
199
199
199
199
197
197
197
197
197
197
199
199
199
199
200
195
197
208
198
198
207
203
182
113
72
71
72
75
81
84
85
90
93
93
93
91
87
81
80
78
78
76
74
70
69
68
67
65
65
64
64
63
64
65
67
67
68
69
72
74
77
76
74
71
69
70
70
69
69
67
67
67
67
71
73
73
74
74
75
74
74
74
73
72
72
72
72
70
69
66
67
69
67
62
55
56
58
55
55
58
60
58
58
58
61
64
67
69
68
69
68
67
69
71
71
69
68
69
76
79
76
46
41
36
50
50
65
89
74
74
74
74
56
52
47
42
52
61
54
38
56
68
68
62
64
61
56
57
50
34
35
51
60
63
66
67
67
69
69
68
70
81
80
65
57
60
53
56
60
69
73
69
69
67
67
67
68
67
67
66
65
67
73
77
78
78
78
77
77
78
81
85
88
88
88
91
90
94
140
147
104
75
83
97
105
91
94
95
116
109
126
161
144
158
163
165
156
132
159
180
190
205
211
204
182
168
168
177
198
213
213
192
162
155
165
188
152
77
121
129
78
131
146
90
97
115
141
208
196
193
190
194
193
186
179
178
178
178
174
171
161
147
125
110
59
60
70
182
198
182
206
193
194
196
195
195
195
195
195
195
197
197
197
197
197
197
197
197
197
197
197
197
196
196
196
195
195
194
195
195
194
194
194
194
193
193
193
193
194
194
194
193
193
192
193
193
193
193
194
194
194
194
194
194
195
195
195
195
195
195
195
193
193
191
190
188
188
187
186
185
184
184
184
184
185
185
185
185
183
183
183
183
184
184
184
184
185
185
186
186
187
187
188
188
189
189
189
189
190
190
190
190
190
190
190
192
195
193
186
188
194
193
184
177
183
185
172
151
118
94
75
80
87
87
87
90
94
94
91
86
87
89
90
90
90
90
91
91
90
89
91
91
92
92
93
92
93
91
93
91
91
91
92
92
93
91
87
85
87
88
88
87
85
88
92
94
90
87
89
89
89
89
91
94
101
101
96
95
95
95
85
80
75
71
69
66
65
62
61
62
68
79
84
81
81
80
80
81
79
73
73
80
82
82
82
81
80
79
79
79
79
80
80
80
80
81
82
81
77
73
73
76
75
71
71
77
81
82
82
81
81
80
80
82
78
64
74
75
76
80
94
82
77
77
77
77
78
78
79
79
79
79
80
78
77
78
82
81
80
79
79
78
77
77
77
79
79
73
86
78
192
192
192
191
191
190
188
188
188
188
188
188
190
189
191
190
193
193
196
197
201
201
202
203
206
206
206
206
209
209
208
208
210
210
209
209
208
208
208
208
208
208
207
206
206
206
206
206
206
206
206
206
207
207
206
206
206
206
205
204
204
204
204
204
204
202
202
201
201
201
201
201
201
201
202
202
202
202
202
202
202
201
201
200
200
200
200
200
200
200
199
199
198
197
196
196
196
196
196
196
196
196
197
197
199
194
195
206
198
198
207
200
185
128
70
65
68
72
79
84
85
90
93
93
93
91
87
81
80
78
77
76
75
72
70
69
68
67
64
64
64
63
64
65
66
66
68
69
73
75
78
76
75
72
69
69
72
74
71
70
69
67
67
69
70
70
71
71
71
72
73
73
73
73
73
75
73
71
69
66
65
68
67
61
54
56
57
49
49
58
61
58
58
57
58
61
65
68
68
69
67
62
60
60
60
63
64
68
76
79
97
57
32
22
44
61
69
63
71
71
73
73
69
64
57
54
38
54
61
54
52
41
41
60
64
59
54
57
52
40
32
41
53
63
69
68
69
69
69
66
73
90
89
71
62
59
49
60
65
69
72
69
69
67
66
69
68
67
66
64
61
64
71
75
78
78
78
77
77
78
81
85
88
88
88
89
85
82
124
144
120
79
83
106
105
91
94
95
92
133
156
148
136
183
194
136
144
119
146
167
189
205
212
207
182
168
167
177
197
213
213
192
168
158
165
182
159
84
101
161
118
101
127
118
137
149
132
212
198
191
187
187
187
191
198
205
190
172
155
139
150
140
126
116
92
62
98
197
200
176
211
192
193
196
196
195
195
195
195
195
197
197
197
197
197
197
197
197
197
197
197
197
196
196
196
195
195
194
195
195
194
194
194
194
193
193
193
193
194
194
194
193
193
192
193
193
193
193
194
194
194
194
194
194
195
195
195
195
195
195
195
193
193
191
190
188
188
187
186
185
184
184
184
184
185
185
185
185
183
183
183
183
184
184
184
184
185
185
186
186
187
187
187
187
188
188
188
188
190
190
190
190
190
190
190
188
189
189
191
186
178
180
196
206
170
133
99
85
67
63
77
101
87
87
91
88
102
96
90
86
87
89
89
89
89
89
90
90
88
88
91
91
92
91
92
91
92
91
93
91
91
91
92
92
93
91
87
86
88
89
89
91
92
92
88
83
83
86
87
85
86
88
88
90
94
97
101
103
95
85
80
77
74
74
71
70
68
65
63
63
68
75
83
84
82
78
78
78
77
72
72
77
81
81
81
78
79
79
80
80
81
83
83
82
80
84
84
86
84
77
78
86
85
75
75
82
84
82
82
82
83
83
83
83
77
67
70
71
74
76
87
78
76
77
77
76
75
75
79
81
83
80
82
82
82
82
83
81
80
82
82
82
82
79
77
80
84
79
89
79
192
190
190
190
191
190
188
187
187
187
187
187
188
188
189
190
194
194
196
198
200
200
201
202
203
203
206
206
207
207
207
207
209
209
207
207
207
207
207
206
206
205
206
205
205
205
204
204
205
205
205
205
205
205
205
203
203
202
204
202
202
202
202
202
202
201
201
201
201
201
201
201
201
201
202
202
202
202
202
202
202
201
201
200
200
200
200
200
199
199
198
197
197
196
196
195
195
195
195
195
195
195
196
196
196
195
196
203
198
198
201
198
192
144
75
65
67
72
79
84
86
90
92
93
93
91
87
83
80
79
78
80
77
74
71
70
68
66
65
65
64
64
65
65
66
66
69
70
73
77
79
77
73
69
68
68
72
74
72
69
67
65
65
65
69
70
71
71
72
74
74
74
74
73
73
72
71
69
66
65
64
67
69
64
55
59
59
50
50
61
62
59
59
59
58
58
62
63
65
69
67
62
64
68
67
63
63
64
62
62
78
70
37
16
34
53
65
67
70
70
71
71
72
73
75
75
50
63
66
55
56
29
29
47
57
57
56
53
49
44
36
37
50
65
71
69
69
70
69
70
75
88
82
72
68
61
54
65
68
70
72
71
70
66
66
69
67
66
66
64
62
63
70
74
77
77
78
77
77
78
81
85
87
88
90
90
90
96
100
142
126
90
85
111
100
84
83
95
101
107
145
138
142
145
167
140
158
128
149
166
185
204
215
211
192
168
168
188
199
213
212
193
195
146
166
201
159
119
88
141
158
134
159
142
172
181
141
183
197
192
186
182
184
193
202
208
193
168
165
143
177
148
146
116
93
73
150
187
188
193
200
193
193
196
197
197
197
197
197
197
198
198
198
198
197
197
196
196
196
196
195
195
195
195
195
194
194
193
193
193
193
193
193
193
193
193
193
193
194
194
194
194
193
193
193
193
194
194
194
194
194
194
194
194
195
195
195
195
194
194
194
193
193
190
190
189
188
187
187
186
185
185
185
185
186
186
186
186
185
185
185
185
185
185
184
184
185
185
185
185
186
186
187
187
188
188
188
188
188
188
188
188
188
188
188
189
187
186
181
180
191
196
188
153
117
96
72
66
82
82
82
83
93
94
93
96
94
91
90
89
89
89
91
90
89
88
89
89
88
88
89
89
91
92
93
93
93
92
94
93
92
92
92
92
92
91
89
87
89
90
90
89
91
94
89
80
81
90
90
87
87
89
88
88
92
99
103
101
92
79
77
74
74
75
74
73
70
67
66
65
68
74
82
86
81
77
77
77
76
73
73
77
79
79
79
78
79
78
78
78
80
84
87
81
79
84
85
84
85
79
80
89
87
77
77
85
84
82
82
82
83
83
83
81
78
77
69
72
76
79
82
79
79
79
79
77
74
75
79
84
85
79
80
85
83
83
82
82
83
83
83
84
84
83
80
84
89
82
91
79
193
192
192
190
191
190
188
188
188
188
188
188
189
189
190
191
194
194
195
196
199
198
200
201
202
202
203
203
206
206
206
206
206
206
205
205
205
205
205
205
205
205
204
202
202
202
202
202
204
204
204
204
204
204
203
203
202
202
201
201
200
201
201
201
201
200
201
201
201
201
201
201
201
201
202
202
202
202
202
202
202
201
201
200
200
200
200
200
199
199
198
197
196
195
195
194
194
194
194
194
194
194
195
195
195
195
195
200
198
198
196
194
199
164
85
70
68
72
77
83
86
90
92
93
93
91
87
83
80
78
76
78
77
72
70
68
66
65
64
64
64
64
65
65
65
65
69
71
74
78
80
78
72
70
69
69
69
70
69
65
64
62
65
66
72
74
73
72
73
75
75
73
74
73
72
71
69
66
65
64
63
68
76
74
63
62
60
56
56
61
61
59
59
57
57
58
60
60
62
67
64
56
64
64
64
63
63
62
62
62
57
65
55
44
27
43
58
65
69
69
70
71
72
73
75
75
68
54
51
61
81
54
42
49
53
55
55
53
52
51
47
42
47
62
70
68
70
69
68
69
71
74
68
65
65
61
63
66
66
67
69
69
71
66
66
70
67
65
65
64
63
64
70
74
74
77
78
77
77
78
81
85
87
88
91
91
92
98
91
126
126
90
85
111
106
101
105
112
123
106
121
135
161
160
165
152
159
129
151
168
182
201
213
211
196
172
171
191
199
212
212
194
188
155
171
199
148
130
76
87
113
155
173
153
153
176
166
203
200
195
188
183
180
183
186
190
191
170
160
145
160
142
133
115
100
88
181
190
191
196
197
196
195
195
197
197
197
197
197
197
198
198
198
198
197
197
197
197
196
196
195
195
195
195
195
194
194
193
193
193
193
193
193
193
193
193
193
193
194
194
194
194
193
193
194
194
194
194
195
195
194
194
195
195
196
196
197
197
195
195
195
194
194
192
192
190
188
187
187
186
185
185
185
185
186
186
186
186
185
185
185
185
185
185
184
184
185
185
185
185
186
186
186
186
187
187
187
187
188
188
188
188
188
188
188
191
192
184
180
185
180
169
131
79
84
85
89
88
84
83
84
83
72
79
89
96
91
91
91
91
89
89
90
88
88
87
88
87
87
87
89
89
91
91
92
92
92
92
94
94
92
92
92
92
92
91
90
89
89
91
93
86
82
90
95
88
89
99
99
94
94
94
86
85
92
100
100
94
84
77
75
74
74
74
74
73
71
67
66
63
68
76
83
84
80
77
77
76
76
75
74
76
78
78
78
76
78
78
78
78
80
87
87
81
78
84
85
82
84
82
82
86
84
79
79
84
83
82
82
82
83
83
83
81
79
86
72
77
84
84
84
86
80
79
79
78
77
78
80
83
80
72
72
80
82
82
82
81
79
78
77
77
77
81
86
91
92
82
93
81
193
192
192
190
191
190
188
188
188
188
188
188
189
189
190
191
194
194
195
195
197
197
199
200
202
202
203
203
204
204
206
205
205
205
205
205
205
205
205
205
204
204
202
202
201
201
201
201
201
201
202
202
202
202
201
201
201
201
201
201
200
200
200
200
200
200
201
201
201
201
201
201
201
201
202
202
202
202
202
202
202
201
201
200
200
200
200
200
198
199
198
197
196
195
195
194
194
194
194
194
194
194
194
194
194
194
195
198
198
196
195
190
203
184
98
79
70
71
74
81
85
90
92
93
93
91
87
83
80
77
75
75
76
69
68
66
65
65
64
64
64
64
65
65
65
65
69
72
76
79
82
79
76
73
71
69
68
64
63
62
58
58
65
70
74
75
74
72
75
77
75
74
74
73
72
71
69
66
65
63
62
68
76
74
63
60
59
61
61
60
60
59
57
57
57
57
57
58
62
67
63
54
57
57
58
58
60
61
62
62
51
64
65
58
25
34
53
65
69
69
70
71
72
73
75
75
76
57
48
52
78
64
52
51
53
50
50
55
55
51
46
39
39
55
69
69
70
67
69
70
69
67
64
58
56
60
65
64
66
68
69
69
72
66
66
70
67
65
65
64
63
64
68
72
73
78
78
77
77
77
81
85
87
88
92
92
94
99
82
111
126
90
86
111
98
111
120
120
131
157
154
150
157
150
132
138
160
130
152
168
176
196
208
205
203
179
178
198
199
211
211
196
179
169
172
197
178
175
167
124
90
175
166
163
148
177
193
208
207
202
195
191
189
186
183
181
188
178
153
148
152
150
132
130
84
131
209
193
193
199
193
196
197
196
197
197
197
197
197
197
198
198
198
198
199
199
198
198
197
197
196
196
196
196
196
195
196
194
194
194
194
194
194
194
194
194
194
194
195
195
195
195
195
195
195
195
197
197
197
197
196
196
196
196
197
197
198
198
197
197
197
195
195
193
193
191
189
188
187
186
185
185
185
185
186
186
186
186
185
185
185
185
185
185
184
184
185
185
185
185
186
187
187
187
187
187
187
187
188
188
188
188
188
188
188
182
183
203
202
173
113
95
79
85
71
72
74
79
82
83
84
82
81
83
86
87
90
91
91
91
89
89
90
88
87
85
87
87
87
88
89
89
90
90
92
92
92
92
94
94
93
93
93
92
92
91
91
90
91
91
94
87
82
90
95
88
89
99
99
91
91
91
90
90
92
93
92
85
78
77
74
74
75
75
74
74
71
67
66
63
67
76
83
84
81
77
77
76
76
76
76
76
76
76
76
76
78
78
78
78
80
88
87
82
78
85
85
79
82
86
87
81
80
84
84
83
80
82
82
82
83
83
83
79
81
95
81
80
85
80
80
87
83
78
80
82
84
84
83
83
80
72
72
80
82
82
82
81
79
79
78
77
77
81
86
90
87
80
95
87
193
192
192
190
191
190
188
188
188
188
188
188
189
189
190
191
194
194
195
195
197
197
199
200
201
201
203
203
204
204
206
205
204
204
203
203
204
204
204
204
204
204
202
201
201
200
200
200
201
201
202
202
202
202
202
201
201
202
201
201
200
200
200
200
200
200
201
201
201
201
201
201
201
201
202
202
202
202
202
202
202
201
201
200
200
200
200
200
198
199
198
197
196
195
195
194
194
194
194
194
194
194
194
194
194
194
195
196
198
196
194
190
202
192
110
75
72
70
72
79
85
90
92
93
93
91
87
83
80
75
72
72
74
66
66
65
65
65
64
64
64
64
65
65
64
64
69
72
76
79
82
79
76
73
73
71
65
63
60
60
58
56
59
64
69
72
73
72
74
75
74
74
73
73
72
72
70
67
66
62
61
67
70
62
55
57
55
62
63
59
59
59
57
56
56
57
57
58
61
64
62
55
54
55
57
57
58
61
64
67
63
60
62
62
41
29
41
55
69
69
70
71
72
73
73
75
70
71
57
36
52
55
55
53
53
47
48
53
51
44
39
32
32
48
66
70
71
69
69
69
69
67
68
60
54
63
66
61
65
68
68
69
71
66
66
70
67
66
66
65
65
66
71
72
72
76
78
77
75
77
81
85
86
89
93
94
96
99
83
97
120
99
96
110
89
109
118
111
123
144
143
177
175
164
131
149
162
133
154
171
172
194
205
204
203
185
185
199
198
209
211
198
179
172
176
194
187
175
217
116
102
185
142
165
161
184
204
195
212
207
200
203
204
202
193
186
186
183
147
151
158
167
143
152
87
191
199
196
198
196
195
197
197
196
197
197
197
197
197
197
198
198
198
198
199
199
199
199
197
197
196
196
196
196
196
195
196
194
194
194
194
194
194
194
194
194
194
194
195
195
195
195
195
195
197
197
197
197
198
198
196
196
197
197
199
199
199
199
198
198
198
197
196
194
194
193
190
189
186
186
185
185
185
185
186
186
186
186
185
186
185
185
185
185
184
184
185
185
185
185
186
187
187
187
187
187
187
187
188
188
188
188
188
188
188
191
190
182
141
95
76
89
88
71
87
87
84
80
83
85
85
84
103
99
91
83
91
95
94
92
89
88
88
87
87
85
87
86
88
88
91
89
90
90
91
91
92
92
94
94
93
93
93
92
92
91
91
90
90
91
95
94
86
89
91
78
80
92
89
81
79
84
91
93
91
86
82
79
75
75
74
74
74
74
74
74
73
67
66
62
67
78
84
83
80
77
77
74
75
76
72
69
70
78
79
75
75
78
81
82
83
89
87
83
81
86
84
78
82
87
88
81
80
85
85
82
83
85
84
83
84
86
86
82
84
96
86
81
81
76
76
83
82
77
79
86
91
92
85
82
83
82
82
86
85
84
85
85
85
86
86
88
88
84
79
77
78
75
93
88
194
193
193
190
190
189
189
189
189
189
189
189
191
190
190
190
193
193
193
195
197
197
198
198
201
201
202
202
205
205
204
203
204
201
202
204
204
204
204
202
201
200
201
201
200
200
200
200
200
200
200
200
202
202
201
201
200
200
201
201
201
201
201
201
201
201
202
202
202
202
202
202
202
202
201
201
202
202
202
202
204
202
202
201
201
201
200
200
199
199
199
199
198
196
196
195
195
194
194
193
193
193
193
193
194
194
194
196
196
198
195
194
200
196
130
68
73
69
69
78
84
89
92
93
93
91
88
84
80
74
70
71
72
69
65
66
65
65
64
64
63
63
64
64
65
65
68
71
74
78
80
79
74
73
72
70
65
62
61
61
58
56
55
59
66
71
71
72
73
73
74
74
73
72
72
71
70
69
66
60
60
68
66
57
54
58
54
58
61
59
57
58
56
55
56
56
57
57
60
63
61
56
54
55
55
55
56
58
62
65
67
62
62
63
53
36
32
39
54
58
64
68
54
60
69
73
71
65
58
53
47
61
61
51
49
47
48
52
49
43
38
32
31
43
61
69
68
68
69
69
69
68
67
59
59
68
69
62
65
66
67
67
67
66
67
67
67
66
67
67
66
69
73
72
71
72
76
76
77
77
80
83
86
88
93
95
97
98
85
88
106
111
110
107
95
110
115
104
118
158
106
146
165
147
145
156
155
136
155
175
194
197
203
200
196
190
194
196
198
208
209
203
188
168
178
191
186
182
191
123
156
193
136
173
169
134
178
215
229
210
203
212
202
181
174
185
214
190
170
164
161
160
126
124
91
133
210
193
202
194
208
199
196
198
198
198
197
197
198
198
198
198
199
199
199
199
199
199
197
197
197
197
197
197
197
196
196
195
195
195
195
195
195
195
194
194
195
195
195
195
197
197
197
197
197
197
198
198
199
199
198
198
198
198
199
199
199
199
197
197
198
197
196
195
194
194
193
192
188
187
187
188
188
188
187
186
186
186
186
186
187
187
186
186
186
186
188
188
188
188
188
187
187
187
188
188
188
188
199
181
177
189
186
198
191
173
149
121
91
78
87
87
86
84
88
90
89
84
85
85
85
85
99
101
97
86
91
99
99
91
87
87
87
86
85
84
85
86
87
88
91
89
90
89
91
91
92
92
93
93
92
92
93
92
91
90
90
90
90
91
93
91
85
83
91
74
76
93
82
78
76
77
82
83
82
79
76
76
75
75
75
74
74
74
75
75
74
69
64
62
65
78
84
81
78
76
75
75
72
76
76
72
74
83
84
78
77
82
84
89
89
89
86
83
88
89
84
81
82
88
88
84
83
85
85
87
88
88
85
82
83
89
89
83
84
90
87
83
83
84
84
84
83
77
79
86
90
91
87
80
83
86
87
88
86
86
86
88
88
89
90
90
89
85
81
80
78
74
90
87
194
193
193
190
190
189
189
189
189
189
189
189
191
191
190
190
193
193
193
195
197
197
198
198
201
201
201
201
205
205
204
203
202
200
201
202
202
202
202
201
201
200
201
200
200
199
199
199
200
200
200
200
202
202
201
201
200
200
201
201
201
201
201
201
201
201
202
202
202
202
202
202
202
202
201
201
202
202
202
202
204
202
202
201
201
201
200
200
199
199
199
199
198
197
196
195
195
194
194
193
193
193
193
193
194
194
194
195
196
196
195
197
200
198
150
75
72
69
68
77
84
89
92
93
93
91
88
84
80
74
70
71
72
70
66
66
65
65
64
64
63
63
64
64
65
65
65
68
72
77
79
79
75
73
71
69
64
62
62
61
58
57
55
59
65
69
70
71
72
72
73
73
71
72
72
71
67
66
65
62
62
66
64
59
59
60
55
54
59
59
58
58
56
54
55
56
57
57
58
61
60
56
56
56
55
54
51
51
54
57
60
63
65
66
64
50
31
23
45
50
55
59
60
62
66
67
66
63
61
56
53
57
57
52
51
50
48
47
44
41
37
33
34
43
55
63
66
68
66
69
69
67
58
60
64
70
69
65
65
65
66
66
64
63
64
64
64
64
65
65
65
67
72
72
71
69
72
75
77
78
78
80
84
88
93
98
99
99
90
90
98
108
108
102
103
110
110
104
148
166
130
148
142
143
151
162
142
138
152
174
189
194
199
198
192
191
196
194
196
207
209
201
193
170
182
190
192
183
200
149
171
190
133
152
160
126
179
230
225
215
208
212
208
197
191
193
195
213
170
119
136
145
126
105
100
115
193
201
205
194
208
199
196
198
198
198
197
197
198
198
198
198
199
199
199
199
200
200
197
197
197
197
197
197
197
196
196
195
195
195
195
195
195
195
194
194
195
195
195
195
197
197
197
197
198
198
198
198
199
199
199
199
199
199
200
200
200
200
199
199
199
198
197
196
196
196
197
195
195
193
191
191
191
191
190
188
187
186
187
188
191
191
190
190
190
190
191
191
191
190
189
187
187
187
188
188
188
188
175
171
175
183
190
175
144
116
98
88
77
75
83
83
83
83
82
81
88
89
89
86
86
85
87
96
96
86
89
99
99
89
86
86
86
85
85
84
85
84
85
85
88
88
90
89
90
90
92
92
93
93
92
92
93
92
91
90
90
91
91
92
92
92
87
83
93
74
74
93
79
77
77
76
76
76
77
77
76
76
76
75
75
74
74
74
75
75
76
72
64
61
65
79
86
82
79
72
71
74
70
74
90
100
97
90
90
86
88
88
82
83
90
90
86
83
88
88
86
85
84
85
87
87
85
85
85
85
85
84
81
77
78
85
85
79
80
82
82
81
83
90
90
88
89
84
79
77
77
83
88
87
86
86
84
83
81
81
82
83
84
85
88
88
87
89
94
97
91
82
94
92
194
193
193
192
192
190
190
190
190
190
191
191
192
192
191
191
193
193
193
195
197
197
198
198
201
201
202
202
204
204
204
202
201
200
201
202
202
202
202
202
200
200
199
200
198
199
199
199
199
199
199
199
200
200
200
200
200
200
201
201
201
201
201
201
201
201
202
202
202
202
202
202
202
202
201
201
202
202
202
202
204
202
202
201
201
201
200
200
199
199
199
199
198
197
196
195
195
194
194
193
193
193
193
193
194
194
194
195
196
196
196
197
199
198
171
97
70
68
67
74
84
89
92
93
93
91
88
84
80
74
70
70
73
70
67
66
66
65
65
64
64
63
64
64
64
64
64
68
71
76
79
79
75
73
71
69
65
63
63
62
59
58
57
62
65
66
66
69
72
72
72
72
71
71
71
67
65
64
63
67
67
61
59
64
64
58
54
55
59
59
58
58
55
54
55
56
57
56
58
61
58
56
56
57
56
54
53
50
48
46
49
56
62
67
69
60
37
17
33
37
44
47
68
65
62
59
58
61
64
67
57
50
50
57
59
53
45
41
39
37
32
29
33
40
47
55
63
66
66
67
66
58
60
66
68
64
64
67
68
65
65
63
60
58
58
58
59
59
60
60
60
63
67
70
71
67
71
75
76
78
78
79
83
87
94
98
100
100
98
98
97
93
93
101
106
104
104
110
134
145
164
176
149
149
142
130
129
136
145
176
183
188
193
193
190
191
196
194
196
205
207
197
189
182
184
195
199
187
196
190
166
185
165
183
166
128
175
233
219
222
215
205
202
204
197
186
220
221
162
152
145
137
140
125
112
91
168
214
205
195
208
199
198
199
199
199
198
198
199
199
199
199
200
200
201
201
200
200
201
201
200
200
200
200
200
199
199
197
198
198
197
197
196
196
198
198
198
198
198
198
199
199
199
199
199
199
200
200
200
200
201
201
200
200
201
201
201
201
200
200
200
199
199
199
199
199
199
199
200
197
197
196
196
196
194
191
190
189
189
192
193
193
192
192
192
192
192
192
192
191
189
188
188
188
188
188
188
188
192
195
193
183
153
125
96
80
75
77
82
84
86
87
87
87
85
82
80
86
89
86
86
85
84
91
91
82
83
93
93
85
84
86
86
85
84
83
84
84
85
85
86
87
88
88
91
91
91
91
92
92
92
92
93
92
91
90
92
93
96
92
91
92
93
91
96
72
69
88
76
75
77
76
77
77
78
78
77
77
78
78
75
75
76
76
76
79
78
74
65
62
64
79
86
84
79
67
65
77
74
70
95
127
127
93
79
84
89
88
82
83
90
90
86
82
83
85
89
89
87
87
87
87
86
87
90
92
92
91
89
87
89
95
95
88
85
85
85
84
84
90
90
85
87
90
84
78
77
80
83
89
88
86
84
83
81
81
82
83
84
85
88
88
87
89
94
97
91
82
94
90
196
190
192
192
192
190
190
190
190
190
192
192
192
192
191
191
193
193
193
195
197
197
198
198
201
201
200
200
204
204
203
201
200
199
200
201
201
201
201
201
200
200
199
198
198
196
197
197
198
198
199
199
200
200
200
200
200
200
201
201
201
201
201
201
201
201
202
202
202
202
202
202
202
202
201
201
202
202
202
202
204
202
202
201
201
201
200
200
199
199
199
199
198
197
196
195
195
194
194
193
193
193
193
193
194
194
194
194
196
196
197
197
198
198
188
111
68
65
67
71
84
88
91
92
92
90
86
83
79
73
70
70
71
69
67
67
66
65
64
64
63
63
64
64
64
64
64
66
69
73
76
78
74
72
70
69
65
63
63
62
61
61
62
63
64
64
65
66
70
70
70
71
71
70
67
65
65
63
63
69
69
61
60
70
67
56
53
55
57
58
58
55
53
52
54
56
58
60
61
60
57
56
56
57
57
57
57
55
50
46
47
51
53
57
62
62
47
26
24
29
35
39
73
67
60
55
55
59
64
71
62
48
47
60
61
55
45
40
37
36
29
27
30
35
38
45
58
63
64
63
62
61
64
66
66
61
60
68
70
67
65
63
60
58
57
57
58
58
58
58
58
60
64
67
69
70
69
72
75
78
78
78
80
85
92
97
100
101
102
105
97
79
79
102
115
108
106
117
140
131
165
155
127
144
148
135
129
134
142
175
183
184
190
191
188
191
197
196
195
202
206
193
189
198
191
194
199
197
190
200
206
207
186
187
187
143
168
215
216
224
218
200
186
197
190
169
193
208
151
161
143
98
118
129
122
72
151
222
203
195
207
199
198
199
199
199
198
198
199
199
200
200
201
201
201
201
201
201
201
201
200
200
200
200
200
199
199
197
198
198
197
197
196
196
198
198
198
198
198
198
199
199
199
199
200
200
200
200
201
201
201
201
201
201
202
202
202
202
201
201
201
201
201
201
200
200
201
201
201
200
200
198
198
198
197
195
194
192
192
193
193
193
192
192
192
192
192
192
192
192
192
189
188
188
188
188
188
188
198
197
177
148
98
79
73
83
69
76
84
89
92
92
92
91
85
84
82
84
88
89
89
86
83
87
87
80
82
89
89
83
83
85
85
84
84
83
84
84
85
85
86
86
88
88
90
90
90
90
90
90
90
90
91
91
89
90
91
93
97
95
91
93
97
93
96
72
68
84
72
75
77
77
78
78
78
77
78
77
80
79
76
75
76
76
76
79
79
75
68
61
64
80
87
86
78
67
65
78
77
68
86
125
132
98
72
76
83
85
85
88
88
88
85
83
83
84
86
88
87
87
87
86
85
86
88
90
89
89
84
80
82
88
88
85
89
92
93
89
87
89
88
78
77
89
92
89
90
82
76
83
84
83
86
88
89
87
87
86
87
88
89
90
88
84
81
81
80
76
84
83
199
189
190
193
193
192
192
192
193
193
191
191
191
191
191
191
194
194
195
195
197
197
198
198
198
197
199
200
202
202
202
201
200
199
201
201
201
201
201
200
200
199
198
198
196
196
196
196
198
198
198
199
200
200
200
200
200
200
201
201
201
201
201
201
201
201
202
202
202
202
202
202
202
202
201
201
202
202
202
202
204
202
202
201
201
201
200
200
199
199
199
199
198
197
196
195
195
194
194
193
193
193
193
193
193
193
193
193
195
195
195
195
197
196
199
124
70
61
68
70
85
87
90
93
92
90
86
82
79
74
69
69
70
68
67
66
65
65
65
65
64
64
64
64
64
64
65
66
68
73
75
75
71
69
68
67
65
62
63
63
62
62
64
64
65
65
64
66
69
70
69
70
71
70
66
64
64
63
64
67
68
63
66
74
70
58
55
57
55
55
56
54
54
52
54
57
61
64
63
61
58
56
57
57
57
60
60
57
50
47
47
53
52
50
53
59
56
41
26
23
26
32
60
58
55
53
56
59
62
61
65
53
47
54
59
57
50
44
42
37
29
27
29
31
31
37
49
57
60
62
61
64
66
65
65
63
60
65
68
67
63
60
59
60
58
58
57
57
57
58
59
60
63
64
69
71
69
72
76
78
79
78
78
84
91
95
96
96
98
102
96
72
72
102
119
111
110
121
150
115
154
148
125
127
130
132
139
136
132
172
185
182
202
193
188
192
198
197
194
199
203
191
194
217
201
193
198
205
189
199
219
178
131
154
189
193
169
223
217
223
218
200
188
200
193
171
169
221
195
170
134
106
123
103
119
82
154
219
201
198
204
201
198
199
200
200
200
200
200
200
201
201
202
202
202
202
204
204
201
201
201
201
201
201
201
200
200
199
199
199
197
197
197
197
198
198
199
199
199
199
200
200
200
200
201
201
201
201
204
204
202
202
202
202
203
203
203
203
202
202
202
202
203
202
203
203
202
202
202
202
202
202
202
202
201
199
198
195
195
194
194
194
193
193
194
194
194
194
194
193
194
193
191
188
185
181
189
194
161
131
98
82
90
90
90
88
87
86
86
86
90
96
87
76
83
84
84
86
90
91
91
87
86
86
85
83
83
86
87
85
84
84
85
85
84
84
84
84
85
85
86
86
88
89
89
89
89
89
89
89
89
89
89
89
87
89
92
94
97
96
91
92
93
86
91
75
74
85
72
78
78
78
79
79
79
79
81
82
82
80
78
75
76
78
78
79
79
74
67
60
64
79
86
78
77
70
70
75
75
71
79
107
116
93
74
78
84
86
88
84
83
83
86
88
88
86
84
84
86
87
87
86
85
87
89
90
90
93
87
81
84
88
88
89
91
94
94
92
91
89
86
80
80
89
91
87
92
82
79
87
86
80
86
94
96
93
89
87
89
90
89
88
85
83
78
77
78
83
78
78
193
188
190
193
194
193
193
193
194
194
192
191
191
191
191
191
194
194
195
195
197
197
198
198
198
197
198
199
202
202
201
200
200
199
201
201
201
201
201
200
200
199
198
196
197
196
195
195
197
197
198
199
200
200
200
200
200
200
201
201
201
201
201
201
201
201
202
202
202
202
202
202
202
202
201
201
202
202
202
202
203
202
202
201
201
201
200
200
199
199
199
199
198
197
196
195
195
194
194
193
193
193
193
193
193
193
193
193
195
195
195
195
197
197
199
142
78
60
70
69
88
87
89
90
91
89
85
81
78
74
70
68
66
65
66
65
65
64
64
64
64
64
64
64
64
64
65
66
68
73
74
74
71
68
67
66
65
62
63
63
63
63
64
63
64
64
64
65
65
66
67
69
67
67
65
64
63
63
63
63
63
63
66
74
72
63
58
58
55
54
56
56
57
55
56
56
60
62
62
60
61
58
57
56
57
60
60
57
50
48
48
53
51
46
49
55
59
55
35
23
19
22
46
46
48
48
60
60
61
61
67
60
50
50
54
59
56
51
46
39
30
27
28
29
29
34
43
51
57
59
61
65
67
65
64
64
64
61
59
57
51
51
54
58
58
58
57
57
58
59
60
62
63
63
66
70
70
71
75
77
79
78
78
83
90
93
92
87
85
91
91
74
75
97
107
98
102
113
125
111
144
143
143
137
129
123
139
139
131
170
184
181
204
198
194
194
197
195
193
198
202
193
198
220
205
198
199
207
192
199
177
159
135
135
189
181
137
179
218
222
217
202
188
200
192
171
176
219
208
183
163
118
118
126
118
85
142
212
199
204
197
201
200
199
200
200
200
200
201
201
202
202
203
203
204
204
204
204
202
202
201
201
201
201
201
200
200
199
199
199
197
197
197
197
198
198
199
199
199
199
200
200
200
200
201
201
202
202
204
204
204
204
204
204
204
204
204
204
203
203
203
203
204
203
204
204
203
203
203
204
204
206
206
206
205
202
201
199
197
195
195
195
193
193
194
194
194
194
194
193
195
197
201
204
216
200
167
132
109
94
75
70
76
75
75
76
86
87
86
86
94
104
100
87
82
83
87
89
89
89
90
87
86
85
85
85
85
85
85
85
85
85
85
85
84
84
84
84
85
85
86
86
88
89
89
89
87
87
87
87
87
87
87
87
86
89
92
96
97
96
91
90
86
77
87
77
78
87
75
82
81
79
81
81
81
81
82
83
83
81
78
75
76
78
78
79
79
74
67
60
64
79
86
78
75
74
74
71
71
77
77
88
95
90
82
82
82
85
91
90
84
83
89
92
91
89
87
86
86
87
87
85
83
87
90
92
94
99
98
92
93
97
97
98
98
95
95
98
96
92
87
87
92
94
86
79
81
82
89
97
93
83
86
97
100
96
91
93
97
94
84
77
78
83
87
85
84
90
78
80
182
189
193
194
196
196
194
194
194
194
194
194
193
193
189
193
194
193
195
196
199
199
200
200
200
198
200
201
202
202
201
201
201
201
201
201
201
201
201
200
200
199
198
198
197
197
197
197
198
198
198
199
200
200
200
200
200
200
201
201
201
201
201
201
201
201
202
202
202
202
202
202
202
202
202
202
202
202
204
204
203
203
202
202
202
201
201
200
199
199
199
199
198
197
196
195
195
194
194
193
193
193
193
193
193
193
193
193
195
195
195
195
196
197
196
168
92
63
71
69
88
88
89
90
91
89
86
82
79
75
70
66
67
66
65
64
64
64
64
64
64
64
64
64
64
64
65
66
69
72
73
75
73
68
66
65
65
63
63
62
62
62
62
60
62
62
62
62
64
64
64
64
65
64
65
65
65
63
60
58
59
58
61
71
74
66
62
60
57
55
57
58
60
60
59
56
54
54
55
57
60
61
61
60
60
60
60
57
51
49
47
43
43
49
51
50
51
52
38
28
16
13
28
33
42
47
60
61
61
61
63
67
54
47
50
60
62
55
48
40
30
27
28
29
29
33
39
47
51
54
58
64
68
71
67
61
61
62
57
51
47
47
50
54
55
55
56
56
58
59
60
61
63
63
65
69
71
71
73
77
79
78
78
83
90
95
96
91
83
84
86
79
79
90
91
86
94
109
142
137
132
113
130
135
143
149
139
140
131
171
176
177
207
206
202
197
195
191
193
197
201
196
197
212
202
204
204
211
200
211
214
207
195
185
186
172
122
158
219
222
217
202
188
199
192
171
173
178
179
182
160
121
98
113
117
91
124
200
195
212
188
201
202
199
200
200
200
200
201
202
204
204
205
205
205
205
205
205
204
204
202
202
202
202
202
201
201
200
200
200
199
199
199
199
199
199
200
200
200
200
201
201
201
201
202
202
204
204
205
205
205
205
205
205
206
206
206
206
204
204
204
204
205
205
206
206
206
206
206
206
206
206
206
206
206
206
205
201
198
198
196
196
195
195
195
195
193
193
194
194
196
195
191
189
175
158
121
89
86
81
73
70
69
70
70
70
71
71
72
72
71
85
89
80
82
86
87
86
86
85
85
85
85
85
85
85
86
85
85
85
86
85
84
85
84
84
85
84
85
85
86
86
89
89
90
89
86
87
89
89
87
87
87
87
86
89
92
97
98
96
91
86
78
70
85
78
79
89
77
83
83
81
82
82
82
82
83
84
86
83
80
79
80
81
80
80
79
75
69
62
64
79
86
78
74
74
74
71
70
74
82
84
88
91
90
83
82
85
91
91
89
89
94
96
93
91
95
94
89
88
88
87
86
88
93
89
84
88
90
85
85
86
86
92
97
91
91
100
102
97
92
95
96
91
88
87
85
89
96
98
100
92
88
97
103
102
96
96
98
94
84
80
83
89
92
89
87
91
78
81
176
189
196
194
192
196
196
192
192
194
189
195
199
192
186
189
192
193
198
194
200
199
200
202
196
198
200
200
201
202
201
201
201
201
201
201
201
201
201
199
199
198
198
198
197
197
197
197
198
198
198
199
200
200
200
200
200
200
201
201
201
201
201
201
201
201
202
202
202
202
202
202
202
202
202
202
202
202
204
204
203
203
202
202
203
202
201
200
199
199
199
199
198
197
196
195
195
194
194
193
193
193
193
193
193
193
193
193
195
195
195
195
196
197
194
184
106
65
68
69
84
88
89
91
91
89
86
82
79
74
69
66
67
65
65
64
64
64
63
63
63
63
62
64
64
64
65
66
68
70
72
75
73
68
65
65
63
62
62
60
60
59
58
56
57
58
59
60
60
60
65
65
64
63
64
66
65
64
62
58
54
54
60
72
77
70
63
59
56
56
58
60
63
63
61
56
50
47
50
55
61
62
61
59
56
56
56
54
50
48
47
41
42
49
52
49
45
47
37
34
24
13
22
30
44
50
61
61
61
61
61
67
60
48
52
59
63
57
51
41
32
27
27
28
29
30
35
41
44
48
51
57
66
74
70
63
59
61
60
52
48
49
48
47
49
54
57
54
57
58
59
60
63
63
64
66
69
70
72
76
78
78
80
87
94
99
102
101
92
85
81
79
82
92
95
95
102
109
140
155
145
130
148
145
142
140
139
140
131
172
172
176
212
211
205
199
194
189
190
197
203
198
197
207
203
210
208
210
206
216
204
194
209
178
179
170
129
170
218
222
216
202
188
200
192
172
164
203
195
172
167
156
117
113
116
92
111
193
194
218
187
203
201
197
199
199
199
199
200
200
201
202
203
203
203
203
203
203
204
204
202
202
202
202
202
201
201
200
200
200
199
199
199
199
199
199
200
199
199
199
200
200
200
200
201
202
204
204
205
205
205
205
205
205
206
206
206
206
203
203
205
204
205
205
204
210
208
206
206
206
206
206
206
206
205
205
204
202
200
199
197
197
195
195
194
194
193
193
193
193
202
188
167
153
104
86
79
85
84
80
73
72
75
77
77
77
93
94
94
94
77
93
101
93
86
87
86
85
84
83
83
83
83
83
86
87
86
85
85
85
87
85
83
84
84
84
85
84
85
84
85
86
89
90
90
87
85
86
89
89
86
85
86
90
90
87
90
100
102
93
90
86
77
69
82
78
80
89
79
83
82
79
81
81
82
82
83
84
86
84
82
81
82
82
80
80
77
74
69
62
65
79
86
78
71
72
69
71
74
74
78
83
85
90
92
88
89
89
88
86
89
94
98
98
95
94
97
96
90
89
89
88
87
89
93
90
92
92
95
92
92
93
85
94
94
83
88
97
102
96
93
95
89
82
93
98
94
94
94
94
100
93
90
102
109
107
99
93
92
92
90
89
89
89
90
88
87
91
81
81
178
193
201
194
189
195
198
191
186
183
186
194
196
185
182
183
186
193
201
196
204
196
198
201
187
200
202
201
201
201
201
201
202
202
202
202
202
201
200
200
199
199
199
198
198
197
197
197
198
198
199
199
200
200
200
200
200
200
201
201
201
201
201
201
201
201
202
202
202
202
202
202
202
202
202
202
204
204
204
204
205
204
203
202
202
202
201
200
200
199
199
198
198
195
195
194
194
194
192
192
192
192
192
192
192
192
194
194
194
194
195
195
195
195
193
188
125
72
67
70
84
86
88
90
91
89
86
84
80
75
70
68
68
67
66
63
63
62
63
62
63
62
62
62
65
65
65
65
68
69
71
76
73
69
65
64
62
59
59
59
59
59
58
53
53
58
60
60
60
65
69
69
64
63
65
67
67
67
68
62
54
52
61
70
72
68
62
57
56
55
59
60
62
63
63
58
50
46
48
54
60
62
62
59
55
52
51
51
50
50
49
45
46
50
52
50
47
47
41
39
32
24
13
22
33
47
51
50
50
49
62
66
64
61
57
60
60
59
56
48
35
27
27
28
28
29
31
34
36
38
45
51
58
64
63
58
58
59
58
49
44
49
49
43
45
53
54
53
56
57
59
60
63
64
64
66
68
68
72
76
78
78
80
89
97
97
101
105
100
89
80
78
86
98
104
109
109
101
150
149
152
161
169
153
148
155
155
140
147
174
165
163
216
216
205
200
192
188
189
197
206
202
201
203
207
211
210
209
208
212
214
213
206
201
173
180
189
188
216
209
217
203
203
188
181
171
173
174
176
177
165
152
136
129
101
92
86
179
194
198
189
193
197
196
197
197
197
197
199
199
200
201
204
204
204
204
205
205
204
204
204
204
202
202
202
201
201
200
200
199
199
197
197
197
199
199
199
199
199
198
199
199
199
199
201
201
204
205
205
205
205
205
204
204
204
204
204
204
205
205
210
216
208
198
205
209
206
204
204
204
205
205
206
204
204
203
203
201
201
199
199
199
205
184
183
204
191
197
205
206
168
129
88
83
83
82
81
76
73
72
72
72
83
83
84
85
87
88
89
89
90
89
89
87
89
86
86
85
84
83
83
82
80
83
87
89
86
85
85
89
89
84
82
84
85
85
86
85
84
84
84
86
89
89
86
84
84
85
89
89
86
84
85
89
92
86
89
98
99
92
89
88
79
74
75
74
78
86
82
83
81
81
81
81
82
84
85
86
86
86
84
84
85
83
81
78
76
74
69
63
64
77
84
73
71
75
65
75
81
76
78
84
86
89
90
88
89
90
88
87
88
91
97
100
99
95
94
93
90
90
91
90
90
91
93
100
98
91
97
96
98
101
82
97
99
86
100
96
102
93
91
96
93
84
98
99
97
93
93
98
98
91
94
108
114
108
99
96
96
96
95
92
90
89
89
88
88
94
88
82
186
195
198
192
191
195
198
192
188
195
201
189
174
171
180
183
188
193
199
209
210
193
195
197
186
197
201
200
200
199
200
200
202
202
202
202
202
201
200
199
199
199
198
197
198
197
197
197
198
198
199
199
200
200
200
200
200
200
201
201
201
201
201
201
201
201
202
202
202
202
202
202
202
202
202
202
204
204
204
204
205
204
203
202
202
202
201
200
200
199
199
198
198
195
195
194
194
194
192
192
192
192
192
192
192
192
194
194
194
194
195
195
195
195
192
193
142
81
66
69
81
85
89
91
91
89
86
84
80
75
71
69
69
67
66
64
63
63
63
63
63
63
62
62
65
65
65
65
66
66
70
76
73
67
65
64
60
58
58
58
58
60
63
58
58
65
67
66
66
67
67
66
64
64
67
69
69
69
69
63
55
52
54
58
60
62
60
56
55
54
55
56
59
60
62
58
53
48
49
52
59
60
60
57
56
55
55
55
56
55
52
51
50
49
49
48
48
48
47
43
37
32
14
18
27
39
54
55
59
61
47
52
53
54
59
57
56
59
61
55
41
31
26
27
28
29
30
31
33
33
39
46
51
54
56
56
57
57
56
48
43
50
58
54
49
52
52
52
54
56
58
59
63
64
64
66
67
68
72
76
78
78
75
80
87
92
96
101
103
95
86
81
89
100
107
109
106
100
143
142
154
160
155
147
154
169
155
140
147
175
139
145
213
219
203
198
191
186
188
194
203
204
207
206
208
209
209
208
208
208
207
211
215
212
205
199
198
197
178
225
219
203
218
207
184
168
182
180
177
176
170
157
141
134
110
96
85
150
195
198
193
194
195
195
195
195
196
196
197
196
198
198
200
200
200
200
201
201
201
201
201
201
201
201
201
200
200
199
199
199
197
197
197
197
199
199
199
198
198
197
198
198
198
198
200
200
201
202
204
204
204
204
204
204
204
204
204
206
211
214
213
206
204
208
204
195
199
204
204
204
205
205
206
204
203
202
202
201
201
198
198
199
203
208
203
191
198
203
161
95
90
86
81
84
81
77
74
73
74
75
78
79
80
80
84
85
87
88
89
89
90
89
89
87
87
86
86
85
84
84
84
83
83
84
86
87
85
85
85
87
87
83
82
86
89
87
84
84
83
83
84
85
86
86
84
83
84
84
86
86
86
84
83
82
84
88
89
84
85
93
90
78
76
75
70
68
75
83
83
83
83
83
83
83
84
85
85
86
86
87
86
86
87
84
81
78
75
72
69
63
62
73
80
73
75
84
71
82
86
78
78
85
88
86
86
86
88
89
90
87
83
83
89
94
97
95
90
89
90
91
92
91
91
92
93
95
93
86
103
104
105
107
89
105
107
100
111
98
98
96
90
102
104
97
109
106
105
97
92
98
99
96
99
108
111
107
100
97
101
100
95
92
90
90
90
88
88
97
97
83
197
202
188
192
199
195
195
196
192
193
195
180
164
172
181
188
194
194
199
216
205
197
199
192
195
197
198
195
197
197
200
202
204
204
202
202
202
201
200
199
199
199
198
198
198
198
198
198
199
199
199
200
201
201
201
201
201
201
201
201
201
201
201
201
201
201
202
202
202
202
202
202
202
202
204
204
204
204
205
205
205
205
204
204
204
203
203
200
200
199
199
199
199
196
197
195
195
195
194
194
194
194
194
194
194
194
195
195
195
195
197
197
196
196
193
206
160
94
66
70
80
86
90
91
91
89
87
85
83
77
72
70
70
68
67
64
65
65
65
65
66
64
64
63
64
64
65
65
66
65
69
75
74
67
65
64
60
57
57
57
57
61
63
58
58
65
67
66
66
64
59
59
62
65
69
70
70
67
65
63
59
53
48
49
58
62
61
57
54
51
53
53
55
55
56
57
54
53
50
51
55
56
57
57
60
61
60
60
60
59
56
52
49
49
49
46
46
46
47
47
44
38
19
13
23
33
39
46
55
63
45
50
54
55
57
53
54
62
62
58
45
33
28
28
29
29
30
31
33
34
36
41
47
50
54
55
55
53
53
52
48
44
48
54
49
44
49
53
54
55
58
59
62
64
65
66
67
68
72
76
78
80
78
75
83
95
101
99
97
95
87
80
83
93
99
96
98
106
151
160
168
169
155
147
154
169
155
141
147
176
139
145
213
219
208
203
196
192
190
193
200
207
210
208
206
205
206
208
208
208
208
209
209
212
226
220
209
195
161
215
229
213
213
223
206
176
197
190
181
174
176
163
148
140
127
104
83
116
195
198
193
194
194
193
194
194
194
194
195
195
195
195
197
197
197
197
198
198
198
198
198
198
198
198
198
197
197
195
197
197
196
196
197
197
198
198
199
198
198
197
197
197
197
197
198
198
200
200
201
201
202
202
204
204
204
204
205
199
197
209
208
202
213
223
211
195
198
204
205
205
206
206
206
205
204
203
203
202
201
200
200
199
194
189
194
205
170
104
61
67
78
81
82
79
74
71
69
69
82
82
82
82
83
83
84
85
86
87
89
89
90
89
87
87
86
86
85
85
84
84
84
85
87
86
84
83
84
85
85
86
85
82
83
92
94
90
82
79
80
83
83
84
85
85
83
84
84
84
84
87
89
86
83
78
79
91
91
79
81
97
90
75
72
70
64
63
69
81
86
85
86
88
89
86
85
85
85
86
86
90
90
90
90
86
83
79
77
75
72
65
58
69
75
70
74
84
72
82
86
78
78
86
89
86
86
86
89
91
93
89
83
83
89
94
97
94
90
89
90
92
94
94
93
93
93
91
88
89
106
106
105
104
102
110
108
105
106
94
94
104
90
107
111
102
114
111
110
103
98
103
107
110
106
102
103
104
102
102
103
100
95
93
94
95
95
91
89
99
102
89
198
205
185
183
203
196
193
193
192
179
173
169
172
176
188
193
198
200
204
206
198
205
202
183
198
194
195
195
195
195
199
201
204
204
202
202
203
201
200
199
199
199
198
198
198
198
198
198
199
199
199
200
201
201
201
201
201
201
201
201
201
201
201
201
201
201
202
202
202
202
202
202
202
202
203
204
204
204
205
205
205
205
204
204
204
203
203
200
200
199
199
199
199
196
197
195
195
195
194
194
194
194
194
194
194
194
195
195
195
195
197
197
196
196
193
212
176
106
67
68
80
87
89
89
89
88
87
85
83
77
72
70
70
68
67
65
65
66
65
65
65
64
63
62
62
62
63
64
65
64
68
74
72
67
65
64
60
57
57
57
57
58
58
55
57
63
64
63
62
57
55
56
60
64
67
69
67
65
63
62
61
59
55
58
65
67
63
58
53
49
50
51
55
56
56
55
54
51
49
52
57
57
55
55
61
61
60
58
57
56
54
51
49
49
49
46
41
39
42
48
48
45
27
16
18
27
18
28
43
53
60
57
60
60
56
54
52
60
61
58
50
36
29
28
29
29
31
30
30
30
32
35
41
48
53
58
56
51
51
57
53
35
28
37
42
42
47
50
52
53
55
58
61
63
65
66
66
67
70
74
78
85
86
82
88
103
109
106
98
93
86
75
74
87
95
92
99
117
176
182
185
188
169
154
148
155
155
141
146
176
165
163
217
216
215
210
203
197
192
192
196
201
206
208
206
203
205
208
208
208
209
210
210
210
235
225
212
196
179
181
228
219
196
225
226
203
207
196
182
173
181
168
151
144
140
108
85
112
195
198
193
194
193
192
192
192
193
193
193
193
193
193
194
194
194
194
195
195
195
195
195
195
197
197
197
195
195
194
194
194
194
194
196
196
197
197
198
197
195
194
195
195
194
194
195
195
195
198
199
200
201
202
202
204
205
204
205
203
206
207
182
146
145
167
196
214
211
206
207
208
208
207
206
205
204
203
203
202
200
199
202
200
199
202
178
140
81
83
89
96
84
80
77
70
68
69
69
69
85
85
85
84
84
83
84
85
86
86
87
87
87
87
86
86
86
86
85
85
84
84
84
86
89
87
83
80
83
84
84
84
83
80
84
93
94
89
79
77
79
82
83
83
83
80
78
82
86
86
85
86
90
89
83
82
86
93
93
90
91
95
89
81
75
65
60
57
65
77
84
85
86
86
89
86
86
86
85
86
85
90
91
90
89
86
83
81
79
76
72
65
58
65
70
64
67
76
63
76
83
76
76
85
90
88
86
86
89
93
95
94
90
90
95
97
96
92
90
89
90
92
94
94
95
93
92
90
86
95
103
102
99
98
106
105
101
102
95
88
94
115
95
108
106
97
105
100
102
102
102
116
118
116
108
99
98
101
104
108
104
94
90
93
97
102
99
91
90
99
104
98
194
191
173
174
181
202
199
180
175
170
160
159
176
177
185
214
196
212
206
189
195
204
197
183
192
195
197
195
197
197
200
201
205
205
204
204
204
201
200
199
199
199
198
198
198
198
198
198
199
199
200
200
201
201
201
201
201
201
201
201
201
201
201
201
201
201
202
202
202
202
202
202
202
202
204
204
204
204
205
205
205
205
204
204
204
203
202
201
201
201
200
199
199
198
198
197
197
197
195
195
195
195
195
195
196
196
195
195
196
196
198
198
198
198
195
208
190
129
72
65
79
87
89
88
89
88
87
86
83
77
74
70
70
68
68
64
64
64
64
64
64
63
62
61
62
62
62
63
64
64
68
72
71
67
65
64
60
58
58
58
58
57
57
58
62
67
68
64
61
58
56
57
60
63
65
66
66
64
63
62
63
64
65
65
65
67
65
60
53
48
49
53
55
57
58
55
53
50
50
52
56
56
51
52
58
60
59
58
58
57
54
50
50
51
53
50
43
38
37
41
44
46
35
20
17
23
19
18
25
36
58
62
57
55
56
55
53
55
58
56
51
40
30
29
29
29
29
29
29
29
32
32
32
35
44
55
56
49
45
56
56
38
24
30
39
42
43
46
48
49
53
55
60
63
65
65
67
66
68
72
78
80
85
88
91
95
105
116
113
102
92
83
82
92
99
98
110
134
180
181
176
164
166
169
183
160
160
151
161
185
176
177
217
216
214
210
203
198
195
193
195
192
195
204
210
208
207
211
211
212
210
212
212
213
229
235
221
205
203
133
177
236
233
208
210
220
212
195
181
179
182
171
150
129
133
112
99
102
175
192
183
186
189
190
191
191
192
192
192
193
193
192
193
193
192
192
193
194
194
194
195
195
196
196
196
195
194
193
194
194
193
193
194
194
196
196
196
195
194
193
194
193
193
192
194
194
194
195
196
197
198
199
199
200
201
201
201
203
209
188
119
72
90
84
118
174
204
207
207
210
209
207
206
205
204
203
202
201
203
200
199
198
196
140
93
61
78
89
94
83
70
73
78
82
82
81
82
82
84
84
85
84
83
83
84
84
85
86
87
86
86
86
86
86
85
85
85
85
85
85
85
85
86
86
84
83
83
83
83
83
84
82
84
89
88
82
78
78
79
81
82
82
82
82
81
79
83
86
87
88
89
88
84
84
89
89
89
93
92
85
83
84
76
67
58
54
62
74
79
82
82
83
84
85
87
87
88
83
84
90
93
90
89
88
84
82
79
77
74
69
63
63
62
62
65
73
60
73
79
72
72
85
91
90
88
87
89
94
97
97
94
92
94
94
91
91
90
90
91
91
92
94
95
94
90
84
87
98
99
103
101
96
110
103
100
100
90
91
101
123
98
103
102
100
104
100
100
106
104
120
123
114
103
101
103
103
109
115
106
92
90
97
104
109
104
95
96
102
106
107
194
201
196
187
199
211
202
171
153
156
153
152
189
188
203
227
192
202
206
178
184
185
184
199
200
207
201
195
195
197
199
200
202
202
201
201
201
200
200
199
199
199
198
198
198
198
198
198
199
199
200
199
200
200
201
201
201
201
201
201
201
201
201
201
201
201
202
202
202
202
202
202
202
202
204
204
204
204
205
205
205
205
204
204
204
203
202
201
201
201
200
199
199
198
198
197
197
197
197
197
196
196
196
196
198
198
196
196
198
198
198
198
199
199
198
199
196
161
80
65
73
85
89
87
88
87
87
85
84
79
74
70
70
68
68
64
64
64
63
63
63
62
61
59
61
61
61
62
63
63
67
71
70
67
65
64
60
57
58
58
58
58
58
61
64
65
65
64
62
61
59
59
60
60
64
65
65
64
64
62
63
65
68
65
61
61
62
60
55
50
50
53
54
55
56
53
54
54
56
56
51
49
47
48
51
53
56
57
58
55
55
52
52
52
55
56
53
45
44
41
39
41
40
28
19
19
18
19
18
25
45
55
55
55
60
65
61
58
57
55
50
40
30
29
30
30
29
28
28
33
39
35
24
19
26
45
55
47
37
45
55
49
36
31
35
36
40
42
46
48
50
54
58
62
65
65
66
67
70
73
77
75
79
90
91
84
94
119
125
109
99
94
94
97
99
104
122
140
176
176
167
155
157
155
172
157
141
154
178
201
183
189
213
216
213
207
202
198
199
202
202
195
191
202
212
210
208
211
211
212
212
213
213
215
223
232
229
215
207
164
124
161
229
221
209
229
229
217
212
214
203
184
171
152
146
118
93
88
138
176
179
181
183
187
187
190
191
191
191
191
191
191
192
192
191
191
191
191
193
193
193
193
193
193
194
193
192
192
192
192
191
191
194
194
194
194
194
193
192
192
193
190
189
188
189
190
190
192
194
194
195
195
197
197
198
198
199
199
204
152
100
89
94
73
73
110
187
204
204
208
207
205
203
203
203
202
201
205
209
206
189
165
110
69
58
81
87
68
65
78
71
74
80
82
82
81
82
82
82
82
84
84
83
83
84
84
85
85
86
85
85
85
85
85
85
85
85
85
85
85
85
85
85
85
85
84
83
82
83
83
83
82
84
83
79
75
78
79
79
81
82
82
82
82
83
81
81
83
87
88
90
88
86
88
90
82
82
91
90
82
82
82
78
71
60
54
60
69
74
77
80
81
83
85
88
90
92
87
84
90
95
90
89
89
87
84
80
79
74
70
66
60
59
60
65
75
63
75
82
75
75
88
94
91
88
87
89
95
100
99
94
92
90
90
89
90
90
90
91
91
92
92
94
93
90
90
94
103
97
105
103
94
101
99
102
95
93
93
101
111
95
98
100
106
116
115
108
115
106
115
119
108
101
108
114
110
114
119
113
103
103
108
111
115
113
106
103
103
104
109
167
179
177
172
179
173
161
145
136
144
126
125
183
179
183
174
128
142
209
175
175
172
180
200
158
186
198
195
196
196
196
196
198
198
196
196
198
198
198
198
199
199
198
198
197
197
197
197
199
199
199
200
201
201
201
201
201
201
201
201
200
200
200
200
200
200
201
201
202
202
202
202
202
202
204
204
204
204
205
205
205
205
204
202
203
203
202
201
201
201
200
200
200
199
200
199
199
199
198
198
198
198
198
198
198
198
199
199
199
199
200
200
200
201
201
195
200
189
100
66
67
83
89
87
87
86
87
87
87
82
75
70
69
68
67
63
63
63
63
63
63
60
59
58
59
59
61
61
62
63
67
70
69
67
65
64
60
57
57
58
60
58
58
57
57
56
56
57
60
61
60
59
60
59
63
64
65
65
64
63
63
64
63
61
56
55
57
58
56
54
55
51
48
47
48
50
54
57
59
56
54
51
50
48
48
48
51
53
54
54
56
54
50
50
50
54
58
53
56
49
43
41
45
35
21
17
15
18
19
18
33
42
47
51
56
62
65
60
55
54
51
40
31
30
31
30
29
28
28
33
38
35
25
16
19
34
44
40
31
34
45
53
47
40
38
33
30
34
42
47
50
51
57
62
65
65
65
69
74
75
73
70
74
86
90
83
88
104
113
102
93
94
94
86
88
106
130
142
166
161
157
159
169
153
170
166
141
164
186
194
194
206
206
217
217
210
205
199
200
202
202
195
191
202
212
210
208
211
211
212
213
213
214
215
220
229
235
224
201
215
153
113
173
208
217
223
232
216
222
227
226
193
172
162
146
118
94
88
106
173
179
179
189
188
188
189
188
188
190
190
188
188
188
188
186
186
186
186
187
187
187
187
188
188
189
189
190
190
192
192
190
190
191
191
193
193
194
193
192
190
190
189
188
187
187
187
189
189
190
190
192
192
193
193
195
195
195
195
216
140
79
80
99
83
83
111
141
173
205
207
206
203
201
201
201
202
202
202
213
202
157
109
45
97
108
76
64
78
75
60
73
75
80
82
82
81
82
82
82
84
84
85
83
83
84
84
85
85
86
85
85
84
84
84
84
84
84
84
84
84
85
85
85
85
85
84
83
83
83
83
83
83
83
81
78
78
79
79
79
81
82
82
82
82
82
82
82
84
88
89
91
89
89
89
89
86
86
88
86
86
82
79
81
76
62
54
57
64
69
76
80
81
84
87
91
93
97
90
84
91
96
90
89
89
88
86
84
82
75
74
66
59
60
62
64
75
63
77
85
79
79
91
96
93
88
87
90
97
102
101
95
94
90
90
89
89
90
90
90
91
92
90
89
91
97
101
104
106
91
108
107
86
93
98
101
93
107
99
102
98
97
100
101
106
117
115
114
128
113
111
111
105
103
114
117
108
105
110
111
113
113
109
109
107
109
113
109
104
107
108
124
131
130
130
132
118
113
119
124
125
93
87
160
156
125
85
41
90
180
179
185
158
199
182
88
135
196
196
196
195
195
195
195
195
194
194
195
195
197
198
199
199
198
197
197
196
198
197
199
199
199
199
200
200
201
201
201
201
201
201
200
200
200
200
200
200
201
201
202
202
202
202
202
202
204
204
204
204
205
205
205
205
204
202
203
202
202
201
201
201
200
200
200
199
200
199
199
199
199
199
199
199
199
199
199
199
200
200
200
200
200
200
200
202
202
196
201
193
122
72
68
82
86
87
87
86
85
86
85
80
76
71
69
68
67
63
63
63
63
63
63
60
59
58
59
59
61
61
62
63
65
70
70
67
65
64
59
56
57
58
58
58
58
57
54
50
50
54
58
61
63
58
57
58
63
65
65
65
65
62
60
60
58
57
54
51
51
55
57
57
55
51
46
43
46
50
55
58
56
51
54
61
59
57
53
50
52
53
53
53
56
55
54
49
46
47
52
51
57
55
53
48
44
40
30
20
15
15
18
19
25
29
35
42
47
50
53
55
54
54
51
41
33
30
31
30
29
28
29
29
30
30
29
27
26
32
33
30
31
34
35
42
46
46
39
29
24
28
40
48
49
51
56
60
64
64
65
67
72
73
68
63
70
83
86
84
87
94
98
88
79
84
87
82
87
105
128
138
148
145
154
164
188
162
177
182
155
174
180
170
201
219
203
214
214
210
206
198
193
192
195
192
194
204
212
211
206
205
207
214
213
213
213
216
220
225
232
231
229
216
204
160
118
143
198
221
213
193
204
216
227
200
170
152
132
111
99
102
106
174
173
194
189
188
189
189
188
188
190
188
186
185
185
185
184
184
184
184
185
185
185
185
185
185
187
187
188
189
190
190
190
190
191
192
193
193
193
192
190
190
190
188
187
186
186
186
186
186
187
187
188
188
188
188
191
191
191
193
184
135
89
94
90
82
81
86
91
139
187
205
202
202
201
202
201
201
201
202
206
186
125
61
93
76
66
68
82
75
75
82
74
76
80
82
82
81
82
82
82
84
84
85
83
83
84
84
85
85
86
85
85
84
84
84
84
84
84
84
84
84
85
85
85
85
85
84
83
83
83
83
83
83
83
82
79
78
76
76
78
79
81
82
83
83
83
83
81
83
90
93
91
89
89
86
86
93
92
83
81
88
83
76
78
81
68
57
56
61
65
72
78
81
85
88
91
95
99
94
89
90
91
89
90
90
89
87
84
84
74
74
66
57
60
62
64
71
64
79
86
81
82
93
100
94
86
83
88
94
96
93
94
95
96
87
85
88
92
88
90
92
94
87
83
88
95
98
112
116
102
106
104
89
98
101
98
91
112
109
110
95
103
102
104
101
101
100
112
137
119
106
105
103
106
115
112
97
90
94
100
111
111
101
96
92
99
111
109
104
104
101
121
126
126
125
125
124
121
117
116
112
114
114
108
104
105
130
131
100
106
116
130
137
110
73
58
74
157
172
179
171
166
183
191
186
178
186
195
201
201
201
201
201
196
194
195
196
197
198
199
198
199
199
200
200
200
200
200
200
199
199
199
199
200
200
200
200
201
201
201
201
201
201
202
202
204
204
204
204
205
205
205
204
202
202
202
201
201
201
201
201
200
200
200
200
200
200
200
200
200
200
200
200
200
200
201
201
200
200
201
200
201
200
200
202
202
195
204
197
142
79
63
84
85
87
87
85
85
85
83
79
74
69
69
67
65
63
63
63
63
63
62
59
58
58
59
59
59
60
62
62
65
69
69
67
66
64
60
56
56
57
57
57
57
56
54
51
49
51
56
64
63
53
50
57
62
64
65
65
65
63
60
57
60
60
58
54
53
54
60
62
57
51
48
46
47
49
53
56
55
48
49
56
58
57
56
54
54
54
55
56
55
56
55
52
49
47
46
48
53
53
53
50
47
43
36
26
18
15
17
18
19
19
23
30
37
43
47
51
53
53
52
46
36
30
31
31
30
30
30
30
30
30
32
31
29
29
28
27
33
34
33
31
40
48
42
29
24
25
35
44
47
49
53
58
60
62
63
63
67
74
72
66
70
79
85
85
88
94
95
88
79
80
86
89
95
103
119
136
155
158
162
168
187
171
186
221
168
168
168
169
196
200
205
211
212
209
206
203
194
192
196
195
195
200
211
212
207
200
202
213
211
212
212
216
221
222
223
224
222
200
205
216
193
137
156
225
213
210
206
199
211
199
172
157
149
113
123
126
86
114
155
179
188
187
189
189
188
188
188
188
186
185
185
184
183
182
181
181
182
182
182
182
183
183
184
185
187
188
191
191
191
191
191
191
192
192
192
192
190
189
188
186
185
184
184
183
185
184
184
184
185
185
185
185
187
187
187
188
181
131
88
96
88
86
86
88
82
106
157
196
213
189
187
206
202
199
219
190
193
130
62
78
74
71
64
60
67
79
79
67
77
78
81
81
81
82
82
83
83
83
84
84
84
84
84
84
85
85
85
85
85
85
84
84
84
84
84
84
84
84
84
84
85
85
85
85
84
83
84
84
84
84
84
84
82
79
72
72
78
77
77
80
81
81
81
78
78
82
92
96
92
89
89
88
89
93
89
82
83
87
83
80
82
84
72
60
57
60
65
72
77
80
85
88
91
92
96
99
96
88
86
89
89
89
90
86
84
84
72
74
67
53
59
59
62
64
71
83
89
84
88
97
100
96
88
85
90
94
90
87
93
96
104
84
86
95
103
87
89
95
92
84
81
89
94
95
106
114
111
101
98
96
102
102
99
95
105
109
106
92
106
100
90
94
100
111
120
121
136
114
122
108
109
123
100
97
97
100
96
83
102
88
96
76
82
95
78
104
102
129
118
120
122
122
123
122
118
107
99
98
100
104
110
115
106
118
115
100
112
115
121
125
116
92
85
98
132
147
154
147
161
175
179
170
178
187
196
201
189
187
185
186
191
195
195
196
197
198
199
198
199
198
199
199
200
200
200
200
199
199
199
199
200
200
200
200
201
201
201
201
201
201
202
202
204
204
204
204
205
205
205
204
202
202
202
201
201
201
201
201
200
200
200
200
200
200
200
200
201
201
201
201
201
201
202
202
201
201
202
201
201
200
200
201
201
197
204
199
155
93
66
88
85
87
87
85
84
84
83
79
72
68
69
67
65
63
63
63
63
62
59
58
58
58
59
59
59
60
62
60
63
66
69
69
69
65
60
57
56
55
56
56
55
54
53
53
51
50
54
60
58
48
44
56
60
62
64
64
67
67
68
67
68
68
69
67
63
63
65
65
58
53
50
48
48
47
46
47
48
47
48
48
51
54
57
58
56
55
55
57
56
56
54
51
49
46
40
44
48
49
49
49
49
48
43
34
24
16
16
17
17
16
16
19
28
40
45
49
51
53
53
50
42
33
31
31
30
30
30
30
31
31
31
31
29
29
30
28
31
33
33
29
35
48
45
35
29
26
29
40
44
48
49
53
55
58
62
63
72
83
83
73
73
79
85
86
88
96
97
93
90
87
85
86
92
103
124
143
150
155
164
170
177
165
176
201
189
189
190
190
174
186
204
214
213
209
207
208
206
201
197
189
184
190
205
214
215
207
202
205
209
212
212
216
222
224
223
224
220
199
188
185
190
199
175
156
218
221
222
218
209
197
180
167
162
135
132
106
87
118
159
175
184
187
189
189
188
188
188
188
186
186
186
184
183
182
181
181
182
182
182
182
182
182
184
184
186
187
189
189
190
190
190
190
192
192
191
191
189
188
186
184
183
182
183
183
183
183
184
184
184
184
184
184
184
184
185
184
186
129
82
92
88
88
87
88
95
113
147
181
209
208
208
210
212
189
190
190
179
105
65
92
60
64
71
74
67
79
79
67
78
79
81
81
81
82
82
83
83
83
84
84
84
84
84
84
85
85
85
85
85
85
84
84
84
84
84
84
84
84
84
84
85
85
85
85
84
83
84
84
84
84
84
88
89
87
79
77
79
72
70
78
82
82
82
81
79
84
92
96
91
89
89
93
94
93
88
87
90
89
84
83
87
87
74
62
58
63
67
72
74
77
81
88
93
93
91
92
96
93
91
92
91
91
91
88
84
85
71
74
67
52
60
58
61
65
81
87
91
93
100
99
94
93
96
99
103
102
100
96
96
96
103
89
95
114
116
90
89
93
89
87
84
90
95
91
88
94
100
102
101
99
100
104
107
105
99
100
98
89
111
107
127
122
119
126
111
111
126
104
107
101
102
108
79
84
84
79
98
92
101
97
97
95
96
97
156
123
92
104
98
93
88
86
86
88
85
80
73
70
70
74
80
83
89
95
99
99
113
113
111
115
118
114
117
124
113
129
135
128
124
133
130
115
145
160
174
179
172
177
183
182
184
192
194
194
197
200
199
198
198
197
199
199
199
199
200
200
199
199
199
199
199
199
199
199
200
200
201
201
201
201
202
202
202
202
202
202
204
204
204
204
202
201
201
201
201
201
201
201
200
200
200
200
201
201
201
201
201
201
202
202
201
201
202
202
201
201
202
201
202
201
201
201
202
204
197
202
183
115
63
79
85
87
87
85
84
84
83
80
72
68
68
67
64
62
62
62
62
60
58
58
58
58
59
59
59
59
60
60
60
64
69
70
70
67
63
59
56
56
55
52
53
51
53
53
53
49
51
54
49
41
42
53
57
57
57
55
53
53
57
57
57
56
56
60
64
65
63
61
57
54
50
47
44
44
44
43
48
52
48
42
44
51
56
58
56
55
56
57
56
56
56
52
47
46
48
51
52
50
50
49
49
49
48
42
31
17
15
16
16
14
16
16
20
29
40
45
49
52
54
54
48
36
31
31
30
30
30
30
32
32
32
32
30
30
31
32
33
30
28
31
37
48
48
43
34
27
25
35
42
45
48
50
51
54
58
63
75
88
88
78
76
79
85
86
89
95
97
93
90
87
85
85
94
113
133
143
142
152
168
178
179
176
179
186
201
201
201
202
181
194
212
219
214
209
208
211
209
207
202
195
190
193
201
208
215
217
212
206
208
211
215
222
225
225
225
226
243
227
195
171
178
208
197
175
210
217
225
225
207
200
190
184
176
176
173
120
107
114
156
181
188
186
188
188
187
187
188
188
186
186
186
184
183
182
181
181
181
181
181
181
182
182
183
184
186
187
189
189
189
189
190
190
189
189
191
189
189
185
183
183
182
181
182
181
181
181
183
183
184
184
184
184
184
184
184
184
186
128
82
92
88
87
88
88
97
110
126
148
185
211
194
158
164
134
92
89
78
72
58
83
60
63
70
74
67
79
79
67
80
80
81
80
81
82
82
83
82
83
83
84
84
84
84
84
85
85
85
85
85
85
84
84
84
84
84
84
84
84
85
84
85
85
85
85
85
85
84
84
84
84
86
88
93
92
84
84
87
79
71
78
81
81
82
82
84
85
88
91
89
91
91
94
99
99
93
92
95
95
89
87
88
87
75
66
62
60
64
71
70
72
77
81
88
91
93
95
96
100
104
99
92
93
93
89
86
88
71
75
67
51
60
59
64
75
81
84
90
97
104
97
92
96
104
107
105
104
108
108
103
97
94
104
108
115
103
93
90
89
91
95
94
91
95
100
93
85
92
100
103
99
95
94
97
104
112
126
125
99
107
89
112
107
108
123
125
126
140
119
101
107
108
102
109
126
126
109
101
106
98
104
106
121
116
101
155
116
111
118
66
61
73
73
74
74
95
90
81
77
91
87
81
76
74
73
79
87
113
112
109
108
111
121
129
132
112
127
134
126
118
124
115
98
99
111
121
133
145
162
180
184
178
184
192
196
198
199
201
198
198
196
197
197
198
198
199
199
199
199
198
198
198
198
198
198
199
199
200
200
199
199
201
201
200
200
201
201
202
202
202
201
201
201
201
200
200
200
200
200
200
200
200
200
201
201
201
201
202
202
204
204
202
202
202
202
204
204
204
202
202
201
201
200
201
207
195
203
202
134
75
71
84
86
86
84
82
82
83
80
74
68
68
67
64
62
62
61
61
58
58
58
58
58
59
59
59
59
60
59
58
60
66
70
71
69
64
59
57
57
56
53
53
51
50
52
50
49
49
48
44
37
41
52
56
56
55
53
53
56
61
63
61
60
61
62
64
62
55
54
57
58
55
53
48
41
37
42
52
62
61
49
46
50
51
53
54
55
55
57
57
57
57
55
52
54
58
58
53
50
50
49
49
48
48
47
37
23
16
15
14
13
14
14
14
20
30
41
48
50
54
56
50
40
33
31
30
30
30
30
32
32
32
32
30
30
31
34
35
28
25
33
37
41
46
50
41
30
28
29
35
42
46
48
49
50
54
60
70
82
82
74
73
79
85
87
90
95
97
91
83
83
90
97
108
128
138
133
136
149
171
186
191
194
193
191
195
198
200
199
211
216
221
221
215
215
215
209
203
203
204
206
207
208
206
206
213
226
223
209
211
212
217
226
226
226
227
227
229
240
244
236
222
201
204
188
191
202
214
216
209
202
197
194
182
211
220
158
128
116
136
188
188
187
186
187
186
186
186
186
185
184
184
183
182
181
181
181
180
180
180
180
180
180
182
182
184
185
187
187
188
188
189
189
189
189
188
186
184
182
182
181
180
178
180
180
180
180
183
183
181
181
183
183
182
182
183
183
185
128
84
90
91
89
92
92
87
104
101
99
146
190
153
79
75
93
61
55
59
83
57
50
73
70
63
60
68
79
79
67
79
81
81
78
77
82
82
80
81
83
83
83
83
83
84
84
84
84
85
85
85
85
84
84
84
84
84
84
84
84
85
84
85
84
84
85
85
85
84
83
84
87
86
82
86
87
81
81
85
84
81
82
84
83
84
86
86
86
86
87
87
88
89
94
100
101
97
94
96
96
91
88
86
84
74
67
63
57
58
69
71
70
73
74
76
83
99
105
104
107
112
104
96
96
96
90
86
89
70
74
67
49
59
62
70
72
77
85
88
89
92
92
94
100
105
106
103
102
105
109
105
95
86
117
115
101
80
93
95
93
98
99
96
93
95
109
104
91
92
98
103
105
101
97
104
109
105
120
120
97
110
104
97
103
122
129
115
116
131
109
108
122
123
109
88
114
114
88
103
117
101
111
116
135
126
106
128
111
125
108
53
53
48
62
82
95
106
91
85
92
97
77
85
117
109
109
109
109
107
102
94
91
91
93
93
94
98
105
113
119
125
126
126
126
117
105
96
101
103
114
133
148
176
182
189
188
186
190
197
199
196
195
196
196
198
198
198
198
197
197
197
197
197
197
198
198
199
199
199
199
198
198
199
199
199
199
200
200
201
201
201
200
201
200
200
200
200
199
199
199
199
199
199
199
200
200
202
202
203
204
204
204
204
204
204
204
204
204
204
204
202
202
202
201
200
204
198
202
212
156
89
65
84
85
84
82
82
81
82
80
76
69
68
68
65
63
62
62
60
59
58
58
58
58
58
58
59
59
59
58
56
58
64
69
71
69
64
60
58
57
56
52
51
50
49
50
49
49
48
51
49
39
41
48
55
55
55
53
55
53
55
56
57
58
59
63
64
62
55
54
60
62
62
63
57
42
33
38
48
55
57
55
49
49
48
49
52
54
54
54
54
55
57
54
55
54
56
56
53
51
51
49
48
48
48
48
44
34
24
18
14
14
13
12
10
14
26
40
47
49
53
55
50
41
34
31
31
31
32
32
32
32
33
32
32
30
31
35
39
29
23
28
32
36
46
51
43
34
29
27
27
35
41
43
46
48
52
58
67
76
76
70
72
78
83
88
90
92
92
89
82
85
93
99
112
132
142
137
114
163
196
191
198
180
186
212
218
226
223
209
213
216
220
221
219
221
222
216
210
207
203
203
206
207
208
210
218
228
223
207
209
215
221
228
227
227
228
228
230
215
211
218
224
222
221
223
228
226
218
213
226
215
200
188
221
227
222
205
156
108
110
165
185
185
186
185
185
185
185
185
184
184
184
182
180
179
178
178
179
179
180
180
180
180
182
182
183
184
187
187
188
188
188
188
188
188
187
186
184
181
181
180
179
178
178
178
179
179
179
179
179
179
179
179
181
181
181
181
183
127
89
85
95
91
104
100
89
97
98
83
107
132
100
52
53
88
77
88
64
89
64
64
63
61
60
59
70
75
82
85
75
87
87
76
74
83
83
76
79
80
81
81
82
82
83
83
84
84
84
84
85
85
86
86
85
85
85
85
85
85
85
85
84
84
84
85
86
85
83
83
85
88
86
79
78
84
83
79
83
84
84
85
84
79
79
84
85
84
85
85
88
89
90
95
100
101
97
94
95
95
89
87
85
82
74
71
65
55
53
65
72
69
71
75
76
79
99
115
110
107
110
104
97
99
100
91
87
90
69
73
66
47
57
64
72
70
71
85
88
83
86
93
96
99
106
108
108
105
104
102
101
100
90
114
107
95
76
92
93
97
99
92
92
93
96
101
102
95
95
100
104
113
109
95
100
114
101
124
121
101
108
114
104
119
132
125
123
131
137
95
99
100
102
101
98
93
93
95
114
89
104
107
131
111
103
111
119
115
131
103
54
54
60
52
43
38
42
43
62
86
80
65
68
88
81
90
103
111
104
101
99
97
96
96
96
94
96
98
102
105
109
109
109
111
115
120
122
121
107
99
91
93
121
144
171
181
192
194
190
190
193
195
196
196
196
196
198
198
196
196
196
196
196
196
196
196
198
197
197
197
197
197
198
198
197
198
199
199
200
200
200
199
200
200
200
199
199
197
197
197
199
199
199
199
200
200
202
202
203
204
204
204
204
204
204
204
204
204
204
204
202
202
202
201
200
201
201
202
207
175
116
65
83
84
82
80
80
81
82
80
79
72
69
68
66
64
63
63
60
59
58
58
58
58
58
58
59
59
59
57
57
58
60
66
70
69
66
63
58
57
56
52
51
50
49
47
46
46
48
53
55
46
38
43
50
52
52
56
62
59
52
51
59
64
64
63
61
57
55
55
58
61
61
65
64
49
41
41
42
44
45
50
48
45
47
48
50
51
51
50
50
48
50
50
51
52
52
52
52
51
50
49
48
47
47
47
47
46
37
24
18
16
14
12
11
15
22
34
41
44
47
51
49
41
34
31
31
31
32
32
32
32
33
32
32
30
31
34
37
32
27
23
26
35
43
43
40
36
30
26
25
26
32
39
42
44
48
54
63
70
74
70
71
76
81
85
89
91
90
89
86
88
94
95
104
121
142
152
151
157
172
189
212
209
202
199
220
224
216
199
178
193
213
227
228
217
217
228
231
224
212
201
196
199
205
206
209
213
216
215
217
221
225
227
228
228
229
229
245
240
217
189
194
196
203
210
218
220
217
214
231
225
215
207
222
193
173
172
157
120
104
138
170
180
184
185
183
183
184
184
182
182
182
181
179
178
178
178
178
177
179
179
179
179
181
181
182
183
186
186
187
187
188
188
187
187
186
185
182
180
180
179
177
176
177
177
177
177
176
176
175
175
175
175
176
176
177
177
180
124
90
81
93
90
111
108
118
117
110
100
103
74
70
74
78
70
60
78
64
64
64
88
72
75
77
79
75
70
64
59
72
78
78
74
74
81
81
76
77
79
80
80
81
81
83
83
83
83
84
84
85
85
86
86
85
85
86
86
85
85
85
85
84
83
84
84
84
83
83
81
81
87
84
79
78
85
84
78
80
83
83
84
84
77
77
84
84
83
85
86
89
90
92
97
103
104
99
96
95
92
87
84
84
81
75
73
67
52
49
59
65
62
72
86
89
84
95
106
104
98
98
96
96
100
101
93
89
90
69
72
66
47
56
59
68
71
73
85
88
81
85
96
99
99
104
107
106
101
97
88
92
114
110
92
83
93
87
84
88
94
94
88
86
93
100
98
95
97
98
104
106
113
105
88
95
122
112
138
132
113
108
108
114
122
126
125
123
125
139
124
93
100
111
116
121
118
106
92
111
95
103
109
122
114
110
114
103
91
108
119
82
82
86
71
51
44
29
30
49
74
50
43
40
43
42
50
64
71
88
90
93
95
95
95
94
97
98
97
94
92
74
74
74
75
77
95
114
116
135
122
106
99
83
100
123
151
178
189
186
187
195
195
196
196
196
196
198
198
196
196
196
196
196
196
196
196
198
196
196
197
196
196
197
197
197
197
197
197
199
199
198
198
199
199
199
198
198
197
198
198
197
197
199
199
200
200
202
202
203
204
205
205
204
204
204
204
204
204
204
204
202
202
202
201
200
201
200
200
205
199
143
63
84
84
81
80
80
81
82
82
81
77
69
68
68
65
63
62
62
60
59
58
59
58
58
58
58
58
58
58
58
58
59
63
67
68
69
68
60
57
56
53
51
50
49
46
44
47
51
56
57
51
39
41
43
45
48
48
46
44
44
44
48
50
53
53
56
57
62
65
68
69
69
71
68
58
52
48
48
48
44
45
45
45
47
48
49
50
51
50
50
49
50
50
51
53
55
53
53
51
51
49
49
48
48
48
47
48
46
36
26
19
17
17
15
15
15
22
29
37
40
44
47
41
34
31
31
32
33
32
33
33
35
33
33
32
32
33
32
35
33
26
26
34
40
35
36
36
31
29
25
25
27
33
35
37
41
48
56
64
71
70
70
75
78
84
89
90
90
89
86
91
96
98
102
112
132
152
164
154
162
186
212
210
202
199
222
222
208
185
164
183
211
229
230
218
218
230
236
233
226
216
206
205
210
211
207
205
214
224
233
230
227
226
228
230
230
231
225
236
234
222
220
208
191
178
206
210
214
218
221
221
219
216
215
188
166
165
162
142
121
128
154
173
181
185
184
183
184
182
182
182
182
181
179
178
178
178
178
178
179
179
179
180
182
182
184
185
186
186
187
187
188
188
187
187
186
185
182
180
179
178
176
175
175
175
175
175
176
176
175
175
175
175
175
175
175
175
179
123
88
80
87
87
113
115
121
120
103
86
70
57
71
75
54
46
72
89
89
64
64
64
72
79
88
94
73
70
64
60
73
67
67
75
79
74
74
79
79
78
79
79
81
82
84
83
83
83
84
84
86
86
88
87
86
86
87
87
86
86
86
85
84
85
85
84
82
83
86
82
77
82
83
79
81
87
81
74
79
83
83
84
84
77
78
84
83
82
86
88
92
95
98
103
109
110
105
100
96
92
86
84
84
81
78
78
70
50
45
58
61
58
68
83
88
84
95
107
104
98
98
96
96
102
102
94
90
91
69
72
65
47
56
55
62
72
81
85
86
82
87
104
115
108
94
91
99
101
97
93
98
110
114
89
80
87
92
84
88
90
90
91
88
91
99
100
98
97
101
105
108
111
108
104
115
138
107
113
112
117
124
124
126
121
117
133
112
96
106
117
109
111
114
115
107
115
104
77
108
103
95
112
108
116
119
116
119
108
91
103
112
114
116
112
110
111
81
66
60
67
75
73
65
57
33
33
33
33
36
41
49
55
77
77
77
77
98
90
83
79
79
82
82
82
89
92
93
102
104
109
114
110
80
86
96
118
139
168
189
198
195
195
196
196
196
196
197
198
196
196
196
196
196
191
193
195
195
195
193
196
198
196
193
192
195
197
197
197
197
196
196
197
198
198
198
197
197
195
197
197
196
196
197
199
200
200
202
202
202
203
204
204
202
202
204
204
202
202
202
201
201
200
200
199
198
200
195
199
201
200
157
83
84
82
82
80
80
80
81
82
82
79
72
69
68
66
64
63
62
62
59
58
59
58
57
56
57
57
58
58
58
57
55
56
62
69
74
70
63
59
56
53
51
51
50
47
43
46
53
58
58
49
39
41
41
37
39
43
46
55
62
62
60
64
64
62
63
68
74
76
76
76
78
79
80
80
71
57
50
50
51
52
49
41
42
48
50
47
49
54
57
57
57
54
53
51
54
55
56
55
54
51
50
48
48
48
47
48
48
45
35
27
20
17
18
18
14
15
18
27
34
40
45
41
34
29
30
33
33
31
33
35
35
33
33
32
32
31
30
35
35
29
28
35
34
29
33
35
32
29
26
25
25
27
29
32
35
42
53
62
64
67
69
74
77
83
89
93
93
90
88
93
97
102
109
114
123
137
148
156
173
189
198
180
186
213
224
221
201
175
180
194
214
222
226
227
229
226
225
226
228
225
219
217
223
228
225
218
217
225
242
237
230
228
228
230
230
230
234
226
230
243
234
227
216
206
200
202
212
212
211
206
208
209
206
214
206
189
193
156
138
132
146
171
184
177
178
186
177
181
182
181
181
180
179
177
177
177
178
178
179
179
179
180
182
182
184
185
186
186
187
187
188
188
186
186
185
182
180
178
177
175
174
173
173
173
173
173
174
174
173
173
174
174
174
174
174
174
182
133
88
79
87
91
109
112
96
98
83
56
51
69
71
60
54
55
80
54
65
65
89
65
58
68
83
92
71
75
82
85
73
58
58
73
85
70
70
80
77
81
83
77
78
83
84
81
81
82
82
82
83
84
87
88
86
85
85
86
87
86
85
83
84
87
87
83
80
82
87
82
74
76
80
80
82
84
80
73
78
84
84
84
84
77
78
84
83
81
84
88
93
100
104
105
111
111
107
104
97
92
88
86
84
81
78
78
70
50
45
60
64
60
62
70
75
80
100
115
115
109
105
100
97
101
100
93
87
87
73
71
63
45
56
52
60
72
81
84
86
84
89
99
101
98
98
105
110
106
101
112
109
93
100
100
93
82
96
92
91
88
91
96
93
91
94
99
99
95
101
102
106
118
121
129
119
128
104
105
119
131
119
117
137
116
110
139
136
100
105
113
133
123
112
100
103
128
128
103
106
108
89
114
98
118
126
117
103
131
115
119
136
133
133
131
131
131
109
95
75
61
73
92
114
132
113
83
57
56
53
76
101
103
114
121
128
124
101
107
114
117
98
94
88
84
83
84
88
91
92
95
100
104
83
84
84
84
103
136
169
194
200
196
191
186
187
189
191
191
191
192
193
190
184
188
193
194
193
193
193
193
195
194
188
188
196
199
198
196
196
195
195
195
195
195
195
195
194
194
194
194
197
197
198
198
199
200
201
201
202
202
203
203
203
203
202
202
202
202
201
200
200
199
199
198
197
201
192
198
197
199
169
98
84
81
80
80
82
81
81
82
81
80
76
71
69
67
65
63
63
62
61
59
59
59
57
55
56
56
56
56
57
55
54
53
57
63
80
75
69
60
55
50
49
51
50
48
45
46
52
56
52
44
42
43
39
36
39
45
53
65
70
64
64
73
72
64
65
70
75
76
76
77
78
80
87
97
91
74
60
55
56
60
52
42
37
41
41
40
45
51
59
60
57
54
51
54
57
61
59
59
56
54
51
49
49
48
48
48
52
52
47
40
28
17
19
20
17
14
15
18
26
33
40
42
35
30
30
35
35
31
32
35
35
35
33
33
33
32
32
34
34
30
30
33
30
28
32
34
33
30
28
25
25
25
27
29
32
39
50
59
60
64
70
74
77
81
87
94
94
89
89
94
99
105
112
120
130
133
148
200
203
195
204
202
230
228
226
224
225
222
206
228
237
231
229
228
229
227
229
227
228
227
224
222
225
231
232
229
226
228
229
230
230
231
232
230
223
219
233
228
221
214
227
223
216
211
208
207
207
211
213
216
219
225
211
228
234
229
224
192
161
139
145
171
188
165
168
188
167
180
182
181
181
180
179
177
177
177
177
177
178
179
180
180
182
182
184
185
187
187
187
186
186
185
186
185
184
181
179
177
175
174
173
172
172
172
172
172
172
172
172
172
173
173
173
173
174
174
178
153
59
74
88
93
88
94
64
60
52
47
45
51
60
55
52
72
62
75
71
56
58
77
49
76
70
75
84
76
68
65
62
83
83
62
87
79
72
65
71
82
85
77
78
84
85
79
79
80
81
81
82
84
87
88
87
84
84
87
87
87
84
82
84
89
89
84
80
81
86
85
76
74
79
79
79
75
81
75
79
85
85
85
84
78
78
82
81
79
83
86
93
103
108
108
112
109
107
110
104
96
92
89
85
82
78
78
71
50
46
60
64
61
66
68
72
81
100
112
116
114
106
95
94
99
95
88
82
79
79
67
60
45
56
62
65
69
72
82
85
87
92
98
98
92
99
112
115
105
104
108
106
92
94
99
97
84
99
91
86
90
97
97
97
92
95
101
99
98
107
108
113
127
114
134
122
119
148
105
111
132
118
121
151
105
104
107
108
111
91
117
96
120
116
96
98
140
153
118
135
117
108
113
94
86
91
105
125
118
96
112
138
138
137
137
137
137
121
110
95
83
78
94
111
121
124
111
110
121
118
120
127
129
127
124
120
116
103
107
114
116
115
110
104
98
92
88
83
83
84
88
92
91
86
84
84
84
82
107
138
165
165
169
173
168
180
180
181
181
182
182
185
188
191
193
195
192
191
191
190
186
186
186
191
194
196
196
196
196
194
193
194
194
194
194
194
194
193
193
194
194
194
194
197
198
199
200
201
201
201
201
202
202
202
202
202
202
201
201
200
199
199
198
198
196
195
199
188
197
196
201
176
109
83
80
80
81
81
82
81
82
81
81
78
74
69
67
66
64
62
62
61
59
59
59
56
54
55
55
55
55
54
54
53
52
53
55
80
79
75
62
53
43
43
46
46
46
44
46
52
50
45
50
50
39
39
52
58
53
55
62
62
57
59
65
65
63
68
72
76
78
83
83
77
74
79
88
94
91
81
66
54
50
56
58
44
27
25
39
44
42
50
56
55
53
52
55
57
59
57
56
55
54
51
50
49
48
49
49
56
59
59
53
34
19
19
21
18
18
16
15
19
27
34
41
38
31
29
36
36
30
32
35
35
35
33
33
33
32
33
33
33
31
31
32
32
32
32
32
33
32
31
28
26
25
26
27
30
34
43
53
59
63
69
74
76
77
81
87
88
82
88
95
100
101
107
122
143
148
176
206
210
224
228
219
234
224
231
229
226
225
231
239
242
237
229
220
217
222
231
231
230
229
225
224
221
225
231
233
235
233
231
231
231
231
230
226
220
216
227
224
222
220
201
204
211
217
222
223
223
222
220
223
221
213
227
205
193
196
228
198
176
165
157
163
181
165
168
184
166
179
181
180
180
179
178
177
177
177
177
177
178
179
180
180
182
182
184
185
187
187
187
186
186
185
185
184
182
180
178
175
174
173
172
171
171
171
170
170
170
170
171
171
172
172
172
172
173
173
162
161
116
65
77
82
65
70
64
60
52
46
44
47
55
58
56
67
57
79
83
74
71
76
58
83
71
74
90
70
67
82
41
83
95
72
75
83
80
70
70
74
78
82
82
83
82
80
80
81
82
82
83
84
86
87
86
83
84
84
85
85
84
82
84
88
88
81
79
80
84
84
83
80
79
76
77
74
79
77
79
80
80
86
86
79
77
80
78
78
82
85
90
100
108
110
112
110
110
113
113
106
99
95
88
85
79
78
71
50
46
58
62
62
69
72
76
84
97
105
109
112
105
93
94
98
93
85
76
70
78
63
57
44
56
63
70
66
66
79
85
89
93
99
101
101
108
116
118
112
112
110
98
91
93
98
100
94
106
93
86
97
97
93
97
94
96
99
100
108
115
128
133
132
96
104
114
110
171
122
86
115
135
127
125
117
119
96
103
119
111
107
115
115
115
115
103
101
125
161
152
127
107
103
96
94
104
124
130
118
88
98
133
133
134
134
134
136
136
131
123
114
109
111
113
111
116
109
116
130
121
123
126
129
124
116
112
109
106
107
114
118
120
116
110
107
101
97
92
86
83
82
83
86
85
83
84
84
76
82
101
126
152
165
176
180
184
186
188
189
192
193
195
197
196
193
187
183
179
184
195
200
197
192
189
188
188
190
190
191
192
191
192
192
192
192
192
192
192
192
193
193
194
194
197
198
199
199
200
200
199
199
201
201
201
201
202
202
201
201
199
199
198
198
198
195
194
199
186
195
195
203
182
121
82
80
81
81
81
81
81
82
81
81
80
75
71
69
66
64
63
63
61
59
61
59
56
54
54
54
53
53
53
53
53
53
51
49
73
77
71
61
55
48
45
46
46
46
46
49
52
49
45
50
50
41
43
58
63
63
69
69
69
74
77
73
73
77
77
75
74
71
74
70
64
64
70
74
79
88
89
82
72
51
44
58
64
51
38
38
34
33
42
51
51
54
57
57
55
53
51
51
51
51
50
50
51
50
50
52
57
62
62
54
42
33
25
21
18
18
18
17
15
19
28
40
43
32
30
37
37
31
33
35
36
36
35
35
35
35
33
33
34
33
33
32
32
32
34
34
34
33
33
32
28
26
27
27
28
28
33
46
58
65
68
72
75
77
79
87
88
82
88
97
102
105
112
126
144
158
185
216
219
231
225
216
230
220
227
229
232
229
244
237
234
235
229
222
216
212
211
215
212
211
212
219
224
221
225
229
233
232
232
231
231
233
237
235
228
223
220
222
225
228
201
204
211
218
225
228
228
228
222
232
224
197
183
179
192
213
218
192
184
194
175
148
166
174
176
179
173
175
180
179
179
179
178
177
177
177
176
176
178
179
180
181
183
183
185
186
187
187
187
186
186
185
185
183
182
180
178
175
174
173
171
170
170
171
171
171
171
171
171
171
172
172
172
172
173
173
177
176
162
65
80
84
68
72
64
60
52
45
41
44
51
61
63
60
50
86
98
98
87
73
73
92
75
71
83
79
83
91
62
62
74
93
87
58
62
88
86
69
74
87
85
82
81
84
85
85
85
86
88
87
85
83
84
84
83
83
84
84
87
84
82
87
87
81
79
81
86
88
88
85
81
75
76
80
75
81
81
72
72
86
91
83
77
77
75
77
82
84
88
93
105
115
115
115
115
114
116
114
105
95
82
77
76
78
71
52
47
56
62
63
69
74
81
87
95
99
102
109
107
99
97
97
93
86
80
76
83
66
57
44
57
64
70
66
66
77
85
91
95
94
90
94
100
99
100
105
105
100
101
107
115
111
97
82
93
88
90
97
93
92
96
96
96
101
105
118
106
118
114
106
106
125
122
86
116
110
109
107
110
123
119
138
125
115
108
114
123
107
112
112
112
112
102
100
119
155
140
125
121
129
109
90
79
82
116
109
84
101
130
130
131
131
131
131
150
146
143
142
142
138
130
124
127
113
109
117
96
101
107
110
112
112
112
109
106
107
114
116
115
109
103
100
100
101
102
97
87
84
83
83
83
83
84
84
77
71
71
89
121
135
147
159
149
147
145
144
143
141
139
139
150
167
184
190
196
193
185
179
179
184
194
197
192
190
189
189
189
189
190
191
191
191
191
191
190
192
192
193
193
193
194
195
196
197
199
199
198
198
199
199
199
199
200
200
197
197
197
196
196
195
195
193
192
199
186
194
194
201
187
130
82
78
80
80
79
79
80
80
80
80
80
78
73
69
66
65
63
63
61
59
61
59
56
54
54
54
53
53
53
53
53
53
51
48
64
66
64
58
59
58
56
54
52
50
49
50
51
52
49
41
41
46
46
44
52
65
67
57
57
70
72
59
59
71
72
72
72
68
69
73
78
83
79
69
69
76
81
82
83
78
70
51
50
60
60
47
38
40
40
40
43
50
57
57
53
49
49
49
49
49
49
49
50
51
50
50
53
55
55
49
51
47
35
21
16
15
17
18
16
16
21
33
40
36
32
36
35
31
33
35
36
36
35
35
35
35
33
33
35
33
33
32
33
33
34
34
34
33
33
33
31
28
27
27
27
24
27
37
54
64
69
70
73
78
88
98
98
89
89
99
104
110
125
134
138
154
173
225
227
220
197
196
223
222
225
227
227
229
242
224
216
225
232
232
227
222
222
226
220
206
200
211
220
221
224
224
227
229
227
231
228
229
214
209
203
198
215
221
228
231
228
224
216
216
219
223
223
223
223
238
225
186
167
193
211
211
211
176
188
214
189
140
156
184
176
172
177
174
176
178
178
177
177
177
177
177
175
175
176
178
179
180
182
182
183
185
186
186
186
186
185
185
184
183
181
179
177
174
173
171
170
169
169
169
170
170
170
170
169
170
171
171
171
172
173
173
174
156
137
58
60
70
60
62
65
62
52
45
39
43
48
56
68
55
45
91
109
114
99
71
83
99
77
70
65
97
105
85
71
73
74
71
75
62
70
86
84
77
80
82
83
81
80
82
85
86
87
88
89
87
85
82
84
83
83
82
82
83
87
84
82
85
85
79
79
81
84
88
90
86
85
74
76
88
73
82
80
67
67
85
91
82
76
77
77
76
81
83
84
86
103
117
116
119
121
113
111
107
94
84
78
77
75
76
69
53
47
54
60
62
68
74
81
85
91
93
99
107
108
99
95
97
93
91
89
86
93
74
59
43
56
63
67
66
67
76
83
90
94
96
100
108
114
113
114
117
116
105
101
100
111
110
101
92
103
96
91
92
91
90
95
94
92
101
113
121
92
104
100
90
117
115
107
121
107
108
110
98
84
160
100
111
90
100
107
83
103
101
85
108
108
85
86
134
140
114
159
134
120
120
113
98
93
101
91
96
89
117
130
131
130
130
130
129
129
128
129
129
129
129
130
128
127
126
126
126
114
114
114
115
115
110
102
101
104
104
99
93
106
103
95
91
90
92
100
98
70
76
84
90
73
61
61
73
80
78
81
95
82
87
93
97
85
85
85
89
95
95
88
88
99
111
124
142
163
162
174
189
192
186
182
188
193
190
189
188
188
188
188
188
188
188
189
189
189
189
192
192
192
193
194
194
195
196
196
196
196
196
197
197
198
197
196
196
196
196
196
195
195
194
194
192
192
197
184
194
195
198
189
144
85
77
78
78
78
78
79
79
80
80
81
78
75
70
66
65
64
63
61
61
61
59
57
55
55
55
55
55
54
54
54
54
50
47
54
62
64
62
61
62
61
56
53
51
50
48
48
48
48
44
44
45
45
48
58
69
69
58
58
71
71
58
58
67
68
71
71
64
60
66
77
81
76
68
69
75
77
78
81
87
81
58
51
60
65
58
47
43
37
29
34
46
52
52
50
49
48
48
49
49
50
50
50
51
51
50
48
48
49
49
51
57
48
25
17
14
15
18
18
15
17
23
32
35
36
37
36
35
34
35
35
35
35
34
34
34
35
34
34
34
34
33
34
35
34
34
34
34
34
33
33
30
28
28
28
27
27
29
42
57
65
68
70
76
87
97
99
91
90
100
105
107
121
134
144
159
173
213
235
204
167
190
202
195
175
218
231
214
230
229
228
230
231
229
219
210
212
223
223
208
200
211
218
218
219
219
221
222
223
220
223
224
202
213
231
240
190
203
222
233
225
221
218
215
222
234
233
223
226
227
211
179
198
204
194
174
162
157
177
206
193
145
148
178
177
167
178
173
173
177
177
175
177
175
175
175
175
175
176
178
179
180
182
182
183
185
186
186
186
185
185
183
183
183
180
179
177
174
173
171
170
169
169
169
169
169
169
169
169
169
169
169
171
171
173
173
171
148
78
61
52
66
66
63
64
67
76
81
58
40
23
20
56
55
71
95
74
50
84
111
93
69
82
70
59
54
102
86
68
64
70
83
76
72
78
85
83
84
85
79
80
84
84
82
84
85
85
85
86
86
88
88
86
84
84
83
83
84
86
83
81
85
84
78
79
81
82
85
87
81
88
75
77
98
74
82
82
71
71
85
87
78
77
81
79
76
78
81
82
87
105
116
114
120
123
116
114
107
91
82
78
77
74
72
67
57
48
51
54
60
65
69
75
81
89
95
100
108
107
96
94
95
94
93
90
86
94
75
58
42
55
57
63
66
70
74
81
92
97
100
110
116
122
127
124
117
117
118
109
101
114
108
99
97
104
101
94
89
89
89
94
90
92
112
120
119
101
112
108
91
115
99
91
136
127
84
107
114
97
138
83
124
111
106
121
116
136
113
115
100
94
101
112
116
123
123
120
121
127
130
124
117
107
98
98
108
91
101
133
140
129
130
130
129
129
127
125
124
123
122
120
122
124
126
126
126
128
128
128
128
128
127
123
119
117
112
107
101
96
91
85
79
78
80
88
85
81
83
86
89
84
73
73
85
83
86
87
95
78
81
88
90
85
82
84
90
104
110
107
102
92
85
82
87
102
114
132
158
179
186
192
187
186
189
188
186
184
187
187
187
187
187
188
188
188
188
190
190
192
192
193
193
194
195
195
195
195
195
195
195
196
196
195
195
195
195
195
194
194
193
193
191
191
198
185
193
194
196
194
156
90
78
79
79
78
78
78
78
79
79
80
78
75
70
66
65
64
63
61
61
61
59
57
55
55
55
55
55
54
51
49
48
45
47
56
68
70
67
61
59
55
53
49
47
47
47
49
44
43
57
57
38
41
66
74
66
69
72
72
77
77
71
71
71
67
71
71
61
50
54
61
65
64
66
71
71
72
73
78
73
70
82
83
64
55
59
54
42
36
28
27
41
46
46
48
48
48
48
49
49
49
49
49
50
51
51
49
46
44
48
52
57
52
35
20
16
17
18
18
16
16
14
21
30
35
36
37
35
35
37
36
35
35
34
34
34
34
34
34
34
34
34
35
35
34
34
34
34
34
33
33
31
29
28
28
30
29
27
28
41
54
65
68
71
77
81
89
91
92
98
104
102
108
127
156
176
177
197
228
191
160
192
195
169
158
203
223
213
227
228
231
231
222
206
189
179
183
197
207
210
214
220
222
214
214
216
219
221
220
222
223
224
223
221
217
214
215
219
225
229
196
198
202
204
213
226
225
213
207
203
190
177
188
194
185
166
144
131
153
187
183
153
140
165
174
165
178
172
172
175
175
174
175
175
175
175
174
174
175
176
178
179
181
181
182
183
185
185
185
183
183
182
183
181
180
178
175
173
171
170
169
168
168
168
168
168
168
168
168
168
168
168
168
170
169
171
166
145
63
72
63
70
74
69
65
69
75
80
74
60
47
30
50
46
56
76
64
32
57
75
117
71
73
98
66
60
92
80
90
72
79
105
97
72
65
78
80
82
84
80
82
83
83
82
83
84
85
84
84
85
86
88
88
87
84
83
83
84
84
82
81
86
85
78
78
81
82
83
83
78
93
78
79
101
74
81
85
83
83
88
87
80
78
83
83
78
75
79
88
97
107
113
113
113
119
122
121
111
96
86
79
78
74
69
65
58
49
48
49
55
60
65
72
79
89
96
104
111
109
97
94
94
94
94
90
84
90
73
59
44
57
57
59
63
67
72
85
100
105
104
111
115
120
124
116
109
111
117
116
107
118
107
91
90
96
99
101
96
94
95
94
92
104
123
120
106
116
129
128
105
104
91
96
89
103
103
111
136
129
93
86
97
94
105
114
103
111
111
115
122
116
101
112
116
123
126
99
108
120
128
133
121
103
90
86
98
86
98
129
131
130
129
129
129
129
130
130
130
131
133
133
131
128
126
127
127
128
128
128
127
127
129
132
130
131
125
120
115
94
91
85
79
78
80
88
88
92
92
89
87
84
73
73
85
88
95
96
97
102
104
112
114
113
113
114
109
105
105
109
110
112
108
100
99
98
90
77
90
109
138
176
185
185
182
187
185
186
185
185
185
186
186
187
187
188
188
191
191
192
190
192
192
193
193
193
193
194
194
194
194
195
195
195
195
193
193
193
193
193
193
193
192
192
196
187
192
194
196
201
168
95
83
82
81
79
79
78
78
78
78
78
77
73
69
65
64
63
62
61
61
61
59
57
55
55
55
55
53
53
51
49
48
46
45
56
68
68
63
60
56
54
55
53
48
47
48
48
44
46
63
63
45
51
73
77
60
58
64
64
60
58
64
64
62
70
83
83
71
64
64
66
65
61
61
66
64
69
72
80
68
57
77
97
90
74
57
55
47
38
29
28
37
42
43
44
45
45
47
48
49
49
49
49
50
51
54
57
54
48
48
52
55
50
44
22
21
20
19
18
16
17
16
14
21
27
30
33
36
37
37
37
36
36
35
35
35
34
35
37
37
37
37
38
38
36
37
36
35
35
34
34
33
32
31
31
31
29
29
27
29
40
55
65
65
67
70
77
89
95
94
98
102
106
124
158
182
183
173
214
174
129
153
162
154
177
198
209
206
203
210
220
220
204
184
171
161
153
155
165
178
190
199
216
225
226
221
219
221
223
224
226
226
227
194
148
115
197
201
207
211
191
189
187
185
191
205
205
192
188
178
177
187
152
172
181
174
117
132
152
166
167
156
124
150
168
165
177
171
171
173
174
174
174
174
175
175
174
174
175
176
178
178
180
180
181
182
185
185
185
183
183
182
183
181
180
178
175
173
171
170
169
168
168
168
168
168
168
168
168
168
168
168
168
168
168
170
128
100
49
64
76
69
67
65
62
63
70
74
72
66
63
50
59
49
53
67
69
27
36
44
100
92
77
90
88
78
88
90
75
100
106
90
76
93
86
68
65
71
77
85
86
80
80
83
84
84
84
84
85
86
88
88
88
88
86
84
86
86
84
82
82
86
85
80
78
81
85
83
83
80
99
76
76
95
68
74
82
88
88
84
85
87
80
76
78
84
78
78
88
97
103
110
114
102
108
129
130
116
101
89
81
79
72
68
65
60
50
44
45
50
55
61
69
79
89
97
108
117
114
101
95
93
95
94
91
84
87
75
64
50
63
61
57
57
63
69
84
100
105
99
101
110
115
109
105
111
119
115
102
88
101
95
97
103
108
110
105
101
96
94
94
92
104
123
116
94
119
115
108
101
107
103
97
75
100
148
105
109
105
96
104
103
118
116
105
117
108
108
115
122
116
101
112
116
123
126
142
133
123
115
106
109
114
118
83
101
96
114
125
117
127
129
129
129
129
127
127
127
127
126
127
127
126
126
127
127
120
120
120
118
118
122
127
130
133
130
126
122
106
103
95
92
92
93
101
101
102
99
91
85
73
62
63
73
90
96
100
100
102
104
110
112
113
114
116
115
115
118
123
126
125
122
118
117
107
95
81
81
82
90
100
124
153
177
179
184
187
186
186
186
185
185
186
186
188
189
187
190
189
191
192
192
193
193
193
193
194
194
194
194
195
195
195
195
193
193
193
193
193
193
193
192
192
196
188
191
194
196
203
180
109
81
87
86
80
79
78
78
78
78
78
77
73
69
65
64
63
62
61
61
61
59
57
55
55
55
55
53
53
52
52
53
47
43
50
60
63
62
57
57
56
59
58
55
51
50
50
51
51
55
58
59
62
65
67
64
66
74
76
68
67
75
75
64
63
69
67
57
55
55
57
57
56
58
62
63
70
71
71
73
81
65
58
80
92
78
57
54
43
29
29
37
38
38
41
42
44
45
48
49
48
48
48
48
51
56
63
64
60
53
48
43
46
47
37
27
20
18
18
16
17
16
14
14
20
23
27
29
35
37
37
36
35
36
36
35
34
35
37
37
37
37
38
37
36
37
36
35
35
34
34
33
32
31
31
31
29
29
29
28
32
42
55
62
62
65
74
85
93
87
101
110
117
134
160
174
186
158
205
162
92
96
123
157
219
203
191
190
173
183
198
203
195
182
173
168
165
156
156
158
151
155
189
223
236
231
229
226
225
225
226
226
240
211
170
141
145
157
177
189
214
200
181
165
174
187
187
174
176
167
175
199
174
175
158
132
97
157
178
147
155
151
117
134
172
172
177
170
170
173
174
174
174
174
175
175
174
174
175
176
178
178
180
180
181
182
183
184
185
184
185
184
182
181
180
177
175
172
171
170
169
168
168
169
168
168
168
168
168
168
168
168
168
167
168
168
93
66
92
86
84
71
68
66
62
63
70
73
67
62
59
56
78
65
62
74
84
35
34
35
56
116
92
48
86
80
80
87
75
86
93
89
68
80
86
79
70
64
71
84
86
79
79
84
84
84
85
85
85
86
88
88
88
88
86
84
86
86
84
82
82
86
85
80
76
81
86
87
83
78
90
75
76
90
68
70
77
81
78
78
83
84
78
76
72
79
82
83
82
86
88
106
114
95
101
133
137
119
101
89
82
81
74
67
64
60
50
43
42
45
49
56
68
79
87
94
109
114
117
105
98
92
98
95
91
85
85
77
66
51
64
62
56
53
59
65
78
91
96
89
90
105
111
99
102
122
134
124
108
94
107
96
91
94
99
100
96
91
90
90
92
88
89
112
118
90
114
101
98
105
105
108
111
117
101
133
140
148
101
98
85
98
124
92
98
150
131
106
117
100
94
101
112
116
123
125
114
114
115
116
114
113
109
107
94
111
110
125
126
119
127
129
129
127
128
126
127
127
126
125
126
126
126
127
127
126
122
122
122
121
121
122
124
126
129
127
126
124
114
108
103
100
101
98
106
108
106
103
96
84
73
67
67
73
87
95
101
101
102
107
110
112
112
114
117
121
122
123
126
128
128
126
124
115
109
109
90
101
101
85
81
71
88
108
144
164
187
185
183
176
187
187
186
185
189
186
185
181
188
190
191
191
192
192
194
193
193
193
193
193
194
194
192
192
193
193
193
193
191
191
192
191
192
195
190
192
193
194
198
190
131
71
87
89
79
78
78
77
78
77
77
76
72
68
65
64
63
62
59
59
59
58
56
54
53
53
53
53
53
53
52
48
45
43
47
52
58
60
58
53
54
56
58
57
53
49
50
52
52
51
57
63
65
62
63
64
69
76
81
77
75
77
77
74
67
67
65
60
59
57
56
56
58
58
56
61
64
66
64
69
72
78
71
53
76
84
90
76
67
55
34
21
21
29
41
47
42
42
46
47
46
46
47
46
73
50
42
54
55
43
43
55
49
49
49
42
27
10
14
35
17
17
19
20
19
18
21
24
32
37
37
36
37
42
42
36
35
35
36
36
37
37
39
38
36
36
36
35
35
34
34
32
33
31
31
30
31
30
30
27
28
35
48
58
63
66
73
81
88
84
104
116
124
135
160
162
168
178
172
154
165
169
176
180
199
190
178
170
181
181
181
181
189
174
183
168
181
163
141
168
146
186
204
192
229
232
239
240
236
231
237
240
236
219
195
177
157
162
171
177
173
161
175
167
150
178
170
172
167
165
165
170
172
146
146
172
187
164
152
157
151
141
119
127
162
184
175
172
172
173
173
173
174
174
174
174
174
174
175
175
177
178
180
180
181
181
184
183
183
183
184
184
171
171
171
171
172
171
171
170
167
167
169
169
172
173
174
175
162
175
177
166
174
160
127
76
80
84
86
85
76
71
67
63
65
69
73
71
73
71
67
63
72
51
56
81
78
69
47
35
36
76
109
96
74
80
71
94
89
83
76
70
93
89
83
78
72
62
65
78
83
81
82
84
86
84
86
86
87
87
87
88
88
86
85
85
87
86
85
82
82
85
86
80
78
82
87
86
82
77
81
76
78
87
72
68
75
78
76
79
82
80
76
75
72
77
83
87
76
81
93
103
99
108
137
169
142
116
95
88
84
83
73
66
64
59
51
45
44
45
48
53
67
76
81
92
101
99
109
102
99
90
98
97
92
91
84
81
70
51
64
63
56
51
72
65
78
96
86
101
112
103
96
102
117
118
117
112
106
105
105
105
112
92
84
93
113
84
90
89
91
91
120
120
124
84
100
118
128
88
104
121
111
127
118
134
120
104
113
97
97
103
124
106
108
150
158
124
119
98
101
125
151
100
103
104
96
104
115
124
121
113
105
99
97
108
117
121
128
125
127
129
129
128
127
126
126
127
129
129
128
128
127
127
127
126
126
126
126
126
124
124
124
126
125
124
124
123
117
112
107
103
99
94
101
106
105
102
99
91
84
83
83
83
88
96
100
103
105
109
111
111
113
114
119
122
123
123
123
125
126
125
121
113
111
119
102
105
103
89
88
68
77
83
86
103
113
143
179
193
182
186
194
202
177
181
188
190
190
190
191
191
192
192
194
194
193
193
193
193
194
194
192
192
193
193
193
193
191
191
192
191
192
195
191
192
193
193
193
193
144
71
80
87
79
78
78
77
78
77
77
76
72
68
65
64
63
62
59
59
59
58
56
54
53
53
53
53
53
50
48
46
46
45
49
50
54
55
58
51
50
54
58
60
56
50
49
50
52
55
60
64
65
65
65
66
69
74
80
82
80
78
78
75
70
70
74
78
74
65
54
52
58
59
55
57
55
57
57
57
61
70
67
53
66
67
65
73
76
68
57
45
19
19
21
28
38
40
43
43
43
43
46
45
42
65
61
34
43
55
55
43
54
52
49
49
39
24
20
24
17
17
19
20
19
19
21
22
28
35
37
37
42
50
50
42
37
35
36
36
37
37
38
38
36
36
36
35
35
34
34
32
33
31
31
30
32
30
30
28
29
33
42
54
62
66
71
74
80
91
92
111
117
115
152
146
140
151
156
154
196
191
186
181
196
191
184
181
180
183
183
183
174
182
190
153
162
185
154
130
150
182
201
196
226
231
238
242
242
236
238
241
234
224
213
202
184
186
190
193
165
160
174
159
135
163
155
156
155
159
165
172
182
164
164
182
194
180
167
169
163
143
120
119
142
182
176
176
174
173
173
173
174
174
174
174
174
174
175
175
177
178
180
180
181
181
180
180
181
181
182
182
182
181
181
181
170
170
169
167
167
167
167
167
167
167
167
168
187
173
170
179
143
107
66
61
71
74
74
68
68
68
62
64
70
75
73
69
69
71
72
71
77
55
51
72
77
78
69
47
33
55
93
103
87
69
61
88
83
80
78
76
98
93
87
82
74
63
63
74
81
82
83
84
84
84
87
87
87
87
87
88
88
86
85
85
87
86
85
82
82
85
86
81
79
82
83
83
83
81
79
76
79
86
76
61
65
82
87
82
83
87
77
60
69
80
86
84
72
86
99
102
106
109
127
152
136
112
93
89
85
84
74
65
63
59
51
48
51
55
55
57
65
73
81
88
91
87
93
92
91
87
92
92
91
98
83
84
72
51
64
65
57
51
72
66
81
96
86
101
98
101
104
117
127
124
117
110
106
105
105
105
103
94
91
94
104
85
96
90
104
100
125
120
106
101
118
100
92
86
103
85
94
111
102
118
133
117
126
110
109
91
112
118
127
137
145
142
117
105
107
119
118
90
92
98
103
111
125
132
126
114
107
100
93
104
121
120
128
126
129
128
129
129
128
127
127
127
130
130
130
130
129
129
129
128
127
126
127
127
124
124
124
124
125
124
124
124
121
117
112
108
105
99
107
113
110
102
103
95
89
88
88
88
93
101
105
107
106
110
113
112
114
115
119
122
125
126
125
127
128
126
122
115
111
121
112
113
105
89
94
80
81
76
72
82
71
90
109
126
171
177
182
176
176
181
188
191
191
189
191
191
191
191
192
192
193
193
193
193
194
194
192
192
192
192
192
192
191
191
192
192
193
193
193
194
193
193
193
193
148
81
71
83
79
76
79
77
77
75
76
75
71
67
64
63
62
60
59
59
59
58
56
54
53
53
53
52
51
51
50
50
49
47
43
42
48
57
56
52
50
55
58
62
62
56
47
48
53
60
65
69
69
69
70
70
71
75
80
82
84
84
84
81
74
74
80
81
75
65
54
52
58
59
55
55
51
52
52
52
48
60
64
56
67
63
55
56
68
69
66
58
46
35
22
17
22
29
38
41
43
45
46
44
43
42
45
50
44
55
55
43
52
54
52
49
49
45
30
14
18
18
20
21
21
21
21
19
25
34
36
37
42
50
50
42
37
36
37
37
40
41
42
39
38
38
38
36
36
35
35
35
34
34
34
33
31
29
29
28
30
30
37
48
57
61
67
68
73
89
84
93
98
99
124
136
133
130
136
148
202
198
192
189
189
190
189
188
189
191
191
191
179
187
195
158
158
184
161
142
157
175
193
202
208
212
220
224
241
246
243
242
234
225
213
203
193
190
187
185
153
160
174
146
129
157
147
149
155
161
169
172
169
162
162
168
185
183
170
168
169
151
122
117
138
176
170
172
173
172
173
173
173
173
174
174
174
174
175
175
177
177
178
178
179
179
179
179
178
176
175
174
171
169
168
168
169
170
169
167
167
167
168
168
168
168
169
170
185
167
158
162
132
88
72
87
74
74
65
63
64
62
62
69
74
73
68
66
66
68
70
72
72
67
65
65
72
77
78
68
32
29
75
106
98
80
49
77
76
78
82
84
104
99
93
87
75
63
63
72
81
82
83
83
86
86
87
87
88
88
89
88
88
88
88
88
88
87
86
82
83
86
86
83
82
87
87
81
79
79
79
79
81
86
76
61
65
82
87
82
83
87
77
60
63
86
91
79
66
91
105
95
117
109
114
130
127
108
98
95
88
85
74
65
63
59
49
48
51
55
55
55
60
71
84
90
91
93
87
88
90
98
90
87
90
101
88
85
74
53
65
67
57
51
72
66
81
96
86
101
98
106
108
124
127
121
112
108
105
105
105
105
89
97
100
97
90
88
105
91
91
83
100
91
100
107
124
93
108
115
132
101
104
120
111
127
150
133
142
126
109
91
112
118
121
119
126
137
115
115
115
112
102
107
105
114
114
114
121
124
117
107
108
107
104
118
135
121
126
126
128
128
129
129
128
127
127
127
129
130
130
130
130
130
130
129
127
126
127
127
124
124
124
124
124
124
124
124
124
121
115
113
113
111
121
123
114
103
101
95
86
83
83
87
94
104
109
111
111
113
113
113
115
116
120
122
124
126
127
130
130
126
122
115
111
120
112
119
111
92
100
90
76
80
90
97
86
86
86
104
97
121
147
161
191
188
181
181
186
189
190
190
189
190
191
191
192
192
193
193
192
192
192
192
191
191
191
191
191
191
192
192
193
193
194
194
193
192
194
193
157
88
63
80
79
75
80
77
75
75
76
75
71
67
64
63
62
60
59
59
59
58
56
54
53
52
52
51
50
49
50
51
49
47
41
40
46
55
56
53
51
55
58
62
64
58
47
47
57
65
70
73
74
73
73
73
73
75
78
82
84
85
85
87
84
83
79
70
60
57
59
60
61
59
56
53
50
50
50
50
39
56
64
58
69
64
56
54
56
59
57
59
69
59
50
35
26
24
22
29
45
45
45
45
34
34
42
52
54
44
44
55
51
53
53
52
53
60
45
13
18
19
20
20
21
21
21
19
21
28
33
34
37
42
43
37
35
35
36
36
40
42
42
39
39
39
38
36
36
35
35
35
34
34
34
33
33
30
29
29
30
29
33
44
52
59
63
67
70
72
86
76
87
105
94
134
146
127
121
131
176
179
186
188
188
188
191
194
194
195
195
195
195
181
189
174
170
163
156
195
161
172
191
207
184
187
195
199
224
243
250
246
238
220
196
177
177
170
162
157
143
161
173
138
136
164
155
156
158
162
169
173
178
182
183
179
183
190
178
166
164
150
129
128
148
178
163
163
168
172
171
171
171
171
173
173
173
173
174
174
174
174
177
177
178
178
177
177
179
178
173
175
176
177
176
175
172
169
168
167
167
167
167
168
140
140
140
140
116
120
106
83
87
88
93
68
85
77
71
74
62
62
65
69
71
69
66
62
62
64
67
70
71
72
72
67
67
72
77
78
45
24
48
87
92
92
62
66
69
75
81
89
109
104
98
90
74
62
62
71
81
83
85
85
86
86
88
88
88
88
89
88
88
88
88
88
88
87
86
82
82
86
88
85
83
85
85
80
79
79
80
80
82
86
76
69
77
77
75
84
84
75
74
83
60
89
96
76
61
96
109
91
124
109
105
114
123
106
100
99
90
86
76
69
65
58
45
43
44
48
49
50
56
66
81
91
93
104
88
93
96
112
94
92
92
99
90
92
79
58
69
69
57
51
72
66
81
96
89
100
107
114
111
117
121
119
112
108
105
104
105
106
79
99
107
98
79
90
112
92
103
91
104
92
107
100
117
101
121
114
131
115
88
104
94
111
113
97
106
90
97
102
124
106
95
106
113
110
116
125
119
107
69
97
93
110
113
108
111
108
103
100
105
105
98
100
103
98
127
126
127
128
129
129
128
128
130
130
129
129
131
131
130
130
131
130
129
127
127
126
125
125
124
124
124
123
123
124
124
123
119
117
116
114
127
129
116
105
104
101
90
85
84
88
95
105
112
115
116
115
116
115
116
117
121
122
126
127
131
133
131
127
123
116
113
120
111
120
115
95
104
99
75
73
84
95
89
89
90
89
81
87
97
104
150
168
194
195
181
178
179
183
187
190
191
191
191
191
192
192
193
193
192
192
192
191
191
191
192
192
193
193
193
193
194
194
192
192
194
194
172
104
66
78
80
74
81
77
75
75
76
75
71
67
64
63
62
60
59
59
59
58
56
52
52
52
52
50
49
48
49
49
48
46
42
40
44
54
56
53
52
55
59
60
59
53
44
50
60
68
73
76
75
74
75
73
74
75
78
80
81
83
84
81
84
86
80
64
53
53
58
60
59
58
56
54
51
50
49
49
31
48
54
47
58
65
63
57
56
58
60
62
77
66
52
43
22
21
20
21
29
34
43
47
47
55
49
36
43
57
52
41
50
51
53
52
53
54
54
41
20
21
21
21
21
21
22
19
20
23
31
32
34
36
39
35
34
35
35
36
40
46
45
41
38
38
37
37
36
36
36
35
35
34
34
34
34
31
30
29
30
30
31
39
48
56
61
68
73
64
86
70
87
113
79
114
144
137
130
138
168
189
191
193
185
188
195
196
195
196
203
207
196
180
189
176
171
143
136
165
179
169
171
183
173
187
187
173
193
206
229
244
232
214
195
182
178
158
151
159
146
158
171
137
149
177
168
169
189
185
179
177
180
182
183
183
171
167
160
159
157
147
133
131
148
178
162
167
171
171
171
171
170
170
170
170
171
171
172
172
172
172
173
173
175
175
175
176
179
178
179
176
169
165
166
145
143
142
142
140
137
131
123
118
110
98
87
83
78
88
86
73
54
69
68
54
71
72
72
72
61
61
63
67
70
69
66
61
60
61
68
73
73
71
64
63
76
78
81
85
71
45
19
53
81
87
75
56
64
62
78
100
99
109
108
93
77
63
59
70
77
83
86
87
86
86
87
87
88
88
90
90
89
88
89
88
88
88
86
83
81
86
91
85
82
82
83
82
79
79
80
80
82
85
75
69
76
76
74
83
84
76
77
88
79
67
67
77
77
80
88
91
98
89
115
105
125
108
113
90
88
82
71
72
70
57
42
38
42
48
51
52
56
64
77
79
87
104
91
92
94
110
93
91
91
98
88
92
79
61
67
64
61
49
47
93
99
77
90
94
108
97
97
108
114
111
104
100
100
104
105
105
84
111
111
84
90
84
105
99
107
108
122
101
94
83
115
127
134
93
110
127
115
111
137
131
125
122
118
107
99
83
106
113
108
108
108
109
108
134
115
120
92
103
83
110
114
104
99
98
96
97
104
105
102
98
94
91
127
126
127
128
131
129
128
128
130
130
130
130
131
131
131
131
131
131
130
129
129
127
127
125
124
123
122
122
123
123
123
123
121
118
117
114
125
128
121
115
115
109
96
86
86
90
97
109
116
118
118
116
118
116
117
118
121
122
124
128
133
136
132
128
124
117
117
124
113
121
119
98
106
104
106
92
85
88
105
95
83
74
110
100
86
75
73
109
151
187
200
191
179
171
188
188
190
190
190
189
192
192
192
192
192
192
191
191
191
191
192
192
193
193
193
193
194
194
192
193
193
194
184
130
74
72
81
74
83
77
75
75
76
75
71
67
64
63
62
60
59
59
59
58
56
52
52
51
51
49
48
47
48
48
48
46
42
41
43
48
54
52
52
55
58
56
52
45
45
55
65
72
75
76
75
74
75
73
74
74
77
79
79
80
81
80
80
85
80
67
63
60
54
52
54
55
55
52
51
50
50
50
51
58
52
36
47
58
65
63
48
55
64
71
68
70
72
74
67
53
37
29
24
24
25
33
37
31
35
44
46
43
45
50
50
50
53
53
53
53
54
54
26
21
21
21
21
20
21
20
20
21
28
30
32
34
37
36
35
34
34
33
37
44
44
38
38
38
37
37
36
36
36
35
35
34
34
35
34
33
30
29
30
30
30
35
43
50
56
68
76
65
91
72
94
124
74
86
139
149
136
123
142
165
184
191
179
183
189
191
189
191
198
201
200
185
194
179
178
165
150
134
169
156
154
163
156
163
163
156
168
179
189
202
212
200
188
182
174
160
152
158
156
163
167
128
157
184
176
178
196
192
185
182
167
167
167
167
166
163
156
151
148
145
136
124
137
170
165
175
174
171
170
170
169
169
170
170
170
170
171
171
171
171
172
172
174
174
174
177
180
179
169
163
125
101
82
75
89
88
87
85
83
79
75
73
87
84
80
78
84
73
71
82
74
71
59
44
60
60
60
60
61
61
61
62
67
71
68
62
59
60
68
75
74
69
62
56
56
70
83
96
85
64
24
42
53
69
75
63
64
62
75
100
89
102
106
97
83
68
61
68
73
79
85
87
86
86
87
87
88
88
90
90
89
88
89
88
88
88
86
85
84
86
90
85
83
85
85
83
80
81
81
81
82
85
75
61
63
77
77
69
73
84
84
75
79
67
67
79
77
80
88
91
96
95
109
108
117
112
110
91
83
72
62
70
71
56
40
37
43
50
55
58
64
71
82
82
84
102
99
91
90
102
94
88
86
92
77
82
75
61
63
61
68
64
63
101
94
74
88
89
98
86
86
98
115
112
105
104
105
105
103
100
93
111
111
93
106
91
99
85
107
108
122
101
117
101
114
104
112
106
122
105
110
101
122
112
106
103
96
92
93
97
115
95
93
115
115
93
100
120
112
110
103
113
114
114
107
92
86
91
96
99
101
107
114
114
110
101
128
127
130
131
132
132
131
130
131
131
131
130
131
132
133
132
132
132
131
130
129
128
129
126
122
118
119
122
122
122
123
125
124
121
120
114
120
122
118
115
115
109
96
86
86
92
102
113
122
123
120
117
119
118
119
119
122
122
125
131
135
138
134
130
125
122
120
129
118
127
125
104
112
109
81
71
75
88
104
95
83
74
90
91
93
94
82
87
93
118
161
177
194
190
189
189
190
190
189
189
192
191
191
191
191
191
192
192
192
192
192
192
192
192
194
194
194
194
193
193
193
193
188
155
75
59
80
73
84
77
75
75
76
75
72
67
65
63
62
60
59
59
59
58
56
52
52
51
51
49
48
47
48
48
48
45
42
40
39
40
48
51
54
55
56
51
45
40
50
62
69
74
78
76
75
74
72
75
76
76
77
78
79
80
81
80
80
85
80
68
66
65
60
56
50
49
49
49
50
50
50
50
57
64
58
43
41
47
58
65
56
58
61
63
60
66
76
83
88
73
57
43
28
23
17
17
24
21
28
43
48
36
43
57
52
48
51
53
53
53
52
54
42
19
22
22
22
22
21
21
22
21
24
28
31
31
36
38
37
34
33
33
36
42
42
36
36
38
38
38
36
36
36
36
35
35
35
35
35
33
32
31
30
30
30
30
33
43
50
57
68
74
72
72
86
115
93
65
102
155
151
125
126
144
165
168
158
162
169
171
171
173
180
184
194
179
188
173
178
169
154
141
172
154
145
149
151
143
143
149
150
156
162
172
167
162
157
155
155
158
157
150
148
159
172
136
159
186
178
179
190
185
179
177
175
177
177
177
165
161
154
144
138
144
141
126
133
165
161
172
173
171
170
170
169
169
170
170
170
170
171
171
170
170
170
170
173
173
173
176
173
154
122
99
63
50
40
46
67
66
64
64
64
66
70
74
78
78
74
74
67
56
56
67
79
65
52
50
60
60
60
60
61
61
61
61
63
73
70
67
56
60
67
71
70
65
60
53
51
65
81
93
106
83
28
32
42
55
69
76
65
62
76
100
76
93
102
101
92
76
63
64
70
75
81
84
86
86
87
87
88
90
90
90
90
90
89
89
88
88
88
89
90
85
83
83
85
93
93
83
81
82
82
83
83
84
74
61
63
77
77
68
69
80
80
70
79
67
69
79
77
80
88
91
93
103
101
112
106
117
105
98
88
72
62
70
71
56
37
37
43
50
56
58
64
71
82
83
87
105
116
94
87
94
101
90
90
96
75
77
72
61
63
61
62
70
69
94
89
67
82
83
112
100
100
112
129
126
119
115
115
108
99
92
106
110
111
106
120
106
114
99
107
108
122
101
110
102
108
79
98
107
123
93
119
105
118
103
97
93
83
97
102
100
112
88
88
110
110
87
77
85
94
80
94
100
122
114
97
82
80
94
101
101
99
99
103
102
97
94
128
128
130
131
132
132
131
130
131
131
130
130
130
130
131
131
130
128
129
128
126
127
129
126
119
117
119
120
122
122
121
123
124
124
121
114
117
114
109
105
103
100
94
85
84
93
104
117
127
127
123
118
119
117
118
119
122
122
124
130
135
138
133
129
124
121
124
130
120
127
125
109
113
110
112
93
82
80
89
92
89
89
89
91
93
95
90
85
84
89
95
129
169
197
189
189
189
190
189
189
191
191
191
191
191
191
192
192
192
192
192
192
192
192
194
194
194
193
193
192
192
192
185
166
87
65
75
77
84
74
74
76
76
75
72
67
63
62
62
60
59
59
59
58
56
52
52
51
51
49
48
47
48
48
48
45
42
38
37
36
41
48
53
56
55
47
41
43
56
64
72
75
78
76
74
73
72
77
78
77
77
78
80
80
78
77
75
85
80
66
63
59
65
63
50
41
42
47
48
45
49
56
47
63
69
62
47
41
47
58
77
66
53
42
57
58
61
62
55
62
72
66
43
34
24
20
19
34
36
33
35
48
46
43
52
51
49
51
53
53
53
53
55
25
20
22
22
23
21
22
22
20
21
25
27
30
33
35
35
34
35
33
34
37
37
34
35
38
39
39
37
37
37
37
35
35
35
34
34
33
32
31
30
30
29
27
27
35
41
48
56
81
53
68
70
88
113
66
53
141
168
147
132
135
136
135
136
140
147
151
154
158
165
168
188
173
182
167
171
151
151
171
185
163
149
150
152
138
137
151
146
147
149
152
153
153
153
152
135
149
149
135
127
150
179
156
151
179
171
172
174
171
164
161
160
162
162
162
159
155
148
136
129
145
149
130
139
165
150
162
170
170
169
169
169
169
170
170
169
169
169
169
169
169
169
169
170
174
166
183
164
121
63
23
41
45
49
51
66
65
63
62
40
46
54
60
74
74
74
73
77
89
89
78
69
55
55
68
72
71
71
71
61
61
61
60
62
69
71
66
57
59
66
67
68
59
54
50
62
66
71
75
117
98
47
37
52
54
65
81
65
64
75
100
65
87
101
104
103
80
61
62
67
75
79
82
84
86
87
88
90
91
91
91
90
90
89
89
88
88
88
93
92
82
79
78
83
100
98
84
81
81
81
83
82
82
72
65
72
76
78
82
77
70
68
79
80
67
70
80
77
81
85
91
94
107
99
114
98
121
104
105
94
77
70
74
67
53
36
35
42
50
56
57
58
64
73
78
90
107
127
98
90
90
107
95
100
110
83
78
71
62
67
55
47
63
62
79
84
65
77
79
101
91
91
101
107
104
97
93
121
111
97
86
114
107
111
114
84
78
99
92
107
108
122
102
124
132
146
114
102
94
110
95
138
120
127
110
104
97
93
113
119
91
98
93
95
95
95
94
93
93
114
92
91
82
104
98
93
84
90
103
106
103
98
96
97
98
97
101
130
130
131
131
133
132
131
131
130
130
129
129
129
130
130
128
126
124
124
123
123
124
126
124
119
117
118
120
120
120
120
123
124
122
121
115
116
110
106
102
98
98
95
84
84
100
113
122
127
125
121
117
120
121
122
121
122
122
124
127
131
135
133
127
123
122
126
127
121
121
118
111
107
104
104
93
78
74
97
93
97
97
107
108
107
106
106
105
105
105
97
94
101
130
179
187
195
188
206
200
189
182
191
191
191
191
193
193
193
193
193
193
194
194
193
193
193
193
192
192
192
192
186
175
104
68
73
80
83
74
74
76
76
75
72
68
64
63
60
60
59
59
59
58
56
52
52
51
51
49
48
47
47
48
47
47
43
38
37
35
39
46
53
57
54
45
44
51
64
68
72
75
75
74
74
72
72
76
80
78
74
74
77
77
75
66
65
79
101
72
57
56
70
65
55
45
44
47
46
44
47
54
57
53
53
56
47
58
53
38
38
76
80
56
44
67
72
56
50
64
64
50
49
71
65
35
23
23
30
34
34
37
44
45
48
48
49
50
52
52
53
53
56
49
33
25
23
24
24
24
21
21
21
22
24
28
29
32
36
36
35
34
34
38
39
38
37
38
37
39
37
37
37
36
37
35
35
34
33
32
31
30
29
29
29
27
26
28
33
41
50
70
58
66
63
71
99
83
74
104
158
176
177
142
125
128
135
135
135
136
141
146
157
164
156
167
167
156
160
160
161
161
173
164
150
139
127
134
142
153
154
152
145
137
158
157
150
143
147
135
135
147
142
142
142
142
146
148
155
159
160
158
151
148
157
143
143
157
152
144
131
123
129
147
152
132
142
168
150
161
168
169
169
169
169
169
168
168
169
169
168
168
168
168
168
168
166
175
158
188
109
59
53
45
44
49
55
61
62
58
51
49
51
53
55
56
57
58
62
62
63
63
64
64
76
76
72
62
64
66
69
68
64
61
61
64
61
56
57
63
59
57
56
63
67
63
42
63
67
87
83
97
94
94
89
77
50
50
66
88
88
67
63
73
75
132
98
78
106
79
59
60
67
77
82
81
84
87
89
89
90
90
92
91
91
90
90
88
89
89
89
91
90
83
87
79
82
102
94
87
83
79
79
84
82
79
70
61
67
68
79
84
82
75
64
85
84
80
72
80
84
81
83
83
97
103
100
103
104
105
104
101
94
80
75
72
64
58
44
35
39
50
56
59
60
64
71
83
92
101
118
99
92
86
103
97
102
106
78
79
73
62
67
50
49
64
72
70
65
67
76
78
107
81
81
107
105
105
105
104
105
106
106
104
103
105
100
99
97
96
95
95
119
115
109
104
121
133
110
112
87
120
100
87
104
138
100
105
107
101
96
91
110
123
102
115
97
132
100
76
98
110
107
88
119
131
135
119
96
87
95
103
102
102
99
92
91
94
98
105
130
130
130
130
131
130
131
131
130
130
129
129
128
130
131
130
126
124
125
124
122
123
125
125
119
118
118
119
120
120
120
121
122
121
120
118
115
109
108
106
101
99
95
84
87
109
125
125
117
110
108
114
124
130
130
125
121
122
123
123
126
131
131
126
122
122
127
127
122
116
109
106
103
102
101
98
86
74
81
91
103
112
107
107
107
107
107
107
107
107
106
102
96
94
107
137
169
187
187
190
195
197
193
191
191
191
192
193
193
193
193
193
194
194
193
193
193
192
192
190
191
191
189
184
127
73
68
79
80
75
73
76
76
75
73
71
68
63
62
60
59
59
59
58
56
52
52
51
51
49
48
47
47
48
47
47
43
38
37
35
40
46
51
56
54
48
50
58
69
69
71
71
72
72
72
72
72
75
77
76
71
67
68
73
78
75
57
35
36
25
41
60
80
66
65
71
63
49
47
54
49
37
64
46
46
64
72
44
36
57
62
54
57
73
75
41
46
76
54
61
61
54
54
66
61
39
33
23
23
30
33
33
37
43
46
46
46
47
49
50
52
52
51
52
45
31
23
24
24
24
22
22
21
21
21
24
25
28
33
36
36
35
34
35
34
34
34
34
33
33
32
32
33
33
34
34
35
33
32
31
30
30
29
29
27
27
28
27
29
33
39
45
55
62
66
70
77
97
101
86
94
133
158
164
153
141
118
121
128
136
141
138
137
135
131
143
143
131
149
149
149
149
129
130
134
136
146
157
169
173
164
161
155
151
153
159
164
162
159
147
147
158
152
152
152
151
149
151
158
159
155
149
142
138
127
121
121
125
125
123
123
124
133
151
144
131
143
174
163
162
166
168
168
168
169
169
168
168
168
168
166
166
167
167
166
165
166
174
162
172
95
64
55
54
49
55
62
63
62
58
51
49
50
53
54
54
54
57
60
62
63
64
66
70
75
80
81
82
63
59
56
58
64
70
77
81
80
75
70
67
62
60
56
56
61
48
60
50
84
75
87
72
99
118
121
90
53
70
77
71
84
73
67
68
85
129
91
89
95
84
64
63
68
78
84
84
85
85
88
88
89
90
90
90
90
90
88
88
89
89
89
86
84
93
107
89
86
95
86
91
88
78
78
84
82
76
69
60
56
53
78
82
85
86
70
84
84
79
73
75
72
75
85
93
97
97
98
100
100
101
103
103
98
88
81
77
70
72
60
42
41
50
56
60
63
66
72
83
86
85
93
92
88
83
89
89
90
81
64
89
85
58
58
56
49
64
72
70
65
69
76
79
110
92
92
110
108
105
101
100
99
98
96
97
99
103
100
99
97
96
95
95
111
115
122
126
93
138
128
116
143
134
102
112
148
161
96
85
107
101
96
89
86
92
86
94
93
112
104
97
112
110
99
84
85
106
120
114
101
89
93
98
97
102
102
92
91
94
97
96
131
130
130
129
129
129
130
131
131
131
129
129
130
133
133
132
128
127
129
128
125
124
125
124
120
119
119
119
119
119
120
121
122
122
120
119
112
108
110
110
106
103
96
85
92
120
130
123
111
102
104
114
124
131
135
131
129
125
123
123
123
128
130
127
122
121
121
117
112
105
99
98
98
100
94
104
93
78
82
91
103
112
107
107
108
108
107
107
107
107
107
107
106
101
87
99
111
142
176
184
190
188
190
192
192
192
193
193
193
193
194
194
194
194
193
193
193
192
192
190
191
191
186
195
149
82
60
75
81
78
76
76
76
75
73
72
71
66
63
61
60
60
59
58
56
52
52
51
51
49
48
47
47
48
47
47
43
38
37
35
40
44
49
52
56
52
55
62
72
71
69
68
69
68
68
71
72
73
74
71
66
66
77
86
91
90
86
91
105
85
71
56
71
73
73
78
76
64
58
59
50
37
57
52
52
57
59
61
59
48
68
60
57
64
67
64
56
58
60
54
54
61
64
65
60
50
41
33
23
23
30
34
34
37
41
43
46
46
47
48
49
48
45
44
45
39
23
25
24
24
23
23
23
22
21
21
23
25
29
34
35
36
35
35
34
34
34
34
33
33
32
32
33
33
34
34
35
33
32
31
30
30
30
30
29
29
27
28
28
28
28
34
40
50
61
67
70
77
112
103
86
106
150
191
191
173
166
148
130
122
115
124
140
149
119
131
131
119
134
134
134
134
148
155
165
171
176
180
182
181
179
176
175
170
168
169
173
180
165
153
153
164
155
155
155
154
152
156
163
164
159
153
147
143
146
153
153
148
148
150
149
148
146
149
110
115
141
172
168
165
166
168
168
168
169
169
168
168
168
168
167
167
166
166
166
165
168
172
174
138
73
70
59
66
55
62
65
63
61
58
51
49
51
53
53
52
51
50
50
50
49
49
48
47
48
51
56
60
65
69
70
66
84
87
92
93
91
86
80
74
63
60
60
56
55
56
75
56
77
69
81
66
85
117
118
94
76
84
77
60
78
79
73
63
100
127
81
74
109
95
75
66
71
75
81
87
88
87
87
87
86
86
88
88
88
88
89
89
89
89
90
85
84
93
107
89
86
95
86
91
88
77
77
83
82
75
71
67
60
42
64
81
90
90
75
84
80
74
70
66
70
75
82
90
91
90
91
92
93
94
96
100
100
90
78
73
74
79
68
41
38
50
56
60
63
66
72
84
86
78
82
92
90
90
83
88
85
76
64
89
85
65
51
58
49
64
72
70
65
69
76
79
98
92
92
98
104
106
108
106
94
94
96
97
99
100
99
98
97
96
95
94
91
94
101
105
109
122
112
133
95
119
103
108
126
150
106
114
107
101
96
91
80
81
98
100
110
91
100
107
90
91
103
119
91
101
100
98
106
105
102
107
108
113
113
104
99
97
94
87
130
129
128
126
126
126
127
128
130
130
128
128
129
133
137
135
130
128
130
131
129
126
126
125
121
120
119
119
119
119
119
121
123
124
120
115
108
107
113
116
113
107
101
90
101
121
124
114
111
109
112
114
113
116
124
130
132
129
124
123
123
126
131
128
122
115
106
101
96
90
89
91
95
98
92
100
95
85
97
97
97
97
107
107
110
108
107
107
107
107
107
107
107
107
104
96
87
91
108
140
177
195
192
192
191
191
191
194
194
193
193
193
193
192
192
191
190
190
189
190
190
190
183
196
156
91
61
71
86
77
75
75
75
73
72
70
69
66
65
62
60
58
58
57
55
52
52
51
51
49
48
47
47
48
47
45
43
38
37
35
39
42
44
48
54
55
58
66
72
68
66
64
65
65
65
67
73
76
76
70
63
64
68
67
63
66
64
56
71
77
73
69
74
59
54
55
65
80
74
54
47
64
42
67
67
42
52
62
62
55
59
78
73
35
60
73
64
51
63
50
52
63
72
63
60
57
49
41
33
23
25
30
34
34
37
40
42
43
45
46
46
44
41
40
41
42
23
26
24
23
23
23
23
22
21
19
21
22
25
28
30
35
35
36
36
38
37
37
37
38
37
37
38
37
37
35
35
33
32
31
30
30
30
30
29
29
27
27
28
27
28
31
38
43
45
49
55
59
99
112
126
136
137
143
168
172
183
177
174
164
157
158
162
163
164
174
174
164
167
168
168
168
178
179
182
183
185
185
186
186
152
153
154
152
147
146
147
148
152
141
141
152
151
151
151
150
152
154
162
165
166
164
157
154
157
172
172
157
168
160
147
139
156
149
85
78
150
168
164
166
167
167
167
167
168
168
168
168
167
166
166
166
166
166
166
166
168
163
184
116
63
80
61
73
62
65
63
65
61
58
51
48
51
53
53
52
50
50
50
51
52
54
54
53
51
52
54
58
71
77
83
84
95
95
95
94
90
84
81
72
67
63
61
60
60
85
76
75
52
72
68
82
62
85
99
94
104
80
65
65
73
84
78
59
109
124
74
73
105
102
80
65
70
74
78
90
90
87
87
85
84
85
85
86
86
88
88
89
89
89
91
93
91
82
87
79
83
103
90
88
84
80
81
82
80
77
73
67
62
47
56
69
83
87
70
84
78
75
69
66
80
82
74
74
84
87
89
90
92
91
96
97
92
79
64
63
68
72
62
37
37
49
55
58
63
65
70
85
92
84
86
92
94
94
89
93
92
93
77
77
74
81
55
49
49
65
72
68
64
71
77
78
79
81
81
78
89
96
104
106
106
106
106
100
100
99
97
96
97
96
95
95
111
107
101
96
114
140
116
105
127
107
80
108
108
136
100
117
105
104
94
94
100
95
129
125
135
83
90
99
103
91
96
114
81
99
108
106
94
86
81
83
87
95
95
91
96
97
91
86
130
130
129
128
126
125
126
127
128
130
128
128
129
133
137
134
128
125
126
128
129
128
126
125
123
120
120
119
119
119
119
120
123
124
122
117
108
105
113
121
120
115
105
92
109
122
118
104
113
113
111
109
104
110
123
133
133
126
125
125
125
128
132
130
122
109
98
91
86
83
83
86
92
92
89
88
91
89
90
93
98
101
104
109
115
122
124
124
124
123
118
111
99
96
101
104
104
96
79
100
128
161
178
192
194
186
192
194
194
194
193
192
192
191
191
190
189
189
188
188
188
189
182
193
166
105
66
70
90
76
72
75
75
72
72
69
68
66
64
62
60
58
58
57
55
51
51
51
51
49
48
47
48
48
47
45
42
37
35
35
38
39
41
46
51
53
59
68
69
64
61
60
60
60
64
66
71
78
82
74
66
71
70
60
56
63
66
51
59
59
74
70
80
71
64
54
59
78
79
58
52
64
64
47
56
67
59
52
67
82
62
51
51
63
56
56
64
75
65
62
57
60
61
62
60
61
58
50
40
30
25
26
30
33
36
37
39
42
42
42
43
43
40
40
40
40
35
28
24
22
22
22
22
22
22
21
19
22
22
23
29
30
32
33
34
34
34
34
34
34
35
35
35
35
35
35
37
34
33
32
31
31
30
30
28
28
28
28
28
28
28
32
36
41
40
42
44
48
67
95
123
145
126
101
108
149
167
169
172
174
176
178
183
187
169
186
194
189
177
180
187
191
176
177
180
180
159
170
164
145
134
128
136
154
146
142
134
128
162
115
101
129
138
111
111
138
117
121
128
133
135
137
136
136
136
156
156
137
142
139
132
129
106
124
54
72
152
164
163
163
164
165
167
167
167
166
167
166
166
166
166
165
164
164
165
165
168
155
181
100
62
84
62
82
102
104
90
66
60
68
61
47
52
53
52
51
50
48
49
51
55
56
54
52
44
54
67
83
74
80
89
93
96
92
90
85
81
76
71
70
67
62
56
54
43
78
88
105
55
62
61
96
77
85
91
92
115
83
69
82
86
77
75
82
123
116
78
85
99
103
78
61
66
73
74
88
91
87
87
87
84
84
84
84
86
89
89
89
88
90
92
98
95
83
90
85
87
102
86
83
81
82
86
79
74
78
74
63
62
49
56
63
75
82
66
83
83
73
69
69
92
86
79
74
79
82
88
92
96
108
97
83
82
71
61
64
70
74
63
39
37
48
52
57
62
65
69
81
89
83
92
92
94
86
91
90
87
91
81
73
74
85
55
45
59
66
69
63
64
75
76
63
99
103
110
112
109
104
104
104
100
98
97
98
96
94
94
94
92
84
89
103
103
103
103
103
103
112
126
131
101
106
103
94
127
107
94
99
98
105
91
99
103
84
118
129
139
97
102
98
91
78
95
134
105
113
103
87
87
79
76
77
80
90
90
83
87
91
90
89
130
130
130
128
126
124
125
126
128
128
128
127
130
131
134
132
128
125
124
124
125
127
126
125
125
124
121
119
119
119
119
120
122
123
124
122
112
108
113
124
124
117
106
91
111
122
115
99
114
108
103
107
112
121
134
141
135
129
128
131
131
131
129
126
121
109
98
92
88
84
84
87
91
91
89
88
88
88
97
103
112
118
107
111
115
118
123
124
124
124
126
118
107
100
98
100
101
104
105
85
80
96
128
173
200
187
192
192
192
192
191
191
191
190
190
188
188
188
187
187
187
187
183
188
177
130
74
68
88
74
73
75
73
71
70
68
67
66
63
61
58
57
57
56
53
51
51
51
51
49
48
47
47
47
47
43
40
36
35
35
37
38
39
44
48
51
57
65
65
60
58
59
59
59
62
64
66
73
81
76
75
83
79
71
75
88
98
105
123
110
97
71
85
104
106
85
68
73
81
85
74
58
57
64
59
54
56
63
71
72
74
63
63
74
72
63
53
53
68
65
62
59
61
62
62
60
72
60
44
29
27
25
26
31
35
37
38
38
39
39
42
43
45
46
48
49
34
30
24
22
21
22
22
22
22
22
21
19
20
20
24
24
25
25
31
32
32
31
31
30
30
30
31
31
31
33
37
33
32
31
30
30
30
30
28
28
28
28
28
28
28
29
34
41
45
47
49
49
49
49
79
118
140
121
121
131
129
131
135
139
136
144
156
164
149
163
166
157
160
163
170
175
163
164
166
167
151
152
147
136
140
122
112
118
120
117
113
111
123
86
77
99
95
87
99
126
111
108
101
99
101
102
102
102
102
113
113
102
103
100
93
90
72
59
51
110
158
156
158
163
165
164
166
166
165
165
165
165
165
165
164
164
164
164
165
165
171
161
170
80
57
77
65
86
87
93
83
66
59
66
60
46
51
52
52
51
51
50
50
50
33
36
38
40
33
54
81
94
79
83
86
89
90
86
83
81
79
77
71
69
69
70
69
67
54
66
110
115
100
59
70
87
85
98
92
70
86
89
91
93
94
80
82
101
130
108
84
94
101
101
78
62
65
72
72
83
88
87
87
87
85
85
85
85
85
88
89
89
88
90
93
93
90
94
115
105
95
98
83
83
81
82
86
77
74
81
76
62
61
50
60
64
76
84
69
87
74
71
72
72
74
73
70
67
79
82
88
93
98
101
96
84
78
71
71
78
78
77
67
41
36
46
51
55
60
64
67
76
79
82
94
91
92
85
84
81
79
74
81
84
81
71
51
56
63
64
64
64
68
74
74
67
83
88
95
98
103
108
108
102
98
98
97
96
93
92
92
92
91
77
75
83
103
103
103
103
79
107
105
78
128
101
85
91
116
100
93
101
91
103
86
98
105
91
97
96
111
97
96
85
116
92
81
91
75
92
107
107
98
88
89
88
86
92
92
80
77
84
95
98
130
130
131
129
126
125
126
126
128
128
128
127
129
130
132
131
128
130
129
126
124
125
126
126
126
126
125
123
119
119
119
119
120
123
124
123
117
111
114
124
124
117
106
91
111
123
116
102
110
96
96
112
127
138
141
141
130
127
126
126
124
122
121
119
118
111
101
95
91
87
87
89
92
91
89
89
89
89
89
99
116
126
117
114
111
109
124
124
124
125
125
120
115
108
105
102
98
101
102
108
97
73
76
95
140
202
186
187
188
187
189
189
191
190
190
189
188
188
187
187
187
185
183
187
185
155
86
66
80
73
73
75
74
72
70
68
67
66
62
60
57
56
57
56
53
51
51
51
51
49
48
47
47
47
47
43
38
36
35
37
38
38
39
41
46
50
53
62
62
57
57
58
59
60
62
61
59
63
73
76
86
104
111
105
111
119
109
87
106
117
121
112
112
96
85
71
62
56
55
59
60
51
52
68
64
47
53
70
70
64
74
63
63
74
71
69
65
56
65
68
65
62
62
62
62
59
65
62
55
45
33
27
25
27
32
35
36
37
37
37
38
38
39
40
41
41
35
31
24
22
21
22
22
21
21
21
21
19
19
19
19
19
21
22
25
27
27
26
26
25
25
25
26
26
26
27
32
31
32
30
28
28
30
30
28
28
28
28
28
28
28
28
31
37
42
44
46
47
41
37
49
77
99
106
118
122
82
96
117
131
123
114
103
95
117
127
123
109
118
123
129
131
131
130
133
134
123
113
108
110
97
75
59
60
53
55
58
60
70
51
49
63
53
56
68
82
73
70
62
60
63
64
64
64
64
62
62
63
60
56
49
46
49
35
86
148
173
144
147
169
171
163
165
165
165
165
165
165
163
163
163
163
164
164
164
165
165
171
159
66
62
68
64
70
68
77
75
61
57
63
57
47
51
51
51
51
50
50
50
50
46
53
62
69
76
85
96
103
88
85
82
81
81
80
79
81
84
81
76
68
72
83
87
88
57
51
83
86
87
54
59
58
91
92
86
77
66
73
83
90
90
66
77
111
122
84
86
105
107
99
80
72
69
71
74
77
81
83
87
87
85
85
85
84
85
86
88
89
88
90
95
96
98
101
116
106
97
93
81
84
82
80
82
75
74
79
76
61
60
50
60
63
73
78
65
82
69
72
69
64
65
69
73
75
78
82
87
93
96
92
90
91
90
82
82
86
82
78
68
42
36
46
49
55
60
63
67
72
74
88
86
82
83
90
81
82
81
74
91
76
71
62
60
59
70
57
58
71
74
67
67
72
77
82
88
93
97
115
115
97
98
97
97
96
93
92
91
91
98
89
93
107
103
103
103
105
103
101
101
103
91
108
110
95
79
80
99
125
84
96
79
91
104
108
91
84
86
114
104
85
93
87
86
92
93
87
86
88
85
81
83
84
79
84
84
74
75
84
95
100
130
131
131
129
126
125
126
126
128
128
128
127
129
129
130
130
131
133
132
131
128
128
128
128
128
128
125
124
121
119
118
119
120
122
123
121
119
114
116
121
123
117
106
91
104
120
115
107
110
90
94
116
133
136
128
120
114
115
115
113
114
113
110
114
118
112
104
97
92
88
88
90
92
92
90
89
89
89
79
87
103
116
118
115
108
103
120
122
123
125
122
118
117
113
107
103
104
108
109
107
105
109
89
80
81
116
183
183
185
186
188
189
191
190
191
188
188
187
187
187
187
185
183
186
184
163
95
63
74
70
75
76
75
73
70
68
67
66
62
60
57
56
57
56
53
51
51
51
51
49
48
47
47
47
44
41
37
38
37
37
38
38
39
41
46
48
52
58
58
56
57
58
59
61
64
61
59
61
70
78
91
110
116
106
105
112
116
111
119
111
111
102
123
127
113
93
90
98
88
67
81
111
73
52
57
64
61
57
65
73
63
51
51
63
62
65
67
64
64
64
65
64
64
63
60
59
51
56
63
67
52
40
27
20
31
32
34
35
36
36
35
32
30
28
27
29
32
29
25
22
22
22
21
21
21
21
21
21
20
19
19
19
20
20
20
22
23
24
23
23
24
23
23
23
24
25
27
27
28
28
27
27
30
30
28
28
28
28
28
28
28
28
29
33
33
34
36
37
36
58
48
41
29
56
76
100
100
86
87
87
78
75
72
69
68
74
66
49
51
56
61
65
66
66
69
70
64
44
39
49
57
40
32
38
33
38
46
52
39
33
34
43
30
33
33
28
24
36
38
40
39
40
40
40
40
29
29
40
31
28
22
19
41
91
153
152
153
167
166
158
160
163
165
165
164
164
164
163
163
163
163
163
164
164
164
164
154
167
152
67
76
65
67
51
56
70
70
58
57
61
56
47
50
50
50
50
50
50
48
49
46
57
71
80
92
86
77
71
92
87
80
77
77
79
79
81
85
81
76
68
73
89
100
105
99
87
64
73
67
91
75
68
92
70
77
107
66
45
47
71
78
49
64
111
113
65
88
114
109
98
82
86
79
64
65
74
83
85
87
85
85
85
85
84
88
88
86
86
88
92
99
107
109
97
94
90
91
95
84
85
85
80
81
76
75
78
72
60
57
49
61
60
62
69
55
73
74
71
61
61
73
74
80
86
78
79
86
95
96
83
84
101
101
90
87
81
74
77
62
37
35
46
49
53
59
63
67
69
75
91
79
64
64
86
82
84
84
81
94
48
66
64
81
56
69
56
57
72
75
67
68
79
84
83
90
96
90
110
114
95
97
97
97
96
94
93
93
91
75
76
91
109
100
100
105
110
88
103
100
77
108
110
99
87
90
90
89
97
82
88
72
90
103
125
105
99
86
130
121
96
93
93
88
82
93
80
78
87
91
95
103
97
94
102
97
90
89
88
91
93
129
131
130
128
128
126
126
128
128
128
129
129
129
129
129
130
131
131
132
131
131
128
128
126
126
125
125
125
123
119
119
119
120
122
121
121
122
118
116
117
119
116
109
101
96
112
110
107
109
85
93
115
126
121
110
104
104
105
108
106
107
106
106
110
112
108
102
96
92
92
92
92
93
93
91
91
90
90
83
87
92
101
108
107
99
97
108
112
117
116
117
119
117
116
110
103
106
113
113
108
109
103
98
103
90
68
80
126
181
191
188
180
182
195
191
190
188
187
184
185
185
182
183
185
182
181
116
61
55
78
75
76
77
73
69
66
65
63
62
60
57
56
56
56
54
53
51
51
52
50
49
47
47
45
43
41
38
39
37
36
38
38
39
40
46
48
50
55
56
56
55
58
59
60
62
62
63
63
68
73
81
97
102
99
99
104
106
101
98
97
97
142
135
83
110
91
101
96
111
94
80
87
96
79
75
88
82
49
40
66
67
51
50
69
64
63
65
66
65
64
65
65
65
63
58
57
51
59
65
66
59
54
39
20
22
21
29
45
49
34
28
35
35
31
24
22
22
25
20
21
20
20
21
19
19
19
21
19
19
18
18
18
17
19
18
21
20
21
23
23
21
21
21
21
22
23
23
26
26
26
27
27
28
28
28
28
28
28
28
28
29
29
29
29
29
30
35
36
34
33
39
29
35
35
46
43
47
62
59
55
50
47
44
44
43
40
38
37
37
38
39
39
43
33
36
49
44
39
45
47
51
26
39
40
26
38
41
34
30
33
37
35
35
35
35
37
41
30
30
32
37
37
35
36
39
38
29
24
37
65
94
111
129
139
151
156
154
166
168
158
159
162
164
163
163
163
163
163
163
163
162
162
163
163
163
163
160
161
139
59
70
58
77
56
54
69
70
58
54
57
55
47
50
48
50
49
49
49
50
51
52
62
76
86
84
91
102
109
99
79
74
85
89
75
96
84
81
86
64
68
105
112
63
94
82
79
71
70
80
124
114
113
54
73
55
88
85
69
47
38
44
65
82
80
78
74
88
110
113
99
84
77
78
78
78
75
60
83
90
82
83
86
86
88
89
88
87
87
88
92
97
104
105
94
88
86
91
98
92
85
85
83
82
79
76
76
69
61
56
50
62
57
59
69
59
76
79
66
60
70
78
72
74
82
78
73
86
99
97
81
84
100
99
82
90
75
70
83
61
39
38
48
49
54
59
63
67
71
75
85
80
65
67
85
86
81
77
72
85
55
63
59
93
59
59
59
60
69
72
70
75
85
88
79
84
95
89
101
109
101
97
97
95
95
93
93
92
90
75
78
90
99
95
97
104
103
88
105
99
93
103
111
99
80
86
102
88
86
87
85
71
93
105
124
105
99
92
118
123
98
93
96
90
85
91
80
79
85
92
102
117
102
98
105
95
95
97
91
96
90
125
124
125
128
128
126
126
128
128
128
129
129
129
129
128
129
130
129
128
128
128
127
126
126
126
126
126
126
124
121
119
119
120
122
123
122
121
117
114
112
114
118
119
117
100
114
112
102
97
78
93
117
119
111
103
103
104
104
104
104
104
103
101
100
97
94
91
91
92
94
94
94
93
93
93
92
90
90
91
91
91
90
90
89
87
88
96
103
108
112
116
117
110
113
115
107
103
110
112
111
110
105
102
104
104
94
78
82
105
156
200
206
190
168
187
192
189
188
173
192
191
173
183
182
182
182
132
71
56
71
77
77
77
73
68
66
65
63
62
60
57
56
56
56
54
53
51
51
52
50
49
47
47
47
43
42
39
39
37
36
38
38
39
40
46
47
50
50
56
57
57
58
58
59
60
61
62
59
56
52
64
77
81
81
85
87
99
107
108
104
109
108
116
125
97
106
130
110
94
72
67
95
85
78
78
89
86
85
79
66
87
77
64
58
65
64
63
65
65
66
66
65
64
62
59
56
54
69
70
52
50
63
56
39
36
43
43
30
37
45
38
23
21
24
31
35
39
30
18
13
14
17
18
19
19
19
21
19
19
18
18
18
17
18
17
18
19
20
20
21
21
21
21
21
22
23
22
25
25
26
26
26
28
28
28
28
28
28
28
28
29
29
29
29
30
33
37
37
35
33
34
33
34
35
38
40
43
44
45
44
42
42
41
41
38
36
34
33
34
34
34
34
27
40
43
32
39
45
47
38
40
24
47
55
21
29
40
46
50
47
46
43
37
36
35
35
32
31
30
29
31
35
39
40
42
54
77
98
121
140
155
152
145
145
153
159
159
160
161
161
161
162
163
163
162
162
162
162
163
163
162
162
163
163
163
163
173
166
131
41
46
49
78
61
58
69
69
57
53
55
54
46
48
48
49
48
49
47
50
58
69
79
93
102
116
114
113
111
139
148
138
113
114
98
94
84
85
91
69
72
118
119
75
82
92
117
106
72
60
121
136
113
88
100
73
76
64
67
76
73
61
101
101
51
54
98
110
88
114
100
84
77
78
78
78
75
73
79
83
82
81
78
78
81
81
82
88
90
90
86
81
85
94
98
98
92
88
94
95
88
85
83
79
78
76
76
69
65
60
50
64
61
64
75
66
75
75
61
65
79
80
68
68
77
79
76
86
97
98
85
89
97
89
68
80
71
74
91
65
47
43
48
49
53
58
63
67
69
70
74
86
86
86
90
90
84
74
64
77
70
62
50
85
56
52
63
64
66
70
73
79
85
87
79
83
94
96
104
112
105
98
97
94
92
88
86
85
84
84
86
88
92
98
102
99
91
86
93
93
92
91
96
99
89
85
106
93
90
95
95
83
99
102
105
87
87
91
97
110
90
86
89
86
91
97
93
93
98
97
101
117
99
91
97
91
101
103
99
100
91
125
124
125
128
128
128
128
128
128
128
129
129
129
129
129
129
129
129
128
128
129
128
127
128
127
129
130
131
127
124
124
120
120
125
128
124
118
111
111
116
112
116
120
124
99
114
112
88
83
83
103
119
117
107
106
107
106
105
102
101
100
99
96
91
91
90
91
92
95
95
95
95
94
94
92
92
91
91
90
91
90
87
84
82
84
87
89
93
97
104
111
111
105
109
118
114
108
113
112
112
114
111
105
101
98
104
84
69
69
92
134
181
193
188
180
187
192
186
183
185
185
181
181
184
183
183
155
84
55
61
78
77
76
74
68
66
65
63
61
58
56
55
56
56
54
53
51
51
52
50
49
47
47
45
45
45
43
39
37
37
39
38
40
40
44
45
46
50
56
55
56
57
57
56
58
58
58
59
62
60
51
54
57
66
84
97
80
102
108
98
111
98
104
126
131
100
107
105
111
116
96
73
62
74
79
73
66
87
92
67
91
96
88
73
64
64
63
63
63
65
66
64
59
59
62
59
57
69
70
52
48
56
63
60
51
43
37
28
37
45
38
23
21
25
31
35
39
30
18
13
14
17
18
18
18
18
19
18
18
17
17
17
16
17
17
17
16
16
18
19
20
20
21
21
22
22
22
23
25
25
26
26
26
25
26
26
27
27
27
27
28
28
28
29
30
33
37
37
34
32
33
33
34
33
34
36
36
36
36
36
35
34
34
34
33
32
32
32
32
32
32
32
25
38
40
30
45
47
38
31
40
20
37
40
31
29
36
49
46
44
40
39
37
35
34
36
37
33
23
19
29
43
60
81
109
124
134
140
147
151
152
152
152
154
155
157
160
160
161
161
161
161
162
162
162
162
162
162
162
162
162
162
163
162
163
162
168
171
137
36
32
45
62
53
53
62
62
54
51
52
52
49
48
47
48
48
48
49
58
70
73
83
98
107
121
119
118
116
138
154
137
96
132
127
107
97
105
111
89
92
113
120
102
86
101
132
119
73
73
112
139
106
122
97
75
84
101
80
82
111
101
51
42
81
87
65
78
121
114
100
85
79
79
79
79
80
83
77
74
77
83
65
65
77
77
76
82
85
85
81
77
79
91
98
97
88
81
88
91
85
79
77
76
77
78
78
74
74
68
48
60
66
67
73
61
69
71
65
70
81
78
68
68
77
79
84
86
86
89
87
98
111
114
87
79
66
64
74
48
41
42
46
48
53
58
62
67
68
69
72
89
100
94
85
86
87
76
68
75
71
60
37
67
46
50
63
64
66
69
73
79
83
84
83
88
94
98
107
109
101
95
95
93
92
88
86
85
86
88
88
86
86
93
105
97
80
79
84
94
92
89
82
103
101
101
119
106
97
94
101
87
98
99
95
77
88
94
91
104
91
84
86
89
96
103
99
99
105
103
98
110
101
92
91
86
101
104
113
100
94
131
132
130
126
126
126
128
128
128
128
128
128
128
128
128
128
128
128
127
128
129
131
129
129
129
131
130
132
128
126
125
123
120
124
127
124
117
110
110
114
114
112
114
119
95
108
107
77
88
103
115
120
115
108
109
110
106
104
100
99
94
94
92
91
95
98
97
94
93
94
94
93
94
94
91
90
89
89
89
90
91
88
86
86
91
90
86
86
90
94
94
100
109
114
115
112
117
126
124
117
111
114
112
102
96
105
106
109
96
69
77
119
163
189
182
180
186
191
196
170
170
196
183
184
183
182
170
92
55
53
79
78
75
74
68
66
65
63
61
56
55
54
54
54
53
51
51
51
52
50
49
47
47
45
45
45
44
40
37
37
37
35
38
39
43
46
49
52
54
54
55
56
55
53
54
54
54
51
54
62
68
74
77
75
72
71
54
87
99
80
97
112
106
83
96
93
112
97
97
89
90
95
91
106
106
91
59
60
60
61
80
99
108
98
75
64
64
63
62
66
66
65
59
59
62
62
59
60
63
66
64
49
49
64
54
30
21
36
48
34
28
35
35
28
28
22
22
26
19
20
17
18
18
17
18
18
18
18
17
17
17
17
16
16
16
16
14
14
15
16
18
19
19
19
20
20
21
21
21
22
23
25
23
24
24
25
26
26
26
26
27
27
27
28
29
31
35
36
31
29
31
31
32
32
33
33
30
30
30
29
29
29
30
30
30
30
32
32
32
32
32
32
37
26
29
41
47
38
31
32
44
12
13
5
37
36
31
36
33
29
29
29
28
28
28
23
20
26
42
57
80
101
127
145
156
156
153
149
148
149
150
153
153
153
155
155
156
157
160
160
160
160
161
161
161
161
161
161
162
162
162
161
161
161
161
161
156
172
143
45
38
50
45
39
48
60
59
52
51
52
51
49
48
48
48
50
54
58
68
76
66
77
91
100
99
106
117
124
139
138
117
86
126
137
110
110
123
129
106
110
93
114
126
106
105
113
101
80
113
103
119
92
78
118
101
66
66
104
106
72
63
60
60
63
65
87
101
98
114
100
85
80
80
80
80
79
95
77
67
76
83
57
57
79
77
77
78
78
81
86
87
87
88
91
92
87
85
88
88
81
77
76
77
78
83
83
78
81
70
41
54
65
68
71
57
68
71
69
71
77
74
68
69
74
81
90
86
76
77
88
104
110
98
72
78
74
78
81
51
47
43
45
48
51
57
62
67
70
79
83
87
97
93
83
83
88
79
71
71
72
63
32
59
43
50
63
64
65
67
71
79
81
82
84
89
89
91
98
98
94
93
94
93
93
92
92
91
93
92
87
83
81
85
99
97
80
84
92
105
85
80
84
107
96
83
98
88
81
85
95
86
95
99
93
80
102
108
94
108
101
93
93
98
101
98
92
95
106
105
95
106
103
97
92
79
90
99
118
99
93
131
132
128
126
126
126
126
126
125
125
126
126
126
126
126
126
128
128
128
129
131
132
132
130
127
126
128
129
128
128
126
126
123
123
123
122
120
115
114
115
116
115
114
117
96
106
101
75
100
119
123
121
118
116
115
114
109
107
103
101
98
95
93
90
94
100
100
96
96
96
95
97
100
101
100
96
93
91
91
91
91
90
88
89
91
91
88
87
88
84
85
97
108
109
111
113
119
124
123
119
112
115
119
105
98
103
101
87
87
100
80
61
96
160
204
190
177
181
185
185
184
185
185
185
183
182
186
125
63
55
66
77
76
74
70
67
67
66
59
55
53
52
52
52
52
50
50
50
51
50
49
47
47
45
45
45
43
41
38
37
35
34
34
37
42
48
51
51
47
49
55
57
53
52
51
51
51
51
56
63
72
75
78
77
70
63
74
84
92
86
90
107
105
76
73
70
97
96
77
91
77
86
93
92
93
88
90
92
80
60
63
64
66
67
88
88
68
50
60
66
66
65
62
60
58
55
52
56
60
65
64
54
49
60
55
45
28
21
39
24
19
25
23
29
29
37
42
30
24
14
17
17
17
17
17
17
18
17
17
15
15
15
14
14
14
14
15
15
15
15
18
18
18
18
18
18
19
19
19
19
21
21
21
22
22
22
23
23
25
25
25
25
26
25
25
26
29
29
29
27
28
28
29
29
30
29
29
27
29
27
29
28
28
28
26
38
38
26
19
30
31
19
31
37
16
23
44
34
23
21
29
26
48
39
46
44
32
18
48
30
23
29
28
32
40
45
56
80
105
123
141
151
157
158
154
152
154
150
149
150
153
154
152
152
153
153
155
156
158
158
159
159
161
161
161
161
161
161
162
162
161
161
160
160
159
159
154
171
149
57
40
51
42
42
52
63
60
56
57
56
53
50
50
50
50
57
63
63
64
71
74
95
103
93
101
118
143
165
176
137
131
110
119
108
111
119
121
119
118
130
115
99
139
135
138
105
137
92
101
108
85
92
87
118
112
71
70
115
94
66
60
79
80
68
68
117
129
102
88
88
86
82
82
81
81
82
74
79
75
60
70
70
70
66
71
77
80
81
87
91
90
88
90
90
91
92
90
88
90
86
81
80
78
80
83
83
82
83
68
32
45
62
70
73
56
60
66
72
71
67
70
70
74
74
79
88
85
76
77
90
99
93
86
76
85
84
84
84
49
43
39
44
47
50
55
60
64
75
81
79
80
91
93
86
86
86
82
77
67
70
63
34
58
45
49
63
64
64
65
70
78
81
79
83
87
87
89
92
93
92
93
91
91
90
90
90
90
92
91
85
83
86
88
90
90
90
91
94
104
80
79
92
110
90
75
91
86
83
88
97
93
97
97
88
84
108
111
92
105
105
103
101
98
94
91
90
93
98
98
91
103
101
97
97
80
86
97
112
95
92
122
121
123
125
125
125
126
126
125
125
125
125
125
125
125
125
126
126
126
129
132
133
133
130
127
125
127
128
128
128
127
129
130
126
122
120
121
119
117
115
116
115
116
120
98
102
98
84
112
122
123
120
120
120
120
116
111
108
109
111
112
110
105
93
89
93
95
98
100
102
105
108
114
119
121
118
112
106
99
92
89
88
87
90
90
90
89
89
89
89
92
100
98
96
107
114
112
112
115
116
114
115
118
108
104
102
111
97
84
82
93
81
75
95
129
173
188
190
185
186
184
185
186
185
182
182
186
150
89
50
60
71
77
74
72
69
67
66
62
56
52
51
52
52
51
49
50
50
51
50
49
47
47
45
45
45
43
41
38
37
34
33
35
39
41
46
50
49
43
45
55
57
52
50
50
50
51
61
67
67
63
60
66
75
81
83
70
59
69
98
69
74
85
89
91
72
78
66
80
92
78
83
63
72
83
93
97
86
86
97
72
70
68
68
71
75
72
64
60
59
59
60
61
60
58
48
44
54
57
44
50
73
67
42
53
55
45
28
25
40
48
39
37
34
27
24
26
26
24
22
21
20
17
16
17
17
17
17
15
15
15
15
14
14
14
14
15
15
15
15
16
16
16
16
17
17
18
18
18
18
19
19
20
21
21
21
22
22
22
22
22
22
22
20
20
21
23
23
26
25
26
26
27
27
29
29
32
33
34
34
35
35
35
35
20
32
32
20
25
36
37
25
31
60
39
23
35
46
47
45
42
28
44
41
49
55
45
25
33
28
35
54
76
79
82
85
139
146
150
146
147
149
145
146
148
147
152
156
158
156
149
147
149
152
153
153
155
155
157
157
158
158
160
160
161
161
161
161
162
162
161
160
159
159
158
157
158
163
155
74
33
45
50
56
64
67
62
61
61
59
53
49
48
49
54
63
68
68
56
57
75
84
88
83
71
91
116
137
127
118
126
138
112
100
110
113
111
125
145
158
131
106
111
117
112
94
167
123
110
118
94
101
128
101
94
112
118
100
73
101
79
51
58
102
113
80
88
129
88
88
87
84
84
82
83
84
74
82
75
60
70
70
70
69
72
80
80
78
87
91
85
91
98
86
80
94
98
92
87
84
82
82
80
80
81
80
80
80
64
32
45
58
67
77
59
58
61
71
71
61
65
72
78
74
76
81
85
85
85
89
87
78
80
90
96
88
79
76
42
37
37
43
47
50
52
57
62
67
68
63
65
74
78
75
67
67
76
81
63
64
57
34
49
44
50
63
64
63
64
69
78
81
79
83
90
91
91
93
98
98
92
87
88
87
87
87
87
88
88
85
85
92
93
81
81
93
95
92
95
84
86
101
102
92
94
103
95
94
97
98
98
98
95
90
88
106
106
87
101
106
112
106
90
86
93
95
88
84
84
85
99
93
95
103
91
94
97
101
94
97
118
118
121
125
125
125
126
126
125
125
125
125
125
125
125
125
126
126
126
130
133
133
133
132
130
126
127
128
128
128
128
128
129
128
124
119
121
119
117
116
116
115
117
117
99
96
96
96
123
120
119
119
119
122
123
121
116
114
114
112
110
111
107
93
89
94
100
104
106
106
108
112
117
122
126
122
119
112
105
99
92
88
90
91
91
91
90
90
90
91
94
98
91
84
96
107
110
111
112
115
117
115
113
113
111
103
105
103
90
77
91
103
82
62
75
125
166
185
186
185
185
185
187
186
184
183
187
176
115
41
52
65
78
76
75
70
67
67
63
58
53
51
52
52
51
49
50
50
51
50
49
47
47
45
45
45
44
42
40
38
35
34
37
40
40
41
46
46
41
45
55
57
51
48
49
51
58
61
54
52
60
68
75
77
71
66
69
57
59
78
78
69
68
85
76
69
90
83
61
80
77
100
79
83
93
101
83
71
71
83
87
80
71
64
70
66
70
72
64
59
59
58
56
58
60
58
52
51
48
44
51
71
65
44
43
53
55
45
25
40
48
39
38
34
27
25
26
26
24
22
20
19
17
16
17
17
17
17
17
17
17
17
16
14
14
14
16
16
16
16
16
16
16
16
17
17
18
18
18
18
19
19
20
20
20
21
22
22
21
21
22
22
22
22
20
20
20
23
24
24
25
25
27
27
31
32
34
36
40
41
43
44
46
46
41
52
52
42
46
58
57
46
30
60
39
23
40
47
63
93
77
46
55
60
35
30
40
60
90
90
106
128
152
148
146
149
155
153
142
136
144
155
165
166
159
151
150
149
146
148
155
157
155
153
155
155
156
156
157
157
158
158
160
160
161
161
161
161
162
162
161
158
157
156
156
157
156
152
167
95
34
43
52
66
73
68
65
65
63
59
55
50
46
50
58
66
64
51
53
65
77
67
65
69
54
58
56
54
74
91
98
105
118
101
87
99
104
127
156
156
141
126
92
88
106
106
156
132
125
132
108
115
101
94
87
85
100
97
63
65
57
68
84
91
94
92
93
94
90
88
88
85
85
85
84
84
74
82
76
59
70
70
70
69
72
80
80
77
83
85
80
87
94
81
76
91
96
92
88
84
82
82
81
79
77
76
75
74
60
37
50
54
63
81
64
56
59
71
71
60
61
75
80
81
84
80
77
90
91
85
77
65
64
78
83
77
79
85
57
51
42
42
47
49
51
55
61
68
81
91
93
88
83
81
79
79
81
84
61
64
56
41
43
44
51
62
64
63
63
69
78
80
79
85
98
100
94
96
98
98
92
87
87
87
87
86
87
86
86
90
90
87
88
86
86
90
90
90
86
92
93
105
88
90
90
78
75
86
87
85
85
85
88
94
93
102
99
83
95
103
110
106
90
88
99
99
85
77
80
90
104
90
90
102
93
99
97
87
95
102
119
123
125
124
124
124
124
124
124
124
124
124
125
125
125
125
126
125
126
130
133
131
132
132
131
126
128
129
129
129
128
128
129
128
123
116
116
117
117
117
117
115
116
114
100
93
98
109
124
115
116
119
119
122
125
124
120
116
113
109
104
101
96
90
93
100
103
105
105
104
102
102
102
104
101
101
102
98
97
95
98
93
91
91
91
91
90
90
90
88
87
91
89
82
84
95
107
110
110
112
122
118
111
112
112
103
86
100
101
87
83
91
93
82
83
65
100
160
185
186
184
185
186
186
184
183
184
180
135
55
49
59
71
78
77
69
65
67
65
60
56
52
51
52
51
49
49
49
50
48
48
47
47
45
45
45
44
42
41
40
36
35
39
40
39
40
43
44
42
47
54
55
49
47
49
55
61
61
56
52
53
54
59
63
64
65
65
74
64
45
93
85
70
76
83
73
89
73
82
89
69
80
86
79
72
72
97
99
86
66
97
86
72
63
83
66
63
71
75
69
67
64
59
56
60
64
64
53
48
55
59
54
51
62
46
43
53
55
40
24
19
25
23
28
33
38
42
33
21
14
14
15
16
16
16
15
15
17
17
17
17
17
16
14
14
14
16
16
16
16
16
16
16
16
17
17
18
18
18
18
19
19
20
20
20
21
22
22
20
20
21
22
22
22
20
19
21
21
23
23
25
25
27
28
32
33
35
38
43
44
46
46
48
48
36
47
47
36
29
40
40
28
27
36
16
23
57
28
63
142
162
119
122
133
54
27
64
143
148
142
150
166
162
156
147
145
148
150
150
150
150
151
152
151
154
153
151
150
152
152
150
150
151
151
153
154
155
156
157
157
158
158
160
160
161
161
161
161
161
162
161
157
156
155
154
154
154
151
167
105
47
46
53
64
72
68
65
64
62
58
53
48
49
59
67
66
56
44
53
76
78
57
50
59
86
93
98
99
84
88
53
58
104
98
79
90
100
125
137
126
134
145
95
83
127
117
114
132
134
141
118
125
118
101
94
101
122
107
68
75
59
79
91
88
76
94
91
77
87
89
89
82
83
85
84
84
74
82
76
57
70
70
74
64
66
76
81
80
83
85
81
77
77
80
84
86
84
83
87
87
85
83
78
76
75
75
74
69
57
43
52
51
59
81
68
55
61
72
71
64
66
78
82
82
86
81
74
86
90
83
77
72
78
87
90
74
70
72
50
46
38
38
43
46
49
51
56
58
65
75
76
69
67
71
79
83
85
85
67
67
59
51
48
53
56
61
63
63
62
67
79
83
83
88
103
101
94
96
99
98
92
92
92
87
85
85
86
84
84
91
91
80
80
91
91
80
92
97
83
94
93
91
79
83
84
75
80
94
101
104
102
90
90
101
98
101
97
85
91
93
95
95
91
92
95
93
87
85
93
103
110
92
86
93
88
95
94
84
92
93
120
125
125
124
124
124
123
123
123
123
123
123
124
124
124
124
125
125
126
131
132
130
130
133
132
128
129
130
130
130
130
130
128
129
124
111
101
102
102
105
110
117
116
110
102
91
93
114
117
116
119
121
121
121
123
123
122
121
115
108
99
95
93
93
92
96
98
99
99
98
97
94
92
92
91
92
93
92
92
95
96
94
91
91
91
91
90
89
89
88
86
86
89
84
83
87
95
97
100
106
116
117
112
111
112
108
96
96
97
95
92
92
97
92
82
71
62
86
144
165
188
189
172
177
184
187
181
187
150
61
50
48
60
77
79
67
64
68
65
62
57
53
52
52
51
49
48
47
47
47
47
46
46
47
46
46
44
43
43
41
37
35
37
38
40
41
43
44
44
46
52
52
48
44
47
50
53
53
54
54
58
58
58
58
60
65
67
69
62
58
70
70
70
70
68
82
85
73
73
68
68
75
80
87
90
90
104
99
90
85
84
84
84
84
73
75
63
75
80
73
68
67
63
60
58
58
60
59
57
57
53
45
46
64
48
44
47
55
72
44
31
42
28
28
33
33
20
19
19
18
14
15
15
14
14
14
16
16
17
18
18
17
15
15
15
15
15
15
15
15
17
17
17
17
18
18
19
19
18
18
19
19
19
19
19
21
23
22
21
20
21
22
23
22
22
22
23
24
24
25
26
27
28
29
33
35
35
38
41
41
43
46
47
48
48
50
50
51
45
47
33
11
25
21
22
22
21
27
55
160
142
148
156
161
137
142
148
152
155
155
155
155
153
153
153
154
153
153
153
154
153
150
148
148
150
150
150
150
152
152
152
151
151
151
153
154
155
157
159
159
160
160
160
160
161
161
160
160
161
160
157
156
154
154
153
150
151
155
158
124
59
48
56
69
71
67
62
58
58
56
52
49
53
70
74
60
50
44
57
79
66
29
50
74
59
59
79
108
159
91
99
84
69
83
88
99
99
109
127
138
135
141
131
113
149
121
126
98
134
164
126
111
110
114
93
110
125
67
94
70
74
86
69
82
72
100
89
81
85
74
88
81
83
86
66
73
74
70
77
55
48
88
77
71
67
72
77
77
81
90
89
77
75
81
88
86
80
80
86
87
85
83
78
72
73
78
77
66
55
49
51
50
58
73
68
61
62
69
72
71
71
74
79
79
77
74
74
80
82
80
76
81
83
85
84
77
72
64
47
42
35
35
41
44
50
52
57
62
64
69
73
73
74
76
81
86
86
84
75
68
61
54
49
56
56
58
62
63
63
63
75
84
83
85
97
96
95
102
110
95
88
95
99
90
84
83
83
81
81
84
84
78
75
81
81
87
97
98
85
94
94
80
73
83
87
85
84
91
94
105
103
91
92
101
95
93
93
88
87
87
90
91
91
93
93
88
87
98
103
105
103
92
90
92
88
93
94
88
87
83
116
123
124
123
123
123
121
121
121
121
123
123
124
124
124
124
125
124
126
131
132
126
128
132
131
128
128
130
130
130
130
130
128
131
126
108
84
73
72
79
96
113
117
108
103
89
89
112
112
120
122
121
121
121
122
122
122
121
116
109
98
95
96
96
91
88
88
88
88
87
86
88
94
95
93
91
92
92
92
92
93
93
91
91
91
91
90
89
89
88
87
86
88
87
86
86
87
87
86
90
99
107
115
118
118
118
100
100
100
99
95
91
95
94
86
79
69
67
88
110
130
152
200
182
178
186
191
178
151
103
57
50
58
72
78
69
65
67
64
61
56
53
52
52
51
49
47
46
46
46
46
46
46
46
46
46
44
44
44
42
39
35
35
37
40
43
44
44
45
46
50
50
45
43
45
47
47
47
49
53
59
60
57
54
54
54
72
69
62
58
70
70
70
70
91
71
62
66
85
77
83
95
77
80
88
91
93
92
88
86
84
84
84
84
73
74
70
70
70
66
63
62
63
63
60
56
58
65
65
57
44
30
38
62
52
56
50
47
64
57
44
37
34
32
29
26
21
19
19
18
16
15
16
15
15
15
18
18
18
18
19
17
15
15
15
15
15
15
15
15
17
17
17
17
18
18
19
19
18
18
19
19
19
19
21
19
21
20
22
21
21
21
23
22
22
23
25
27
26
27
29
31
30
30
33
35
35
36
41
43
47
49
50
50
48
48
47
47
56
62
52
33
23
21
21
21
26
34
83
156
147
150
153
156
144
148
155
157
157
155
155
155
154
154
154
154
153
153
152
152
152
151
152
151
150
149
150
150
151
152
153
153
152
153
154
155
155
157
159
159
160
160
160
160
161
161
161
160
160
158
154
154
153
153
151
153
152
148
157
158
68
53
61
68
68
65
58
54
53
51
50
52
58
71
68
53
49
49
59
77
66
53
71
64
39
33
34
41
73
54
97
112
90
91
80
78
97
100
110
127
121
131
127
112
150
139
141
130
114
137
123
112
109
120
99
110
97
80
101
98
91
103
87
99
102
116
92
81
85
74
88
79
81
86
66
73
74
70
79
54
51
84
76
73
72
72
72
74
83
90
90
87
86
90
93
91
89
91
93
87
83
82
79
75
74
81
80
66
54
50
50
50
56
65
65
56
55
61
72
75
71
64
71
78
71
67
73
76
77
77
76
72
68
71
75
80
77
62
47
42
38
42
47
51
57
60
65
69
71
74
80
83
86
86
87
86
81
77
75
70
64
55
46
48
53
57
61
65
65
63
73
78
70
70
86
96
102
103
95
84
88
98
101
93
84
81
79
78
75
74
74
74
75
75
77
80
84
78
86
109
108
79
75
87
85
88
86
92
85
92
97
91
88
91
87
81
83
85
87
92
98
101
101
101
95
86
86
95
99
94
88
87
92
94
90
93
98
98
92
88
112
118
123
122
123
123
122
121
121
121
123
123
123
123
123
124
125
124
126
131
131
124
124
130
130
125
128
130
130
130
130
130
129
132
127
114
86
66
62
64
79
108
119
106
105
87
89
112
110
117
122
121
121
121
122
122
122
121
116
110
101
99
96
95
91
89
87
89
89
88
86
88
94
96
93
91
92
92
92
92
94
94
92
92
92
93
92
91
91
89
88
88
88
87
87
87
87
85
84
84
85
95
111
117
115
113
112
111
108
108
101
90
92
97
88
86
85
82
72
77
81
106
100
170
201
177
178
195
180
120
65
53
55
64
71
76
72
64
61
62
57
55
53
53
52
50
48
47
48
48
48
48
47
47
47
47
47
45
45
43
41
36
35
35
41
43
45
45
46
48
50
49
45
44
46
47
48
47
46
48
53
56
56
54
54
54
72
69
62
58
72
70
70
70
91
70
58
62
88
81
84
102
80
75
80
84
83
83
86
87
85
84
83
83
79
73
75
64
62
68
71
62
59
63
67
53
53
54
54
58
51
33
35
55
60
58
56
44
48
58
57
38
42
35
26
19
20
19
19
18
17
15
16
16
18
20
20
20
22
22
22
20
18
17
17
17
16
16
16
16
17
17
18
18
18
18
19
19
19
19
19
19
19
19
21
21
20
21
24
23
24
23
24
24
24
25
27
29
31
32
34
34
34
33
35
35
35
36
41
43
47
48
48
47
45
44
42
40
53
63
60
46
21
21
22
22
33
42
125
149
156
152
150
146
145
148
156
158
156
155
156
156
155
155
154
154
155
155
154
153
152
152
152
151
150
149
150
150
151
153
154
154
154
154
154
157
158
159
160
160
161
161
161
161
162
162
162
161
160
155
154
154
153
153
153
155
151
132
161
166
76
66
68
63
59
59
60
55
51
50
54
63
65
62
54
48
48
49
59
78
44
75
103
73
41
63
88
98
48
51
74
87
97
94
76
69
87
97
99
109
119
134
137
128
120
132
129
141
124
132
149
144
103
126
105
110
81
108
100
114
105
116
100
112
106
115
88
86
85
74
88
78
82
87
66
74
75
70
81
53
58
78
70
76
74
72
72
77
85
85
85
91
94
93
90
89
92
98
96
83
77
80
82
80
75
81
80
66
54
50
50
49
52
60
60
51
49
57
67
71
69
66
64
66
62
62
67
72
76
76
76
72
68
71
75
80
77
62
47
42
38
42
47
51
57
60
65
64
58
56
62
66
69
69
68
67
65
65
68
69
64
55
46
48
53
55
60
67
70
65
71
77
76
80
94
111
121
120
98
91
85
77
74
78
80
80
81
83
84
85
88
90
92
93
95
90
81
80
93
108
103
80
80
83
78
85
85
97
87
81
85
92
91
87
90
83
84
92
98
102
102
105
105
104
95
88
88
92
90
88
90
90
92
91
92
91
93
93
94
94
102
110
121
124
124
124
123
121
121
121
123
121
121
121
122
122
124
124
125
129
130
124
122
126
126
124
126
129
129
129
130
130
128
128
125
121
98
79
73
64
70
101
116
106
105
83
87
112
109
115
119
121
121
121
121
121
121
121
116
110
103
102
100
97
90
89
91
95
97
96
97
96
93
89
88
87
87
88
91
92
94
93
92
92
92
92
92
91
91
89
88
88
88
87
87
87
88
88
87
87
89
92
100
108
111
110
111
111
112
111
107
94
91
95
90
91
97
98
78
76
76
83
80
86
120
176
188
183
171
143
71
55
51
58
67
79
76
62
61
62
57
55
53
53
52
50
48
47
48
48
48
48
47
47
47
47
47
46
45
43
41
37
35
35
39
41
43
43
44
46
47
46
44
44
46
47
48
47
45
47
51
58
61
61
59
57
72
66
62
58
73
70
70
68
64
76
76
64
76
69
73
88
81
80
78
77
75
76
83
86
87
81
83
83
80
70
73
66
68
77
85
71
61
59
65
59
53
41
38
52
62
57
45
34
58
58
55
48
36
53
58
44
48
37
27
13
20
19
19
18
17
15
18
18
21
22
24
23
23
22
22
20
18
17
17
17
16
16
16
16
17
17
18
18
18
18
19
18
19
19
19
19
19
19
21
19
19
20
25
27
25
23
24
24
24
26
29
30
32
33
34
35
33
32
33
33
34
34
40
40
42
42
43
42
42
42
40
39
42
54
57
46
21
21
19
24
37
48
153
145
161
153
148
141
145
150
155
157
156
155
156
156
155
155
155
155
155
155
154
153
152
152
152
151
150
149
150
150
151
153
154
154
154
154
154
158
159
160
161
161
161
161
162
161
162
161
160
158
159
157
155
154
153
153
153
153
150
135
157
142
77
71
70
56
51
56
59
55
53
55
63
69
69
57
45
45
50
51
60
78
66
101
110
53
36
72
101
106
45
62
70
78
88
90
80
79
80
85
97
99
129
149
158
151
121
149
146
173
124
97
139
146
109
121
111
116
86
134
93
108
106
118
101
113
87
98
80
86
85
74
89
80
80
87
67
72
75
69
81
53
58
73
67
80
76
72
73
78
85
83
83
90
90
86
80
81
87
91
85
76
76
79
82
80
75
80
79
66
54
50
49
48
50
57
57
52
55
60
62
62
69
74
67
57
58
65
69
71
75
75
75
80
86
85
79
79
75
61
46
40
32
32
39
43
49
52
57
60
61
63
68
73
76
77
76
69
61
57
58
57
54
50
50
55
54
54
59
67
71
67
69
71
72
79
83
94
106
106
93
98
95
83
78
83
81
77
75
78
77
77
78
80
80
80
83
84
90
109
108
85
79
86
81
78
80
79
70
92
91
79
78
81
84
90
94
95
98
98
104
106
99
97
97
97
92
90
88
91
88
92
93
93
93
90
90
90
87
86
90
92
88
96
111
121
124
125
123
123
123
122
123
122
120
119
121
121
124
123
125
127
127
125
123
124
124
123
125
129
129
129
129
129
127
125
121
118
100
82
74
64
70
98
113
107
104
79
82
112
108
111
115
118
118
117
118
116
115
114
114
112
107
107
110
107
97
94
96
97
97
96
97
97
96
93
90
87
86
86
87
90
93
92
91
90
90
90
90
90
89
89
89
88
88
88
88
88
88
88
89
88
89
87
91
98
105
110
115
116
116
118
115
109
106
108
96
94
94
97
94
82
81
84
110
73
62
95
145
187
188
163
81
56
48
46
51
65
77
70
64
63
58
56
54
54
54
51
50
49
49
49
48
48
48
48
48
48
47
47
45
44
42
38
36
36
38
40
41
41
41
42
45
45
44
44
47
47
48
49
49
49
51
56
61
61
59
56
60
61
65
74
75
87
80
66
51
70
84
86
80
69
69
80
89
86
79
74
72
70
72
80
86
77
73
85
77
65
69
74
73
76
87
79
66
56
63
66
63
50
40
46
53
59
49
31
46
50
55
60
48
34
34
47
53
41
30
35
20
18
18
16
17
16
17
16
20
20
24
24
23
23
23
21
19
18
18
18
17
17
17
17
18
18
18
18
19
19
20
20
19
19
20
20
21
21
21
21
21
21
25
27
25
24
26
26
25
25
26
27
30
31
32
32
32
32
33
33
33
33
36
37
38
39
40
40
40
40
40
40
33
45
59
59
32
18
16
29
12
91
149
144
152
152
151
152
150
152
155
157
156
156
156
156
156
156
157
157
155
155
154
154
152
151
150
150
150
150
151
151
151
151
154
154
154
154
158
159
161
161
162
162
162
162
163
162
163
162
161
161
159
158
157
155
154
153
153
154
150
149
142
98
72
62
65
49
46
50
54
54
56
60
65
72
72
56
41
44
51
51
62
78
94
96
67
25
32
53
61
52
22
76
111
110
107
77
84
91
92
80
84
112
107
167
165
166
126
131
131
181
117
97
111
128
124
118
156
110
89
94
94
90
144
137
130
123
114
111
106
108
88
90
73
84
79
67
83
74
76
69
81
71
55
71
69
78
75
75
79
79
85
85
85
88
88
84
82
84
88
89
83
82
81
81
80
76
73
78
78
66
55
51
48
46
49
55
55
51
54
61
62
59
67
81
76
62
62
69
71
73
74
74
76
84
90
81
71
71
69
60
48
40
34
29
34
39
44
49
52
57
61
63
68
72
77
76
73
67
62
60
56
52
51
51
52
52
51
53
58
65
68
66
67
68
73
82
83
92
102
99
91
96
93
84
81
85
81
71
68
73
73
73
77
79
78
72
77
83
94
112
101
77
73
84
80
80
84
75
64
87
87
78
79
77
79
85
92
98
101
95
97
101
97
91
91
88
91
91
91
85
86
91
94
92
88
86
87
91
86
84
88
92
82
88
101
112
119
124
123
123
124
123
124
122
120
119
121
121
123
123
124
125
126
125
123
125
125
125
125
126
126
128
129
128
127
126
120
114
101
86
77
72
85
106
111
108
105
79
82
110
107
108
111
115
115
114
114
112
111
111
112
110
108
112
121
120
111
109
108
102
91
91
91
93
94
96
96
93
91
87
86
87
91
92
90
89
89
89
90
90
89
89
89
88
88
88
88
88
88
88
88
88
88
85
80
83
93
98
107
115
116
111
111
112
110
108
103
97
92
94
98
87
81
83
71
105
100
58
48
140
184
169
96
58
44
48
45
59
72
71
69
65
61
57
54
54
54
51
50
49
49
49
48
48
48
48
48
48
46
46
45
44
42
39
38
36
37
38
39
39
41
42
44
42
42
45
48
49
48
48
54
54
51
51
50
54
59
62
56
58
71
77
77
87
80
65
72
64
62
65
87
76
76
87
89
86
79
75
72
72
69
72
81
76
74
85
78
65
65
72
72
68
76
79
72
59
61
64
64
66
58
39
32
42
53
56
41
46
51
56
44
37
37
42
39
30
31
33
29
20
18
19
18
18
18
19
21
21
24
24
23
23
24
22
20
19
18
18
18
18
17
17
18
18
18
18
19
19
20
20
19
19
20
20
21
21
21
21
22
22
25
27
25
25
27
27
26
25
28
28
30
29
31
31
31
31
32
32
32
31
33
31
32
32
33
33
35
36
37
38
33
40
55
60
34
11
19
30
35
114
151
149
152
151
152
152
153
155
157
157
156
156
156
156
157
157
157
157
157
157
154
154
152
151
150
150
150
150
151
151
151
151
154
154
154
155
161
161
162
162
163
163
163
163
164
163
163
162
161
161
159
159
158
156
155
153
154
155
147
160
117
60
68
52
57
45
43
44
48
51
56
59
63
68
69
57
42
39
44
48
60
79
85
103
96
69
42
28
32
51
39
84
121
122
109
81
86
77
82
81
88
97
114
150
151
148
97
97
110
148
125
119
124
142
142
123
139
102
120
114
114
120
162
151
133
121
140
131
119
103
98
98
76
84
83
72
88
77
77
68
82
71
56
73
69
78
75
77
84
81
84
87
87
90
91
93
94
94
91
89
84
83
84
83
79
72
71
75
76
67
59
55
50
49
52
55
55
48
46
57
68
63
64
73
78
69
65
65
68
71
74
77
80
81
74
60
52
58
63
61
53
46
38
32
33
37
43
48
52
55
55
56
61
64
63
61
56
53
61
67
65
61
58
54
52
51
48
52
56
62
66
66
67
71
78
90
92
98
102
98
90
89
83
78
77
81
79
71
68
73
77
80
86
86
79
70
75
95
106
97
77
77
74
70
78
91
94
85
77
88
81
78
88
90
84
83
88
94
97
91
91
95
94
88
90
86
88
92
92
85
85
91
94
90
86
83
84
88
86
85
88
92
82
83
89
100
113
121
124
124
124
126
125
125
121
120
123
123
123
123
124
124
125
125
124
124
125
125
126
126
128
126
128
128
127
130
126
117
107
103
99
98
103
109
106
108
108
83
84
109
105
102
107
110
110
109
109
109
109
109
108
108
110
114
121
122
120
121
118
110
95
89
84
85
87
89
93
95
97
91
89
87
89
90
90
89
89
89
90
90
89
89
89
89
88
88
87
87
87
87
86
86
87
84
83
80
83
91
89
112
115
98
100
110
113
109
108
105
97
92
102
94
82
81
56
79
97
102
60
44
102
180
117
62
41
53
37
55
72
76
70
64
61
59
56
56
54
53
51
50
50
50
49
48
48
48
47
47
46
45
45
44
43
42
40
38
35
34
35
38
42
45
47
40
39
42
45
47
55
50
53
57
54
50
50
54
59
62
54
64
73
77
79
87
80
65
80
80
71
57
81
69
69
81
85
81
74
71
70
72
72
69
74
70
76
86
86
69
62
66
67
61
66
79
81
70
61
59
59
68
66
51
39
38
48
62
35
40
46
51
37
44
44
37
23
25
26
26
32
29
20
20
19
20
21
21
23
21
24
24
24
24
25
23
23
22
20
20
19
19
18
18
19
19
20
20
20
20
21
21
20
20
20
20
19
19
21
21
22
22
25
27
26
26
29
29
28
29
31
31
30
30
30
30
30
30
31
31
31
31
30
28
28
27
26
26
28
30
30
31
33
34
52
62
38
3
28
27
67
148
156
155
152
151
152
152
153
153
157
157
157
157
158
158
159
159
159
159
158
158
155
154
151
151
150
150
151
151
153
153
151
151
153
154
157
161
162
163
163
163
166
166
166
166
166
165
164
162
162
161
161
160
160
157
157
155
155
155
143
122
92
63
55
48
51
50
49
49
53
54
57
59
63
64
62
57
42
30
32
41
58
81
94
122
127
110
61
29
26
53
96
108
106
94
94
82
97
77
61
76
87
85
112
126
152
155
123
109
126
133
146
152
134
144
146
125
123
112
127
107
107
127
147
140
130
123
149
137
119
106
102
108
84
86
89
79
93
83
78
68
84
71
64
77
65
76
79
79
78
83
86
87
85
90
91
93
94
94
91
88
84
84
84
83
79
72
69
74
74
69
62
60
56
53
53
55
55
48
46
57
68
62
58
62
69
67
66
65
67
67
72
73
76
76
68
57
54
63
65
63
61
56
45
36
30
35
39
45
50
56
63
68
72
76
72
74
69
62
63
67
65
61
58
54
52
51
48
51
54
61
66
66
67
67
69
77
80
82
82
85
77
73
76
80
80
80
85
91
90
80
70
68
74
78
78
72
77
99
110
90
68
77
77
72
77
90
94
92
88
93
85
84
94
97
90
85
86
92
97
91
91
95
92
88
92
86
87
94
94
86
84
91
93
90
86
80
78
83
84
85
88
92
82
81
82
89
104
119
124
124
125
126
126
125
125
123
123
123
123
123
124
124
125
125
124
124
125
125
126
126
128
126
128
126
126
129
127
119
114
119
117
113
109
103
101
109
109
89
88
110
107
102
104
108
107
107
107
107
107
107
107
108
110
113
113
114
116
117
113
104
94
87
82
81
82
83
85
89
91
92
91
89
87
87
89
89
89
89
90
90
90
89
89
89
88
88
87
87
87
87
86
86
87
87
88
87
87
89
81
102
107
94
89
99
110
113
109
105
101
97
100
98
88
82
92
75
73
90
85
64
64
88
131
68
40
54
38
49
67
73
72
65
61
59
57
54
54
51
51
50
50
50
49
48
48
48
47
47
46
45
45
44
43
42
40
38
35
33
34
37
41
45
48
43
38
36
41
48
54
49
51
55
56
56
57
57
54
52
58
67
77
83
88
95
88
75
79
100
98
69
69
60
61
71
77
73
67
65
64
67
66
66
69
64
70
84
88
71
60
64
61
64
59
72
80
81
65
54
59
60
62
72
66
44
34
39
30
35
42
46
34
48
48
35
21
22
22
22
27
32
29
23
23
20
21
23
25
24
24
24
24
24
25
23
23
22
20
20
19
19
18
18
19
19
20
20
20
20
21
21
20
20
20
21
19
19
21
21
22
22
25
27
26
26
29
30
31
31
32
32
31
30
30
30
30
30
31
31
31
29
31
29
29
28
28
27
28
29
28
28
31
33
45
58
39
1
33
24
88
171
157
160
151
151
152
152
153
153
157
157
157
157
158
158
159
159
159
159
158
158
155
153
151
151
150
150
151
151
153
153
151
151
154
156
159
161
161
163
164
165
166
165
165
165
165
166
164
162
163
161
161
158
160
157
156
155
156
156
135
83
60
61
61
44
54
55
60
62
63
62
62
62
62
62
58
53
37
23
22
34
57
85
115
140
143
124
118
97
89
99
111
107
102
102
66
79
110
87
58
75
80
71
87
96
155
171
137
124
125
92
155
182
156
133
132
119
119
135
106
77
77
106
107
114
123
132
139
134
124
117
104
112
94
94
93
83
98
88
78
68
85
71
70
79
63
77
79
81
76
88
94
92
82
88
87
87
87
87
88
88
84
84
84
83
77
72
69
73
73
71
67
62
58
56
52
51
53
52
54
61
62
55
55
62
64
62
65
71
74
69
66
64
63
70
75
73
74
77
71
67
64
61
48
37
32
32
37
43
48
52
58
61
63
68
70
74
71
66
64
62
54
52
54
52
48
47
48
51
54
60
66
67
70
72
76
85
85
85
91
98
91
82
80
80
77
72
72
79
80
73
72
73
78
84
87
83
87
97
94
87
83
80
81
83
81
83
85
87
83
94
94
91
92
93
88
87
85
93
101
101
98
97
92
91
93
84
83
91
90
87
85
92
93
90
86
77
73
81
85
81
87
93
83
82
81
82
95
111
120
122
124
126
126
126
125
125
123
123
124
124
125
125
125
125
125
125
125
125
126
126
126
126
126
126
126
125
124
119
119
124
123
119
112
106
105
110
106
92
89
107
107
101
101
105
105
105
105
105
105
105
105
108
111
114
111
111
112
115
112
100
94
87
84
85
86
87
85
87
89
91
90
89
87
87
89
89
89
89
90
90
89
89
88
88
88
87
87
85
87
87
86
86
87
86
87
87
85
88
83
91
94
92
90
90
102
109
109
101
99
102
103
101
94
89
88
86
77
67
94
105
86
45
66
72
70
52
43
37
45
61
70
70
67
62
57
54
54
53
51
51
51
49
48
48
47
46
46
46
45
45
44
44
44
42
41
37
35
33
33
36
41
44
47
41
37
34
41
54
53
48
49
52
55
56
60
57
51
54
60
67
73
81
88
95
91
84
83
94
93
77
68
64
68
73
71
66
62
62
62
62
58
59
61
61
64
74
80
67
59
64
77
67
63
66
73
56
64
49
59
66
59
44
73
59
44
42
66
52
32
18
14
20
28
31
29
23
22
22
31
2
10
37
32
19
20
26
25
24
25
25
25
25
25
24
23
22
22
22
19
19
19
19
20
20
20
20
21
21
21
21
21
21
19
20
21
21
21
21
23
23
25
25
26
27
30
30
31
31
31
30
30
30
30
29
29
29
31
29
29
29
29
29
28
27
26
27
27
26
26
26
31
29
39
54
42
32
16
67
140
165
146
148
152
151
152
152
153
154
155
155
156
158
159
159
159
159
158
158
158
158
155
153
151
150
152
152
151
151
153
153
152
153
156
159
160
160
162
163
165
166
166
166
165
165
166
165
172
166
156
149
159
155
148
148
162
161
155
131
78
56
59
59
57
44
47
64
67
66
65
64
62
61
60
61
56
44
32
24
24
34
54
81
119
117
107
88
87
96
109
119
107
72
49
63
99
98
90
65
54
69
88
78
69
64
112
185
147
150
138
118
103
176
189
134
121
109
127
113
94
110
79
117
111
71
146
139
143
135
108
77
130
153
118
87
109
84
84
109
91
91
87
91
74
86
86
71
77
94
76
87
96
91
79
86
88
88
88
84
86
87
85
84
83
80
78
73
70
72
72
71
72
64
59
59
52
51
54
57
60
61
60
57
58
62
62
59
64
71
72
69
66
63
60
66
74
78
81
77
71
68
67
61
46
34
30
31
35
41
45
51
55
56
56
60
66
67
69
67
67
60
48
49
53
50
47
49
50
51
54
59
64
70
73
75
75
85
86
84
90
96
89
82
79
78
77
74
74
78
80
78
77
73
74
84
87
80
83
87
84
83
85
81
83
84
79
77
80
85
87
92
94
92
91
86
85
86
86
87
94
101
99
91
90
92
95
84
81
88
84
86
86
92
91
88
85
77
75
85
88
75
86
92
83
84
82
79
88
103
113
118
123
124
126
125
125
125
123
123
124
124
125
125
125
125
125
125
125
125
126
126
126
126
126
125
125
122
122
121
120
122
126
124
119
113
110
110
104
90
85
105
107
103
101
104
105
105
105
104
107
105
105
108
111
115
114
112
112
114
112
98
91
88
87
87
88
88
87
87
89
91
89
89
87
89
89
89
89
89
90
90
89
88
88
88
88
87
87
85
87
87
86
86
86
85
85
84
84
85
85
86
89
89
92
91
89
101
104
99
97
104
106
103
101
99
97
90
77
75
85
101
98
78
71
71
65
55
48
40
38
49
62
76
75
63
60
56
54
53
51
51
51
49
48
48
46
46
46
46
45
45
44
44
44
42
41
37
35
33
34
36
38
42
45
40
37
33
39
54
52
47
49
50
51
53
56
54
54
58
59
57
55
56
64
70
70
70
73
74
77
73
69
69
75
73
64
55
57
60
62
62
59
58
59
60
62
64
65
60
58
63
67
64
56
60
67
54
66
53
59
66
59
44
68
66
52
43
45
44
41
39
46
40
31
24
31
25
22
22
37
16
25
49
42
22
19
26
25
25
25
25
25
25
25
24
23
22
22
22
19
19
19
19
20
20
20
20
21
21
21
21
21
21
21
21
24
24
24
24
24
24
25
25
26
27
30
30
31
30
31
30
30
29
30
29
29
29
31
29
29
28
29
28
26
25
25
26
27
26
26
26
32
28
36
53
50
7
45
107
153
148
140
153
154
151
152
152
153
154
155
155
156
158
159
158
159
159
158
158
158
157
152
151
151
150
152
152
151
151
153
153
152
155
159
162
162
162
164
163
165
166
166
166
165
165
166
165
143
154
168
179
153
160
163
161
170
158
125
82
53
52
55
53
54
51
57
64
64
62
62
62
60
60
60
61
56
42
34
37
40
40
52
68
71
82
84
85
92
83
71
63
62
72
94
114
120
98
71
48
69
65
59
51
53
65
84
113
168
115
91
109
109
134
134
109
124
119
97
111
123
125
61
78
107
61
122
139
135
108
95
98
105
132
113
103
117
99
99
116
91
91
88
91
86
98
98
84
83
99
77
76
80
78
78
86
89
90
90
84
85
87
85
82
78
78
80
79
72
71
71
72
73
63
59
61
57
58
62
64
62
60
60
59
56
58
64
71
74
66
61
68
71
70
67
63
67
75
74
71
64
64
69
64
45
30
30
32
35
37
43
49
52
55
57
60
63
58
57
64
67
59
45
46
48
46
46
51
54
54
55
56
61
68
72
71
67
78
89
87
87
87
85
83
83
83
84
84
85
86
87
85
75
63
63
74
77
67
68
75
77
74
74
77
79
79
75
73
79
88
90
87
87
87
87
83
81
85
86
77
68
72
77
79
84
87
98
92
91
98
85
87
88
91
88
86
85
81
84
88
88
78
85
87
83
84
84
77
80
91
103
113
119
123
126
126
125
125
124
124
124
124
125
125
125
125
125
125
125
125
126
126
126
125
125
125
124
121
121
119
119
122
126
124
119
112
106
107
98
85
81
100
107
101
99
100
101
101
104
105
107
105
104
108
111
112
112
113
114
115
112
98
90
88
87
87
88
88
87
87
89
90
89
89
89
89
89
89
89
89
90
89
88
88
88
88
88
87
85
84
85
85
86
86
87
85
85
84
84
84
84
84
84
86
90
95
91
92
95
95
98
104
104
103
105
108
106
98
86
79
78
85
88
86
77
66
60
62
50
41
30
38
49
72
82
65
63
61
56
53
51
51
51
50
48
47
46
46
45
45
44
44
44
44
44
44
43
40
37
34
34
36
37
41
44
40
36
28
32
48
53
47
44
48
48
50
54
51
55
67
71
69
66
64
68
73
72
74
84
88
88
79
62
57
62
62
59
57
61
65
66
66
62
62
57
57
57
54
53
58
60
61
64
61
53
58
59
51
69
61
60
66
59
44
55
74
59
44
38
41
45
47
54
44
27
16
32
28
22
22
30
19
31
50
47
30
21
25
25
25
25
25
25
25
25
24
24
23
22
22
21
21
21
21
21
21
21
21
22
22
23
23
21
22
23
24
25
26
26
25
24
23
25
26
27
28
30
30
30
30
30
29
29
29
29
27
28
28
29
28
28
29
29
28
27
26
26
27
26
26
26
26
33
27
36
53
37
8
78
161
156
140
148
153
152
152
152
152
153
153
155
155
156
157
159
159
159
159
160
158
158
153
151
151
150
150
152
152
153
153
154
154
155
159
162
162
162
164
165
165
166
166
167
168
166
166
166
165
164
162
160
158
148
163
159
140
124
98
59
32
49
49
50
53
51
64
66
59
57
57
59
59
59
59
61
60
54
44
42
51
54
48
44
51
40
50
72
90
100
91
80
71
73
93
113
115
89
72
51
45
90
80
59
65
69
90
92
101
143
91
66
84
98
96
96
98
93
92
97
141
55
77
143
99
83
62
106
123
108
94
98
110
91
110
98
105
111
106
106
111
91
91
90
91
86
98
98
86
81
86
80
78
75
70
85
84
85
90
90
84
85
85
85
85
83
80
78
74
70
70
70
72
71
63
59
61
57
58
62
64
62
60
60
57
52
56
66
76
75
66
61
67
71
76
71
71
73
68
66
66
64
64
69
63
43
29
31
36
36
35
41
44
49
53
60
65
65
59
54
57
62
54
45
46
49
46
46
51
54
54
54
55
57
63
67
67
65
78
89
85
83
85
87
84
74
70
70
70
70
70
70
73
77
71
71
81
84
74
75
81
78
74
75
75
75
74
73
73
79
84
81
81
83
81
81
80
81
80
77
78
74
73
80
86
85
84
97
88
91
97
83
88
93
93
87
79
75
78
83
83
81
87
84
83
83
85
86
79
79
85
92
102
112
119
123
124
125
125
124
124
124
124
125
125
125
125
125
125
125
125
125
125
125
125
125
124
121
119
118
118
118
119
118
115
110
104
101
105
93
84
81
98
105
103
100
98
100
101
103
104
107
105
104
108
111
110
110
113
114
114
110
96
87
85
83
85
86
88
86
88
87
88
89
89
89
89
89
89
89
89
89
88
88
88
88
87
87
85
84
84
85
85
86
86
87
86
85
84
84
84
82
82
84
86
86
90
94
91
90
88
95
103
103
102
105
109
114
105
95
87
76
69
65
65
81
61
55
65
54
44
33
31
36
60
76
69
65
60
60
56
52
51
51
50
48
47
46
46
45
45
44
44
44
44
44
44
43
40
36
34
35
35
35
38
41
40
34
24
26
42
50
46
43
45
48
49
51
54
60
65
63
61
66
71
75
77
73
72
75
78
79
77
73
74
80
75
68
68
71
69
69
71
67
64
58
57
56
51
50
58
63
61
63
63
52
57
53
48
71
67
61
66
58
44
48
68
62
53
48
45
40
38
33
28
20
14
25
32
26
22
13
11
20
41
52
38
24
24
23
25
25
25
25
25
25
24
24
23
22
22
21
21
21
21
21
21
21
21
21
21
21
21
21
22
23
25
25
25
26
26
25
24
25
26
27
28
30
30
30
29
27
27
27
27
27
27
27
27
28
28
28
28
28
27
27
26
26
26
26
26
26
26
34
28
36
53
19
46
122
170
148
146
164
146
147
152
152
152
151
151
154
154
155
155
157
157
158
156
156
155
155
153
152
150
149
150
152
152
153
153
155
156
157
160
162
162
163
164
165
165
166
166
167
167
166
166
166
166
164
162
159
157
149
161
140
100
77
51
40
45
46
43
50
54
54
70
70
57
55
53
56
56
57
58
61
60
57
48
48
56
54
46
36
31
40
31
39
61
67
77
88
98
100
106
92
70
61
58
53
51
61
62
51
62
63
82
87
105
87
91
78
58
74
87
100
103
110
70
99
125
75
154
213
119
54
76
108
98
77
98
108
105
95
102
80
92
96
99
99
94
92
91
91
91
74
86
86
74
74
76
81
84
82
77
92
84
82
88
88
84
84
85
85
91
93
85
70
64
66
69
68
68
67
62
55
60
54
46
59
60
61
60
61
60
57
59
64
64
62
67
69
68
69
70
76
87
86
72
60
58
63
64
61
53
37
29
32
39
40
37
41
44
46
50
58
67
66
63
57
54
53
52
54
60
62
54
46
48
50
50
51
52
55
59
64
66
68
80
85
79
78
80
83
85
84
79
78
78
77
75
75
75
70
58
57
68
71
60
61
73
83
83
80
80
78
73
67
70
78
80
77
77
77
78
78
80
78
74
79
86
85
73
77
90
90
84
91
77
77
86
79
90
95
93
86
74
70
72
77
78
77
92
80
81
86
86
86
84
81
83
86
93
103
112
117
121
125
125
125
122
123
123
123
123
123
123
125
125
123
123
125
125
124
124
125
123
121
117
115
115
115
116
115
111
106
101
97
104
92
87
84
97
104
104
101
99
100
100
102
102
102
101
103
108
111
107
108
114
115
111
107
93
84
82
81
85
88
89
88
87
88
88
87
88
89
89
89
89
89
89
89
88
88
87
87
87
87
84
84
83
84
84
84
84
85
85
85
85
85
82
81
81
84
85
87
86
92
91
90
88
92
102
103
101
100
101
105
108
105
99
90
81
76
74
46
37
45
66
61
58
50
36
33
43
63
71
69
59
58
60
56
52
51
50
49
47
47
47
45
45
45
45
45
45
45
44
44
41
37
34
34
34
34
36
41
38
33
23
20
36
49
44
44
45
48
50
52
55
59
62
60
60
66
73
73
72
68
70
74
78
78
79
80
80
81
75
71
72
72
67
65
72
75
67
69
67
64
60
58
63
65
63
63
66
46
51
68
52
59
42
63
55
57
67
49
47
60
62
43
43
43
43
29
24
19
16
38
32
26
21
11
21
40
56
56
44
28
21
22
24
25
24
25
25
25
25
24
24
24
24
22
22
21
21
21
21
21
21
21
21
21
21
21
21
21
21
24
24
25
25
24
24
25
26
29
30
31
30
29
29
27
27
27
27
26
26
27
27
28
29
29
29
29
28
27
26
26
26
27
27
27
27
35
30
36
46
28
110
161
156
155
152
151
153
152
152
153
152
153
153
152
152
154
154
156
156
156
156
156
158
155
154
154
150
150
150
152
152
152
152
154
155
157
163
163
164
165
165
165
166
166
167
167
168
150
165
172
165
156
150
159
176
152
118
85
59
64
53
53
54
68
52
52
67
59
61
60
58
55
55
56
56
56
58
62
65
62
56
54
53
50
43
35
28
53
47
39
33
35
44
59
68
64
58
51
57
40
47
60
78
60
60
62
58
60
62
100
97
85
78
61
44
75
100
102
80
85
91
92
86
126
208
161
120
70
69
114
86
92
79
110
83
95
98
79
98
96
86
99
85
105
99
92
86
86
94
88
81
78
73
83
84
83
83
96
83
80
87
87
83
83
84
84
90
92
79
65
65
70
71
65
61
64
60
50
62
57
37
60
57
57
58
60
60
62
62
62
58
57
64
68
68
70
70
76
84
83
73
63
58
60
58
53
47
36
29
32
37
40
41
45
49
50
50
56
63
65
63
58
53
53
54
59
63
65
58
48
47
48
49
50
51
55
61
67
68
68
78
84
79
78
78
77
84
88
83
79
81
81
80
80
80
73
60
54
65
66
57
58
72
84
84
78
77
77
73
66
71
78
78
73
72
73
74
74
71
73
75
86
91
85
70
72
85
87
78
86
75
74
83
78
90
93
90
84
77
75
77
80
81
80
90
79
85
90
86
82
82
81
78
82
86
92
103
111
116
122
124
124
122
123
123
123
123
123
123
125
125
123
123
124
124
123
124
125
123
119
114
113
114
114
114
115
112
108
101
98
104
93
92
88
98
101
104
103
100
99
98
97
94
93
94
100
110
111
105
106
114
114
109
102
90
84
84
86
88
94
96
92
87
86
87
88
87
89
89
89
89
89
89
89
88
88
87
87
86
84
82
83
83
84
84
84
84
85
85
85
85
85
82
80
80
84
86
87
86
87
91
91
90
90
97
101
99
94
89
102
108
109
104
96
85
78
75
75
63
54
54
55
58
61
55
43
35
43
65
71
62
57
63
60
53
51
50
50
48
47
47
46
45
45
45
45
45
45
44
44
42
37
34
34
33
33
36
40
39
31
21
19
34
48
44
44
45
48
50
52
53
56
57
63
70
73
71
65
64
70
77
87
91
91
90
82
75
69
69
68
69
68
62
59
66
72
71
79
79
74
72
72
73
73
73
62
70
53
61
77
64
76
63
64
56
56
67
50
44
55
63
40
40
40
41
43
41
36
32
31
28
22
18
7
25
44
52
52
43
30
24
22
24
25
25
25
25
25
25
24
24
24
24
22
22
21
21
21
21
21
21
20
20
19
19
21
21
21
21
23
23
24
24
24
24
25
25
27
28
30
29
28
27
26
26
27
27
26
26
26
26
28
28
28
27
28
27
27
26
26
26
27
27
27
27
37
24
30
50
100
150
159
158
164
146
145
158
159
153
154
154
155
155
155
155
156
156
156
156
156
156
155
155
154
155
157
155
155
151
152
152
153
153
154
155
157
163
163
164
165
165
165
166
166
167
168
168
176
161
155
162
152
159
152
136
84
68
53
55
52
53
53
55
68
62
61
65
63
60
59
59
58
58
57
57
58
61
67
70
67
63
58
53
50
49
46
44
67
65
61
59
44
42
39
38
44
51
56
57
42
48
65
84
65
62
59
57
84
85
99
95
74
67
64
64
78
85
94
102
74
71
114
94
88
116
100
123
73
62
92
88
100
68
103
90
91
95
83
99
107
97
108
94
89
86
83
81
86
94
88
79
82
77
91
92
89
84
90
76
77
85
85
83
83
84
84
85
80
70
67
72
78
74
61
57
62
63
50
66
58
30
58
52
52
54
59
62
67
65
58
57
59
61
64
67
73
78
74
65
64
67
70
68
62
55
50
46
36
28
32
35
37
41
47
52
56
55
57
62
64
65
62
57
56
55
50
49
51
48
45
48
50
50
50
52
59
66
73
75
74
79
79
74
79
83
81
84
86
78
73
79
80
80
80
85
86
75
68
73
73
68
70
75
78
77
74
75
80
80
74
75
77
74
72
71
73
74
74
73
74
77
83
88
87
79
74
75
77
70
84
79
79
87
81
88
86
80
78
80
85
84
83
86
86
84
79
85
95
91
87
82
82
82
80
83
86
94
106
112
116
121
123
123
123
122
124
124
124
124
125
125
124
124
124
124
123
124
125
123
118
113
112
112
112
114
115
112
108
102
102
108
98
97
90
98
97
104
105
101
98
98
97
94
93
94
100
111
111
103
106
116
115
106
98
88
88
91
95
100
104
105
102
95
91
88
88
89
89
89
89
89
89
89
89
89
88
86
85
84
84
82
82
82
84
84
84
84
85
85
86
86
85
82
78
79
84
86
88
87
87
88
89
89
88
91
96
94
88
85
90
110
113
108
106
90
81
76
96
90
75
57
51
52
55
60
56
45
35
44
60
67
62
67
63
54
52
53
52
50
47
47
47
47
46
46
46
46
46
46
46
43
40
36
35
34
33
36
39
39
32
21
19
34
47
44
44
47
48
50
55
55
53
49
48
55
63
62
61
64
70
73
73
73
75
77
79
78
78
75
75
71
66
60
58
56
62
72
78
76
71
70
73
76
76
76
62
75
63
76
77
69
86
79
67
56
56
68
54
46
58
60
33
33
33
33
51
47
41
37
27
23
17
12
1
32
51
47
46
41
34
28
26
25
25
25
25
25
25
25
24
24
24
24
22
22
22
22
21
21
21
21
20
20
19
19
21
21
21
21
23
23
24
24
24
24
25
25
25
25
26
26
26
26
26
26
26
26
26
26
26
26
27
28
27
26
28
27
27
27
27
27
27
27
27
27
32
20
47
93
159
154
156
164
157
152
151
156
158
158
158
158
158
158
158
159
159
159
159
159
159
159
159
159
158
158
157
157
157
155
155
153
154
154
156
155
158
163
163
164
166
166
166
167
167
168
168
168
176
161
155
162
165
146
102
62
48
49
54
55
54
53
54
59
68
74
74
67
62
61
61
60
61
60
59
59
62
68
72
74
73
68
63
59
60
62
64
68
72
76
79
82
85
79
69
63
60
60
58
53
50
59
73
80
66
64
62
62
65
78
77
84
81
62
57
70
87
89
91
93
114
54
86
101
46
85
94
90
115
77
75
88
101
66
99
91
88
94
88
102
108
97
106
93
81
83
86
89
86
94
88
79
81
77
91
91
85
79
85
72
77
86
86
84
84
84
84
81
76
72
70
70
73
71
64
62
65
69
55
73
64
33
55
47
50
54
59
62
63
62
62
62
64
63
65
68
70
75
70
60
58
65
73
73
63
55
49
44
36
29
32
34
34
36
41
50
57
53
52
58
65
66
69
63
59
55
50
49
51
48
45
47
49
50
50
51
55
61
67
70
72
79
79
71
70
77
83
87
87
77
72
77
78
77
77
79
77
67
63
65
65
67
68
65
66
68
72
77
81
80
73
72
68
67
70
72
74
74
74
77
78
77
71
80
94
104
99
90
86
77
85
80
82
91
85
89
84
78
80
88
97
91
84
88
88
80
80
79
94
95
95
93
91
90
85
82
83
90
100
108
113
117
122
123
123
123
122
123
123
123
124
124
124
124
123
122
122
123
124
122
117
113
112
110
111
114
113
111
106
102
103
109
100
100
92
99
93
105
105
98
97
100
99
98
98
98
101
110
110
104
106
114
114
105
96
88
91
98
103
106
110
113
107
102
97
92
90
90
92
92
90
89
89
89
89
88
86
85
83
82
82
81
80
82
84
83
83
83
83
83
83
83
83
80
78
79
83
85
86
86
88
87
86
87
88
90
91
88
86
82
82
105
115
112
112
96
85
78
95
104
96
76
62
56
51
56
60
54
37
31
40
56
69
73
67
56
54
53
53
51
49
48
47
45
46
44
46
46
46
44
44
42
40
36
36
34
33
35
38
38
31
22
19
33
45
44
44
47
48
50
53
53
50
48
50
57
68
73
72
70
67
66
70
71
70
70
69
69
72
72
73
69
63
60
56
51
56
67
70
64
59
60
67
70
70
72
59
76
70
85
64
59
81
77
67
56
52
68
56
54
58
52
29
30
28
31
44
40
34
29
26
19
11
7
1
35
54
43
37
43
41
32
27
26
25
24
24
25
25
24
23
23
23
23
22
22
22
22
21
21
21
21
20
19
19
20
21
21
21
21
23
23
23
23
23
23
24
23
23
23
24
24
25
25
26
26
26
26
26
26
26
26
27
27
25
24
26
26
25
26
27
27
28
26
27
27
25
22
76
149
172
155
158
161
142
167
167
149
156
161
161
161
161
161
161
161
161
161
161
161
161
161
161
161
160
160
159
158
157
156
158
156
158
158
159
159
158
163
163
165
163
164
164
165
171
167
168
168
151
167
174
166
133
98
63
51
62
58
52
51
51
55
59
62
70
83
83
69
63
61
61
60
61
60
59
61
66
70
76
79
78
72
65
61
61
67
72
71
69
71
79
84
85
83
81
79
75
71
65
61
63
73
76
72
65
65
65
65
59
87
87
112
100
63
47
60
96
109
92
61
102
79
73
81
60
77
91
79
153
116
89
73
81
77
107
75
88
96
88
102
96
83
93
83
86
91
99
105
88
93
88
81
80
75
80
75
73
73
83
75
79
86
86
84
84
84
83
80
76
73
70
66
64
65
70
72
70
69
61
78
73
47
62
55
50
51
57
59
58
59
66
72
73
71
70
71
69
64
66
71
68
67
70
68
62
55
48
43
36
29
32
32
33
34
38
47
50
48
43
48
57
60
68
63
59
60
63
63
61
55
46
46
46
49
49
49
49
54
59
59
59
70
75
74
73
74
73
79
75
70
68
75
79
73
70
74
77
74
73
74
77
83
84
72
66
65
71
78
79
74
68
66
61
64
73
80
81
77
72
72
77
78
73
71
80
92
93
92
97
89
86
78
79
90
86
89
87
92
92
93
97
90
81
81
83
83
80
67
93
94
95
95
95
93
89
84
82
84
93
105
110
115
120
123
123
122
123
122
123
122
122
121
122
121
122
122
122
123
123
121
117
116
113
108
109
114
114
110
108
105
104
103
102
102
93
98
89
104
105
97
95
96
96
97
98
99
102
104
105
104
106
114
114
104
96
94
96
100
105
107
109
110
108
103
98
91
88
90
95
96
92
91
91
91
89
87
85
82
82
80
81
81
82
82
83
83
83
82
83
83
83
83
82
81
80
81
82
83
83
85
88
86
85
85
86
86
85
84
84
84
86
80
88
104
114
100
100
114
87
81
89
105
85
57
51
61
61
56
35
23
26
45
66
75
71
60
58
54
54
52
51
49
47
44
44
44
45
45
46
45
43
42
40
38
38
37
34
33
35
38
32
21
19
30
44
44
44
48
49
50
52
51
50
48
50
54
61
67
71
70
66
65
67
69
67
67
69
70
72
76
75
71
62
58
57
53
58
66
66
62
56
59
65
64
67
77
80
62
56
66
73
63
70
89
75
60
49
41
52
64
59
48
59
34
25
28
36
36
37
37
28
20
8
2
25
51
54
36
39
55
56
39
28
27
26
25
25
25
24
24
22
21
21
21
21
21
22
22
21
21
21
21
19
19
19
19
21
21
21
21
21
21
23
23
21
21
23
23
23
22
24
24
24
24
26
26
26
26
27
27
27
27
27
26
26
26
26
26
27
27
27
26
29
24
25
47
14
39
133
157
160
161
159
160
161
161
163
163
158
162
162
162
162
162
162
162
162
162
162
162
163
163
161
161
161
160
159
158
157
157
157
157
159
159
160
160
160
161
162
163
162
164
164
163
173
155
146
156
163
171
161
113
58
49
56
71
41
46
52
54
58
61
71
74
72
74
73
69
66
63
62
62
61
61
63
68
72
72
75
80
83
79
72
65
66
73
73
68
49
62
74
85
65
64
62
60
80
68
57
53
54
65
73
70
62
65
72
76
66
91
106
106
106
69
58
88
113
103
91
81
79
81
81
81
45
72
83
74
85
99
101
83
83
80
100
71
88
91
84
77
78
79
79
76
93
88
81
75
86
88
87
84
80
81
81
75
75
77
82
80
81
87
87
85
85
84
82
78
75
73
72
70
65
64
69
71
68
67
66
73
69
55
60
55
47
47
55
58
57
55
62
73
78
74
70
69
69
65
69
77
75
68
67
66
62
55
47
41
35
30
32
34
34
35
40
44
48
48
43
43
45
55
60
58
56
60
63
59
56
51
44
43
46
49
49
48
52
61
61
57
59
64
67
71
78
80
76
73
73
72
72
79
81
72
66
70
72
71
73
73
74
78
80
79
72
66
68
78
80
75
70
67
63
66
74
81
81
73
72
81
83
80
75
73
75
81
83
85
90
87
83
77
79
84
86
86
90
103
93
90
86
79
79
72
78
78
75
68
92
92
93
93
94
94
93
90
86
83
89
101
108
113
117
122
123
122
122
120
121
121
121
121
121
121
121
121
119
122
123
122
120
120
114
107
108
114
116
112
109
107
102
98
107
104
94
92
83
101
103
93
91
92
92
93
94
96
98
100
101
102
105
113
113
105
100
100
101
102
105
106
107
108
105
101
96
89
85
85
87
89
90
91
91
91
89
88
85
85
84
84
83
84
84
83
84
84
85
86
88
88
87
86
85
84
83
82
80
80
79
82
84
84
84
84
86
85
84
84
86
86
102
94
97
110
110
103
103
110
91
83
86
100
103
79
60
60
61
56
37
25
22
31
51
68
73
70
64
57
53
53
53
53
50
44
43
43
45
45
46
42
42
41
40
39
39
35
33
30
33
37
35
24
20
29
39
40
44
49
49
52
56
55
51
47
44
45
51
56
60
61
61
61
63
63
63
64
66
64
60
61
68
69
62
58
58
56
60
67
67
63
58
60
63
60
69
84
65
55
49
51
65
63
70
80
76
65
49
36
56
70
58
35
54
40
27
25
33
33
33
33
27
20
11
5
44
60
59
49
52
68
65
44
28
27
30
29
28
27
25
24
23
22
22
22
22
22
22
22
21
21
21
21
19
19
19
19
21
21
21
21
21
21
21
21
19
19
21
21
22
22
24
24
24
24
26
26
26
26
27
27
27
27
27
26
26
27
26
26
27
27
27
26
28
22
34
39
27
67
160
157
160
160
159
162
161
161
163
163
163
162
162
163
162
162
162
162
162
162
162
162
163
163
161
161
161
160
159
158
157
157
157
157
159
159
160
160
160
161
163
163
161
162
162
163
168
165
171
185
169
137
94
57
60
68
60
46
46
51
56
60
62
65
69
70
70
70
69
68
67
65
63
62
61
62
70
77
79
76
72
77
88
92
84
80
81
87
80
66
46
58
71
80
93
92
91
88
61
56
54
58
72
78
77
77
50
54
61
65
64
94
118
123
111
77
59
74
107
101
91
84
81
81
81
81
64
69
86
74
70
84
93
88
86
75
88
73
86
82
82
82
81
79
77
79
84
85
83
82
83
84
84
83
85
91
91
85
84
85
85
84
84
87
87
85
85
84
80
78
76
76
76
76
71
65
62
66
69
68
64
62
59
51
48
51
48
48
55
57
54
47
52
63
70
66
62
64
68
68
73
80
76
69
64
64
61
55
46
40
35
30
32
34
35
36
41
47
50
52
51
46
43
51
53
53
51
54
54
49
50
49
45
44
46
48
48
49
56
67
66
61
68
73
72
71
71
76
84
89
88
85
79
77
75
72
72
73
70
67
67
67
66
66
66
70
72
66
66
75
79
74
68
67
66
65
65
63
61
61
78
92
90
80
77
77
74
73
72
72
74
78
84
81
78
78
84
90
92
93
79
86
85
77
83
71
73
74
74
74
93
93
93
93
94
94
95
95
90
84
87
95
105
110
115
120
123
122
122
121
122
122
121
121
121
121
120
120
119
118
118
115
116
117
115
107
105
109
112
108
103
101
96
94
117
108
96
81
74
94
99
88
84
88
90
93
95
95
96
96
97
100
105
111
112
106
104
105
105
105
106
107
108
108
107
102
99
91
89
87
85
85
88
89
90
91
91
87
84
85
85
83
84
84
84
83
84
84
85
86
88
88
87
86
85
84
83
82
80
78
78
79
79
82
83
83
84
84
84
84
84
84
110
96
93
102
103
110
110
103
100
87
83
91
108
106
79
60
62
60
41
32
24
22
31
49
65
77
70
59
54
54
53
53
54
51
46
44
45
45
44
41
40
41
42
40
40
37
33
28
29
36
38
28
23
28
38
40
43
49
53
53
55
54
53
50
52
58
64
68
73
74
74
74
74
74
74
77
78
77
72
66
62
62
60
60
60
57
61
68
67
63
58
59
58
58
71
90
60
61
55
44
52
63
70
68
65
65
54
39
48
58
58
39
48
46
33
19
26
26
26
24
19
16
13
12
35
45
40
41
49
52
44
33
25
21
19
19
23
26
26
26
26
25
26
25
24
23
23
22
21
21
21
21
21
21
21
21
23
21
21
21
21
21
21
21
21
21
23
23
23
23
24
24
24
24
26
26
27
27
28
28
27
27
27
27
27
27
27
27
28
28
28
27
26
20
48
31
35
115
168
160
161
161
162
162
163
163
163
163
164
164
164
164
164
164
164
164
164
164
164
164
163
163
162
162
161
161
161
160
159
158
159
159
160
160
160
161
161
161
162
163
161
161
161
161
165
166
158
149
104
73
45
44
60
68
60
45
51
56
63
68
69
67
65
63
63
63
63
63
65
65
65
64
65
71
75
81
84
83
80
77
77
78
74
68
67
73
69
51
51
54
59
65
65
62
61
60
56
61
70
75
84
82
70
73
50
54
61
65
66
92
107
107
97
80
68
76
99
97
94
90
84
84
83
79
90
63
92
75
73
79
90
94
90
67
85
82
87
82
83
87
83
79
76
81
82
83
87
89
77
77
77
78
83
91
91
85
84
85
85
84
85
87
87
86
87
85
82
79
80
82
82
79
74
67
61
62
67
68
64
65
64
53
45
50
53
54
57
55
52
42
47
57
62
60
60
65
71
66
65
71
71
68
67
60
60
55
44
39
35
31
32
34
35
36
41
45
46
46
50
45
46
49
50
49
49
54
54
50
52
52
49
47
47
48
48
49
54
66
66
63
71
78
78
77
76
74
75
80
77
72
66
65
70
77
77
71
67
67
67
67
66
66
66
68
68
61
61
71
74
70
64
65
65
65
64
61
59
58
72
84
78
70
70
70
66
64
62
58
56
61
69
73
72
76
82
87
80
70
56
71
74
67
72
63
68
72
75
78
93
93
93
93
94
94
95
95
93
89
89
92
99
104
109
115
121
122
123
121
122
122
121
121
120
120
120
119
118
115
110
105
102
105
109
107
103
102
102
98
98
95
89
84
119
109
97
75
73
91
95
86
81
85
89
91
94
94
95
95
96
98
103
109
110
105
105
108
108
106
106
106
108
109
106
102
101
100
101
98
90
87
88
87
87
91
91
85
81
82
82
81
81
81
82
82
83
82
82
82
82
82
82
82
80
80
81
81
77
76
77
77
78
78
79
80
82
82
82
82
83
83
104
88
79
85
100
114
114
100
105
89
83
86
102
114
98
66
67
65
45
37
29
22
21
30
47
64
68
66
60
54
54
55
58
52
49
45
44
41
40
38
39
40
42
40
40
37
33
28
27
32
35
31
24
29
37
40
43
47
50
50
50
49
46
43
44
49
53
58
64
65
64
64
67
67
65
64
66
71
75
68
61
56
56
60
60
57
60
68
70
65
58
55
52
55
70
88
66
77
71
51
45
61
69
60
50
56
55
45
34
44
53
53
44
48
38
17
24
24
21
20
16
14
16
19
41
46
48
58
65
56
47
49
51
48
33
23
23
26
26
27
28
27
27
26
24
23
22
21
21
21
21
21
21
21
21
21
23
21
21
20
18
18
20
21
21
21
23
23
23
23
24
24
24
24
25
25
27
27
28
27
27
26
26
26
27
27
27
27
28
28
28
27
23
19
59
24
56
164
143
167
161
161
162
162
163
163
163
163
164
164
164
164
165
165
165
164
164
164
164
163
163
163
162
162
161
161
161
160
159
159
160
159
160
160
160
162
164
163
163
162
162
161
161
161
171
155
115
72
45
36
44
63
57
48
56
70
59
62
67
71
74
69
64
58
59
60
61
60
60
61
64
66
68
75
80
83
87
89
85
84
86
86
80
73
67
69
63
50
48
51
53
53
39
38
37
35
69
80
93
97
78
69
57
62
62
65
72
76
71
85
84
71
73
77
81
92
93
97
94
93
85
85
83
77
109
59
95
75
82
83
90
86
90
67
85
88
94
87
85
88
79
77
77
90
75
81
87
94
73
73
73
73
77
83
84
80
79
82
82
80
83
86
86
86
87
86
83
82
82
84
83
79
71
66
62
57
58
61
67
79
82
68
55
57
55
55
55
54
54
48
53
61
64
66
69
77
79
71
64
65
65
68
70
65
62
57
47
40
35
30
32
34
35
36
40
42
39
38
43
42
44
44
46
46
52
61
61
55
54
54
51
49
48
48
48
49
53
65
67
64
69
73
71
72
75
75
74
70
74
79
78
73
74
81
77
67
64
66
68
68
67
67
68
70
66
59
57
64
67
66
61
63
66
68
73
74
70
61
61
71
74
77
79
79
77
74
74
72
73
76
77
73
70
75
82
86
87
86
72
80
84
79
86
71
68
72
73
75
94
94
94
94
94
94
95
95
96
95
92
93
96
97
100
106
116
121
122
121
120
121
121
119
121
119
120
120
117
115
111
103
93
92
98
106
103
96
93
90
91
96
88
80
115
108
98
79
77
90
94
88
84
85
86
91
94
96
96
96
98
98
102
105
106
104
105
105
107
105
104
105
107
107
105
103
104
108
109
104
93
89
88
85
84
91
90
83
81
84
83
80
80
80
82
83
83
83
82
81
81
81
80
80
80
81
80
79
76
74
74
76
77
77
78
79
81
81
80
80
82
80
79
84
91
86
84
95
105
105
94
94
86
82
107
113
112
97
83
72
55
42
33
26
19
22
34
42
58
70
67
54
54
63
61
58
51
46
42
40
39
38
39
40
40
39
39
35
32
29
28
29
36
31
25
28
38
40
41
47
50
47
46
44
43
42
43
45
50
55
59
59
57
60
66
67
65
63
65
72
76
71
63
57
55
57
58
58
60
64
67
66
60
56
53
56
62
72
62
68
61
43
51
59
65
65
62
57
60
53
36
26
39
61
26
45
43
18
26
23
18
16
17
18
21
27
55
34
36
63
65
56
53
59
60
50
33
27
25
26
27
27
27
26
26
25
24
23
22
21
21
21
21
21
21
21
23
23
24
23
20
18
19
19
20
20
21
23
24
24
24
24
26
24
24
22
25
25
26
26
27
26
26
26
26
26
27
27
28
28
27
27
28
28
43
34
38
40
120
169
150
165
163
163
164
164
162
162
164
164
165
165
165
165
166
166
166
164
164
164
164
164
163
163
163
163
163
163
161
161
161
161
161
160
161
160
162
163
165
165
163
161
155
170
170
155
115
87
61
56
61
59
59
58
58
59
57
61
64
66
68
69
88
77
62
54
57
59
59
57
56
59
63
67
72
78
83
87
91
93
93
89
86
87
79
68
59
57
51
43
43
30
33
48
42
47
56
60
90
105
111
105
73
63
59
61
47
46
60
83
59
63
70
73
84
95
94
89
90
96
93
76
85
89
84
74
94
47
93
74
80
84
87
83
86
89
84
86
86
73
68
84
73
73
75
76
78
80
83
78
76
74
76
77
77
81
82
79
79
84
84
81
82
85
85
88
89
89
85
82
82
83
81
77
71
67
64
59
56
58
66
80
85
70
57
56
55
54
55
54
54
53
56
63
65
69
71
78
80
72
68
70
71
77
74
67
62
56
46
39
32
30
31
34
35
35
37
38
38
37
43
43
43
42
42
44
51
61
61
54
52
53
52
51
49
49
49
48
52
58
64
64
67
69
72
72
71
71
73
73
76
83
80
69
67
72
73
68
64
64
66
65
64
64
65
66
67
63
58
59
61
63
61
64
67
68
68
67
65
63
63
66
71
74
75
75
73
72
72
77
85
87
81
75
71
75
82
84
86
92
78
82
84
80
90
75
70
75
74
71
94
94
94
94
93
93
95
94
97
97
93
96
96
95
97
103
110
114
119
121
121
120
121
121
119
119
119
119
117
120
115
110
97
86
86
95
96
93
90
90
93
97
88
75
101
103
100
90
82
90
93
92
87
84
85
90
93
94
97
96
97
98
99
103
103
101
103
103
104
103
103
104
106
107
104
103
106
113
111
105
97
94
90
82
82
91
90
82
81
86
84
82
82
82
83
83
83
83
82
82
82
82
80
81
81
83
81
79
74
72
73
74
76
76
77
77
78
78
78
78
79
79
76
76
79
86
81
84
95
105
111
101
87
78
96
99
109
110
99
83
72
52
40
33
26
23
23
22
41
66
68
58
58
63
65
65
59
51
42
40
40
39
39
39
40
39
39
35
32
29
28
28
32
31
27
29
37
37
40
45
49
46
41
44
47
48
51
52
57
60
57
56
59
62
67
73
78
78
76
82
82
72
67
67
57
54
55
58
60
57
58
64
69
70
67
62
55
51
68
77
73
61
55
59
62
68
71
69
70
67
51
32
32
50
36
42
35
20
26
24
16
12
9
7
10
17
44
32
34
48
48
57
67
66
56
36
21
26
28
26
27
27
26
25
25
23
22
21
21
20
21
21
21
21
21
21
23
23
24
24
20
19
19
20
21
21
23
23
24
24
24
24
26
24
24
24
24
25
25
26
26
26
26
25
25
25
27
26
28
28
26
27
28
28
26
55
13
80
148
156
170
157
164
164
164
164
162
162
164
164
165
165
166
166
167
167
167
166
164
163
164
164
163
163
165
165
163
163
161
161
162
162
163
161
161
160
163
162
164
163
159
157
174
154
116
84
61
56
51
56
61
62
60
59
59
60
60
61
62
63
63
64
77
71
62
55
59
59
59
57
58
61
67
73
78
79
84
94
98
98
101
95
79
76
73
57
49
44
38
33
50
47
49
54
57
59
63
65
96
100
96
89
67
62
59
64
53
48
58
76
59
64
70
72
80
90
89
86
76
91
98
91
85
90
85
71
86
57
84
77
78
81
85
85
82
86
82
82
81
80
82
83
84
84
84
83
83
82
83
82
83
83
84
84
83
83
83
83
81
87
88
82
82
84
84
88
90
90
86
83
83
82
81
77
78
75
71
67
65
63
61
65
66
54
49
53
55
54
54
53
54
53
57
64
65
64
60
62
68
66
71
82
87
90
76
64
55
50
40
34
30
29
30
34
35
35
37
37
38
39
45
46
46
45
48
50
51
56
56
51
49
52
51
51
49
49
49
49
50
51
57
62
65
71
81
81
73
71
75
75
75
78
78
69
61
60
64
65
66
65
63
60
63
66
68
70
70
68
66
64
63
63
63
64
66
66
64
60
60
63
67
72
75
77
78
78
78
78
79
83
86
85
79
74
74
74
79
78
75
85
71
68
68
65
74
68
71
83
81
77
95
95
95
95
95
94
95
95
97
97
96
96
96
95
98
101
103
103
110
120
121
121
122
122
121
121
120
120
119
120
115
113
104
90
84
91
91
88
90
95
96
91
80
68
84
101
104
104
88
93
94
93
91
84
83
89
93
94
96
91
93
94
97
99
100
100
102
102
103
103
100
103
106
106
105
104
108
112
111
107
105
102
93
81
81
91
91
82
81
88
85
83
83
83
83
83
83
84
82
82
82
82
79
80
80
83
81
79
74
71
71
73
76
76
77
77
77
77
77
77
77
76
77
76
76
77
79
80
84
95
107
100
90
79
87
90
101
114
112
98
76
62
51
40
33
27
23
18
27
48
59
62
62
60
62
65
62
55
47
41
40
39
40
40
40
39
39
35
32
29
28
28
30
33
32
32
34
35
39
44
48
44
40
41
40
39
40
41
40
42
48
54
62
63
59
60
65
67
74
82
82
72
67
67
67
57
55
57
60
57
56
62
69
74
76
69
59
53
61
73
77
69
65
61
58
56
80
70
69
71
70
46
33
36
51
40
26
19
26
23
16
15
19
21
24
31
58
58
61
63
60
70
80
77
70
60
45
37
29
27
27
27
26
23
23
23
22
21
21
20
21
21
21
21
22
22
24
24
24
23
21
20
21
21
23
24
24
24
24
24
24
24
26
24
24
24
24
25
25
26
26
26
26
25
25
26
26
23
28
28
26
28
29
29
30
56
38
141
170
156
173
154
165
165
164
164
163
163
164
164
166
166
167
167
168
168
168
166
166
164
164
166
166
166
165
165
164
163
163
163
163
163
163
163
163
162
162
163
161
159
155
152
137
105
67
48
51
56
61
61
44
54
69
80
59
59
59
59
58
57
57
59
62
62
59
58
59
59
59
59
62
66
73
80
86
81
85
103
107
97
103
109
100
97
101
90
85
81
76
70
82
90
92
87
83
80
78
75
90
84
78
76
62
60
60
72
61
52
54
68
59
65
70
71
74
84
83
79
76
91
98
91
85
92
87
69
79
71
71
80
80
80
83
83
81
80
82
93
80
86
91
88
84
84
84
83
83
82
82
82
82
82
84
84
83
83
83
84
81
87
88
82
82
84
84
88
91
91
88
84
85
82
82
78
81
76
69
64
61
61
61
65
66
54
49
53
55
54
54
54
55
53
57
63
63
60
56
58
63
63
68
78
84
86
76
60
51
47
36
30
29
28
30
34
35
36
37
37
37
39
44
46
46
45
49
51
49
53
53
47
48
51
51
51
49
49
48
49
50
51
51
56
59
66
76
79
76
75
81
86
89
85
85
88
81
75
73
72
72
67
60
54
57
65
68
66
61
61
64
65
64
63
63
61
61
64
66
65
63
63
67
70
68
67
68
68
68
68
70
68
67
64
66
67
69
72
78
82
84
90
76
80
80
66
77
73
74
81
84
79
95
92
92
92
94
93
96
95
97
97
96
96
97
96
97
97
97
95
101
112
120
121
122
122
121
121
121
121
120
121
115
112
107
94
87
93
96
89
90
102
103
88
81
72
80
100
107
111
91
93
94
93
92
87
84
87
92
93
94
90
91
92
95
98
99
99
101
101
102
102
100
103
105
105
105
104
108
111
111
111
112
109
95
82
81
88
88
82
81
87
85
83
83
83
83
83
83
84
83
82
80
80
79
80
80
81
81
79
74
71
71
73
77
77
77
76
76
77
78
76
76
76
76
76
76
76
75
77
82
84
87
88
91
92
86
82
92
109
116
106
88
78
63
50
40
32
26
23
21
32
51
67
67
58
58
60
59
56
52
46
42
40
40
40
40
39
39
35
32
28
28
28
29
32
33
33
33
33
36
44
44
40
38
39
38
36
38
38
38
38
42
50
63
70
70
67
64
61
64
74
76
70
63
63
64
63
58
56
56
60
62
63
64
63
65
67
74
77
55
62
64
62
65
63
57
51
66
66
62
62
74
60
44
35
52
35
22
19
25
22
18
13
14
12
15
24
49
56
58
59
57
47
47
52
55
67
53
27
21
27
27
27
26
23
23
23
22
21
21
20
21
21
21
21
22
22
24
24
24
24
23
23
23
24
25
25
25
24
24
24
24
24
26
24
24
24
24
25
25
26
26
26
26
25
25
26
26
22
28
26
24
25
33
29
51
37
130
167
166
176
157
161
165
165
164
164
163
163
164
164
166
166
167
167
168
168
168
166
164
163
164
164
166
166
166
165
161
162
165
166
165
163
163
163
163
161
162
161
160
157
152
149
66
51
51
66
62
61
61
61
73
66
58
50
60
58
58
58
59
59
57
56
54
55
58
58
59
59
59
59
65
71
77
88
94
81
86
111
112
94
101
120
115
102
110
107
111
109
104
98
87
99
98
84
88
87
81
75
75
71
67
67
59
60
63
72
68
59
58
65
62
65
70
68
68
79
79
77
86
93
91
81
88
92
85
71
79
74
68
84
78
77
82
83
75
70
80
95
89
95
95
86
73
73
75
78
78
77
79
79
78
77
78
78
77
80
83
84
81
85
85
81
82
84
84
86
90
92
89
84
86
85
82
75
76
75
62
50
50
56
64
78
86
70
57
56
54
53
54
54
55
54
57
62
62
57
59
65
69
65
66
71
74
78
76
67
60
54
43
35
30
28
29
32
33
34
35
35
35
38
43
44
43
41
44
46
44
47
48
46
47
51
51
51
46
46
48
49
50
52
52
55
57
61
67
68
72
73
78
83
85
74
68
73
75
73
67
67
71
68
59
51
49
56
58
56
52
51
52
54
58
60
60
61
63
61
64
66
60
59
66
73
74
74
73
72
71
68
69
69
69
70
73
74
72
74
77
83
84
79
71
87
87
67
71
68
67
73
77
71
89
92
91
90
92
92
89
88
93
98
103
105
112
117
97
96
96
96
96
103
112
119
128
128
128
127
124
123
123
121
112
111
112
112
123
112
98
88
106
106
106
104
91
83
86
98
109
112
94
91
92
93
92
87
85
86
91
94
93
91
91
90
91
95
99
99
101
101
102
101
101
102
105
105
104
104
108
109
111
113
116
111
98
86
83
84
84
83
83
84
85
84
84
84
84
84
84
84
86
82
77
76
79
80
81
81
82
80
77
71
70
72
76
77
76
76
77
77
76
76
77
77
76
76
76
74
75
76
79
81
82
84
90
96
87
80
84
99
99
116
123
115
92
72
43
24
28
26
23
24
20
45
68
74
61
58
58
58
56
52
46
43
42
40
40
40
38
36
32
28
29
29
29
31
33
33
32
31
34
44
42
35
35
36
37
38
38
40
41
40
42
49
61
68
67
62
59
57
61
73
78
70
63
62
62
63
61
57
55
56
59
64
61
57
59
64
77
86
66
57
54
57
61
63
59
52
57
64
64
60
67
63
50
33
37
30
22
19
24
21
18
16
15
14
16
30
48
54
54
54
59
49
48
59
71
64
46
48
28
25
26
24
24
24
24
23
21
21
21
21
21
21
21
21
23
23
23
23
24
24
22
22
24
25
25
25
24
22
24
24
24
24
24
24
25
25
25
25
26
26
26
26
26
26
26
27
25
21
28
23
23
26
34
28
64
116
157
169
166
165
165
165
164
164
164
164
165
165
165
165
166
166
166
166
167
167
167
166
166
165
165
166
166
167
166
163
162
163
166
166
166
165
164
163
154
178
172
138
159
157
121
53
57
57
58
59
62
63
62
61
61
60
59
59
60
60
60
60
62
62
62
61
61
60
59
59
58
76
78
66
74
80
86
86
76
99
84
133
154
93
136
105
132
114
108
105
109
78
101
101
91
91
87
80
81
81
74
70
69
65
59
58
59
60
63
67
69
67
66
68
66
66
69
69
64
75
79
79
87
89
87
87
90
92
85
78
80
74
71
81
77
77
84
84
73
68
77
87
69
83
83
69
68
71
78
80
65
71
77
78
78
78
78
75
75
78
84
85
84
84
84
83
83
84
84
84
88
95
95
88
86
89
80
72
72
79
67
51
49
52
60
77
84
71
60
57
53
53
55
55
58
58
62
64
65
59
60
69
71
71
73
78
73
73
71
66
61
53
42
35
29
28
28
30
33
35
36
35
36
39
41
42
41
40
43
43
43
47
50
49
49
50
50
47
44
44
49
49
50
52
55
53
57
62
68
72
72
67
68
75
79
72
68
72
75
73
67
66
68
67
60
54
51
53
54
57
54
51
48
49
54
58
56
58
64
63
61
61
57
61
68
72
74
78
75
74
72
71
70
70
70
70
72
72
72
75
77
76
78
75
74
85
86
74
71
67
68
72
73
65
99
96
94
91
91
91
88
89
85
81
83
90
97
100
97
96
96
96
95
96
103
112
120
122
124
124
124
123
123
122
111
111
112
112
117
110
101
93
106
106
106
106
103
93
92
98
108
111
96
87
88
94
92
89
87
88
93
93
93
93
91
89
90
92
98
98
99
99
101
100
101
102
104
104
104
104
106
108
110
111
113
109
103
96
90
87
86
86
86
87
85
84
84
84
84
84
84
83
83
81
79
77
80
80
80
79
79
82
79
73
71
71
72
75
76
77
79
78
78
75
75
75
74
74
74
72
75
76
75
79
83
85
85
90
90
88
82
86
88
106
113
105
110
101
92
77
39
28
26
23
25
19
27
52
63
61
58
59
58
56
52
46
43
42
40
40
38
36
32
28
29
29
30
31
31
31
32
31
34
43
43
34
33
34
35
36
38
40
41
42
44
50
59
62
61
59
58
58
65
78
80
73
69
69
68
65
63
58
55
53
54
61
57
48
53
57
64
74
69
60
57
55
54
61
63
55
53
57
64
64
61
57
44
26
22
25
24
19
21
20
21
22
23
24
27
40
49
50
50
50
54
66
66
54
54
62
51
42
30
20
16
18
23
24
24
23
21
21
21
21
21
21
21
21
23
23
23
23
24
24
22
22
24
25
25
24
24
22
24
24
24
24
24
24
25
25
25
25
26
26
26
26
26
26
27
27
25
19
28
19
23
34
27
38
115
157
169
169
165
165
165
165
164
164
164
164
165
165
165
165
166
166
166
166
167
167
167
167
167
166
167
166
166
167
168
170
171
169
162
159
162
164
165
164
166
166
173
183
155
120
74
56
56
57
58
59
61
62
63
62
61
60
59
59
60
61
62
63
63
64
65
65
64
63
63
63
67
76
78
73
98
93
96
102
92
99
90
71
103
129
121
143
122
112
99
97
91
80
88
92
87
69
66
83
81
66
62
68
69
63
55
54
59
62
63
64
64
66
67
68
67
65
69
68
67
77
83
83
84
85
87
88
90
90
87
84
80
74
73
79
83
84
88
85
79
77
82
82
77
79
79
71
69
71
78
82
65
68
76
79
80
80
80
79
79
80
83
84
90
91
90
88
85
84
84
85
90
102
102
93
84
87
76
71
67
78
73
61
58
54
57
67
68
61
58
54
53
53
57
57
62
64
67
70
72
71
74
77
76
75
78
76
67
59
54
52
50
44
34
28
27
28
27
31
38
43
43
44
45
42
38
36
39
41
45
46
49
54
58
57
54
50
49
48
48
48
51
50
48
53
58
55
55
57
64
73
76
71
71
75
72
68
68
70
70
67
63
63
66
66
60
58
56
56
54
54
53
53
52
56
60
58
51
48
54
67
66
54
57
72
72
61
65
74
77
75
75
74
73
72
71
70
69
69
70
74
77
79
80
79
74
71
71
74
77
77
74
73
73
65
99
96
93
91
91
91
78
98
102
87
80
84
90
95
96
96
96
96
96
95
96
102
106
109
113
116
121
123
123
122
111
111
112
112
109
106
104
103
105
107
107
109
110
100
93
99
109
111
98
85
85
95
93
91
91
90
91
93
93
98
93
89
87
90
97
97
98
97
98
100
100
101
103
103
104
104
105
105
106
107
108
110
108
106
101
96
93
90
90
89
91
88
86
85
84
84
84
82
79
79
81
82
81
79
76
73
76
82
80
76
71
68
70
70
75
78
81
80
78
77
74
73
72
71
71
70
72
75
76
74
76
78
81
84
89
100
93
80
83
100
107
99
94
100
108
103
71
39
29
26
19
11
18
37
54
63
61
58
59
58
56
52
47
43
41
40
38
36
32
28
29
29
30
30
31
31
32
31
34
42
42
34
34
35
35
36
36
38
41
44
48
50
55
55
52
50
50
51
58
67
65
59
67
74
74
70
63
57
56
54
57
61
58
52
54
58
59
65
61
61
65
54
48
56
65
60
55
50
52
57
54
50
34
23
21
24
24
21
22
19
22
22
23
24
27
39
45
45
45
45
33
45
45
33
33
31
34
36
40
38
27
23
24
24
23
23
23
23
22
22
22
22
22
22
23
23
23
23
22
22
22
22
24
24
24
24
22
21
22
22
22
22
24
24
25
25
25
25
26
26
26
26
26
26
27
28
24
17
27
22
24
28
28
66
157
168
169
163
165
165
165
165
164
164
165
165
165
166
166
166
166
166
166
167
168
168
170
170
171
171
171
171
171
171
170
171
172
170
162
159
162
164
165
165
156
142
149
173
138
81
52
63
57
56
58
59
61
62
63
62
61
60
59
59
60
61
62
63
64
65
66
68
68
70
70
70
100
84
70
67
99
89
101
125
108
126
136
130
123
146
86
106
111
104
84
81
71
84
75
75
70
54
56
75
77
61
58
61
60
55
55
55
59
59
62
62
62
62
63
64
66
66
69
69
70
83
86
86
85
88
88
85
85
87
88
88
81
75
74
77
74
69
67
64
62
65
69
75
77
72
72
75
73
73
78
82
65
68
75
80
81
81
81
82
84
83
80
80
88
91
90
89
86
84
84
84
87
97
97
88
81
75
71
74
72
70
68
65
65
58
54
60
60
58
53
51
52
54
55
57
58
59
62
62
69
79
87
85
81
77
75
73
74
72
67
65
63
57
47
37
30
25
27
31
38
43
43
44
45
42
38
36
39
41
45
46
49
54
58
57
54
54
51
52
52
52
51
50
51
55
60
60
59
51
53
69
80
75
75
79
73
68
68
70
70
67
63
63
66
66
61
59
58
58
56
54
53
53
52
53
56
56
53
56
65
74
70
61
59
64
64
59
60
65
71
73
73
73
77
78
80
82
83
82
79
77
74
74
78
79
74
68
67
72
80
81
77
73
73
67
89
89
90
90
91
91
69
110
130
118
87
91
97
100
98
96
96
96
96
96
95
95
94
97
101
106
123
123
123
122
113
113
114
113
106
105
106
108
106
107
107
112
111
103
98
100
105
106
98
85
84
92
92
92
92
91
91
91
93
96
94
91
87
87
92
95
97
93
96
100
101
101
103
102
102
102
103
103
104
105
106
107
111
114
113
107
101
96
93
90
92
90
86
83
82
83
83
81
76
77
82
83
80
76
74
72
75
79
79
76
71
65
63
68
78
84
84
81
78
74
72
71
71
69
69
68
70
76
76
71
70
75
78
80
87
99
93
78
81
99
106
98
71
79
90
100
96
71
39
29
5
20
26
18
35
54
63
61
59
59
59
57
52
47
43
44
39
37
33
29
29
29
30
30
30
30
29
30
33
42
42
34
32
35
35
35
36
39
41
43
48
49
55
57
60
60
64
68
74
78
74
66
67
69
69
67
62
57
55
54
57
65
68
65
64
61
62
62
58
61
69
58
51
53
64
65
60
52
45
46
44
42
29
23
22
22
23
22
21
19
21
18
18
17
19
31
39
41
43
43
51
40
41
51
49
33
49
76
61
55
53
42
23
24
23
23
23
23
22
22
22
22
22
22
23
23
23
23
22
22
22
22
24
24
24
22
22
21
22
22
22
22
24
24
25
25
25
25
26
26
26
26
25
25
26
28
26
15
25
23
34
21
39
116
169
168
163
163
165
165
165
165
164
163
164
165
165
166
166
166
166
166
166
167
168
168
171
171
172
172
173
172
172
170
170
167
167
166
167
166
163
164
165
170
173
168
161
161
102
76
62
48
57
56
56
58
60
61
62
61
61
60
59
61
62
62
62
63
64
65
66
68
72
73
74
73
81
72
82
104
131
92
75
89
127
146
123
166
168
143
120
88
105
93
82
71
56
85
71
59
55
55
58
57
57
61
59
48
47
50
52
56
59
59
59
57
59
61
62
62
64
65
69
70
74
83
86
85
85
88
88
83
83
85
87
87
80
75
74
80
82
77
71
67
68
73
77
80
79
70
70
80
70
73
78
81
65
68
75
81
82
82
82
85
87
84
78
78
83
85
85
86
88
83
84
82
80
84
84
81
78
69
68
78
79
68
63
63
66
60
54
58
60
58
51
47
51
54
54
52
52
51
53
52
58
77
88
84
83
80
73
72
72
71
66
60
53
44
37
30
25
24
25
29
31
34
34
34
34
38
42
45
43
41
43
43
43
46
48
48
49
51
50
52
55
56
54
50
51
58
60
61
62
53
55
73
80
72
72
80
79
77
77
78
78
74
68
67
67
66
61
59
59
59
57
59
56
54
53
50
50
52
57
64
65
49
45
57
53
37
41
58
63
60
66
68
67
67
67
70
75
72
69
64
64
69
78
79
74
75
80
79
74
73
75
75
77
75
74
71
95
92
91
92
93
93
85
120
133
116
84
90
98
101
97
94
95
95
96
96
96
100
103
103
99
98
102
105
113
119
117
119
117
117
109
109
108
109
108
107
106
106
109
105
101
101
105
108
101
91
88
88
91
93
94
92
94
94
93
94
94
92
88
87
91
95
95
92
93
98
101
99
97
95
97
97
97
98
101
103
104
104
107
115
118
112
108
104
99
99
96
93
86
81
83
84
84
82
79
79
82
82
79
76
75
75
75
77
77
75
70
64
61
70
81
85
84
80
77
74
73
73
70
70
70
69
71
78
77
70
64
72
80
77
85
90
90
79
70
74
84
90
113
107
93
81
84
88
84
63
19
14
18
9
15
30
47
56
61
61
61
61
62
59
54
49
40
38
35
32
29
28
28
28
28
28
28
28
33
42
41
35
34
34
31
32
36
37
40
41
44
48
52
57
60
57
65
74
77
75
74
69
68
69
68
65
62
58
56
55
58
65
72
70
64
57
60
65
59
58
68
65
60
50
57
67
66
54
44
41
37
30
25
22
22
23
22
21
21
20
21
19
19
18
20
25
32
36
41
43
43
52
51
38
40
66
86
77
61
58
55
47
25
24
25
25
23
23
23
23
22
22
23
23
24
24
24
24
24
24
24
24
24
24
24
22
22
21
23
23
22
22
24
24
25
25
25
25
26
26
26
25
25
24
24
26
26
16
22
26
40
19
42
150
165
165
165
164
164
165
164
163
162
163
164
164
166
166
167
167
166
166
167
167
170
169
171
171
173
173
174
173
173
172
172
174
172
169
167
164
162
164
160
149
116
130
130
117
68
66
64
63
59
59
58
58
59
60
61
61
70
70
69
63
63
63
63
64
65
66
66
69
76
78
79
82
93
84
92
116
136
119
116
128
100
125
175
192
166
100
135
79
81
86
74
58
78
83
74
67
56
59
57
49
49
57
56
48
45
48
50
53
58
59
55
55
58
61
62
61
63
66
70
71
76
80
80
80
83
89
89
85
84
84
84
80
77
74
74
75
73
68
64
64
68
72
71
71
76
71
72
78
73
74
79
80
82
84
86
84
83
83
85
86
87
83
79
81
84
87
87
90
91
86
86
85
81
81
80
80
79
71
70
77
74
65
60
67
67
62
59
60
65
66
56
49
51
55
55
53
52
52
55
55
58
74
82
79
81
81
76
72
71
70
64
57
48
41
36
29
22
23
25
30
31
33
33
33
34
38
42
45
43
42
43
43
43
42
39
38
44
52
52
48
52
56
53
52
52
55
58
60
61
56
58
73
79
69
69
76
79
77
77
78
79
75
70
67
67
65
61
60
63
60
58
52
53
56
58
58
54
54
57
61
61
46
46
63
61
44
43
58
63
61
67
67
65
65
66
68
72
74
73
72
71
71
73
72
72
73
80
83
77
72
72
74
78
78
72
65
96
99
97
94
94
95
89
107
107
89
89
92
96
97
96
95
94
95
95
96
96
96
108
103
96
96
101
105
112
116
117
117
116
115
112
111
110
109
108
107
107
108
111
109
105
104
110
117
110
98
91
87
91
93
94
92
94
94
93
93
93
92
88
87
92
97
98
92
90
95
97
94
92
92
91
92
92
92
94
97
100
98
99
107
113
108
108
107
105
103
98
93
85
82
89
93
91
89
85
83
80
79
78
77
76
76
76
77
76
75
71
65
65
71
76
77
78
77
75
74
73
73
72
73
72
71
73
79
79
71
67
72
78
78
82
83
94
94
88
81
87
97
93
85
89
111
102
99
96
99
63
44
27
18
25
21
25
32
61
69
69
68
65
60
56
50
43
39
36
33
29
28
28
28
26
26
27
27
32
41
41
35
34
34
30
30
33
36
40
41
43
47
51
59
64
61
63
74
76
74
74
73
71
70
69
65
62
58
57
57
56
59
66
65
56
50
56
60
62
57
61
67
63
48
50
63
66
57
48
44
36
25
20
22
23
22
22
21
21
20
21
22
22
22
23
24
29
33
38
42
38
29
31
45
57
64
69
77
58
50
43
36
26
26
26
26
23
23
23
23
22
22
23
23
24
24
24
24
24
24
24
24
24
24
24
22
22
21
23
23
22
22
24
24
25
25
25
25
26
26
26
25
24
22
23
23
24
24
18
26
36
14
69
171
162
161
161
161
161
161
161
161
161
161
163
164
166
166
167
167
168
168
169
168
170
171
173
173
175
175
176
175
173
172
172
174
174
172
169
165
165
151
115
76
64
52
53
63
67
66
65
64
63
61
60
59
59
59
60
60
59
59
60
60
61
62
63
64
65
66
66
69
76
80
82
82
101
92
88
89
114
131
164
193
89
118
217
154
121
106
98
81
85
88
91
86
87
83
72
66
65
58
53
59
59
49
49
55
52
49
49
51
56
57
55
55
57
59
59
59
61
64
70
73
76
76
76
76
82
89
89
84
85
84
81
75
75
74
74
66
51
45
51
59
66
65
57
52
72
72
73
74
75
75
79
80
82
84
86
85
84
85
86
85
83
80
82
86
90
93
93
94
95
90
90
89
84
82
81
83
85
79
70
65
61
60
65
73
69
62
65
67
73
74
65
53
53
57
58
57
56
55
59
60
60
65
67
71
80
83
77
74
74
72
67
63
57
54
46
35
23
22
25
32
38
42
42
44
45
42
38
36
40
42
42
43
46
43
38
35
41
52
56
50
51
54
53
53
53
54
58
58
59
58
60
67
68
65
65
68
72
72
72
73
75
74
72
70
65
61
60
61
63
61
58
57
57
58
58
54
51
53
58
64
70
73
68
59
61
72
73
67
61
64
65
64
63
63
66
57
43
45
66
79
80
73
65
61
67
73
75
75
73
71
71
74
78
73
60
49
90
94
95
95
95
92
91
95
94
92
94
94
92
91
94
95
95
95
95
95
96
96
108
104
96
95
100
106
113
114
113
110
110
110
110
110
110
110
108
108
108
109
111
109
105
103
106
115
112
100
91
86
95
95
95
95
94
94
94
94
95
92
90
88
93
99
101
93
86
90
92
91
90
90
90
90
90
90
91
92
94
96
96
107
113
108
107
109
113
112
105
95
84
82
89
94
91
89
86
83
81
80
78
77
76
76
75
76
75
76
75
68
68
74
74
73
74
75
76
75
75
74
74
73
73
73
72
78
80
74
72
70
70
76
81
82
89
100
97
84
81
85
85
82
91
106
113
108
102
99
90
76
44
14
26
16
9
15
36
54
62
62
62
58
53
50
47
40
38
35
32
30
28
28
27
27
27
27
32
40
42
35
35
35
30
27
28
34
42
45
45
47
51
58
60
50
48
56
62
63
65
66
65
67
67
65
62
60
58
58
56
54
58
62
60
64
68
66
65
60
56
64
58
46
44
56
61
60
54
49
38
24
17
23
24
22
23
23
22
22
22
22
22
22
23
22
24
28
33
36
44
40
50
68
65
56
55
66
49
43
37
38
27
27
26
26
26
26
25
25
24
24
24
24
24
24
24
24
24
24
24
24
24
24
24
22
24
22
24
24
24
24
26
25
25
25
25
25
26
26
26
25
24
22
23
18
19
34
15
24
34
27
115
171
155
154
154
154
154
154
155
156
159
160
163
164
166
169
170
170
171
172
172
173
173
173
175
175
176
176
177
176
175
174
174
171
168
168
172
175
160
115
71
52
84
73
73
78
74
68
67
67
66
67
66
65
62
61
60
60
59
59
60
60
61
62
65
66
65
66
67
69
80
82
82
89
95
102
104
97
106
124
141
146
147
115
129
72
103
161
117
83
84
80
83
86
83
74
62
62
62
54
48
55
54
46
46
53
51
49
49
49
51
55
57
58
56
55
55
56
60
64
70
74
75
78
75
75
80
90
90
84
85
84
79
75
74
75
75
70
60
58
64
70
74
74
72
71
72
72
73
74
75
77
79
80
82
85
88
86
88
87
89
86
83
83
87
88
90
91
93
94
95
90
90
89
84
83
82
83
82
81
73
64
58
57
65
72
66
61
67
70
76
77
67
55
53
58
58
58
58
56
59
65
67
63
60
68
81
83
77
70
61
55
50
48
49
47
36
24
19
21
26
33
39
42
42
44
45
42
38
36
40
42
42
43
45
42
37
32
36
50
58
55
54
54
55
55
55
54
55
57
62
66
64
59
59
65
65
63
65
67
70
71
72
74
77
74
68
64
60
63
65
64
59
57
57
58
58
54
51
53
58
58
58
65
60
44
48
65
71
64
61
61
59
57
56
58
61
70
77
73
61
51
46
56
73
81
78
71
68
67
70
71
71
73
74
71
64
56
80
77
95
95
95
95
86
91
104
116
100
97
90
88
91
95
95
95
95
94
95
95
107
105
97
95
100
106
113
114
111
108
108
107
107
109
110
110
111
106
106
109
109
104
97
96
98
105
106
99
91
87
98
93
92
95
92
92
92
92
97
91
90
92
93
101
102
93
86
86
87
87
88
88
90
90
90
88
89
90
92
96
102
113
116
112
108
110
114
113
106
95
83
78
81
85
83
83
84
84
82
81
78
77
76
76
72
73
77
79
77
69
69
76
76
74
75
78
78
77
75
74
73
73
72
72
72
77
80
77
76
69
67
71
73
76
80
86
87
87
71
68
91
103
90
63
79
90
102
96
85
90
63
19
12
11
9
15
7
21
38
47
52
59
54
51
48
43
39
36
38
34
33
32
28
26
27
26
30
39
42
35
35
36
33
26
27
34
43
46
45
45
51
62
68
60
55
63
70
73
72
72
71
71
68
62
60
60
58
57
56
55
56
56
53
57
59
54
55
58
53
51
47
49
48
49
52
56
53
49
37
22
15
23
24
22
23
23
22
22
21
22
22
22
22
22
21
24
28
30
18
39
53
52
48
56
56
43
41
41
41
41
27
27
26
26
27
23
22
25
24
23
22
22
24
24
24
24
24
24
24
24
24
24
24
22
24
22
24
24
24
24
26
26
25
25
25
25
25
25
25
24
24
22
23
18
18
36
22
26
31
51
153
148
150
150
150
151
151
151
150
152
159
160
160
161
167
169
170
172
172
174
173
174
175
174
175
175
176
176
176
175
175
173
173
169
165
165
175
180
149
75
51
95
70
84
84
72
71
68
64
67
70
70
70
70
59
59
59
59
70
70
69
66
65
65
65
65
65
68
68
69
84
82
90
103
127
130
113
84
100
118
122
109
104
151
111
115
120
124
78
87
77
64
61
67
72
69
62
55
54
53
47
38
37
43
46
44
47
49
49
48
49
52
57
58
55
54
55
57
61
67
73
76
79
79
75
74
80
87
87
84
85
84
79
75
73
74
75
77
71
61
64
56
53
64
68
77
71
75
75
72
75
74
80
80
84
85
89
86
90
89
90
87
88
86
86
87
88
90
91
91
92
90
92
92
89
86
81
76
76
84
81
67
60
61
64
64
64
67
67
67
71
72
58
49
52
58
57
57
57
56
58
66
73
67
63
70
76
77
75
71
65
60
56
54
56
56
45
30
20
21
26
31
34
36
36
36
40
36
39
46
45
41
41
42
43
41
35
30
34
46
56
56
59
56
51
49
49
52
57
59
63
67
67
64
71
78
73
64
64
66
66
67
72
77
81
78
67
61
60
63
65
63
58
51
51
53
58
60
57
54
52
51
54
59
61
63
64
60
61
65
61
60
59
54
51
51
56
58
56
58
66
70
67
65
61
61
65
71
66
68
71
71
73
70
67
68
72
72
98
86
100
105
82
85
89
91
127
134
99
83
82
91
100
113
110
94
92
94
93
94
104
106
101
98
102
106
106
107
108
108
107
107
107
103
103
103
113
104
104
112
110
103
96
94
99
102
105
105
94
86
99
92
90
97
92
91
91
92
98
90
88
99
94
99
99
92
87
85
84
87
87
87
88
88
90
88
87
88
91
97
105
109
110
108
108
108
110
110
105
96
84
81
83
85
82
80
82
83
84
81
78
76
76
73
71
73
80
82
77
68
68
75
75
69
69
75
77
75
75
73
72
72
73
72
72
76
78
77
76
74
69
67
69
76
75
72
103
89
81
68
75
85
100
106
109
70
49
61
68
81
80
68
26
9
5
5
18
16
18
29
50
52
54
52
47
47
52
52
44
40
39
38
33
27
27
26
28
37
43
40
36
41
40
34
31
36
42
44
44
45
51
62
67
60
58
68
76
79
77
77
76
76
68
57
56
61
61
57
57
58
59
59
55
54
52
47
50
56
52
50
50
56
55
52
50
50
48
43
33
21
15
24
25
22
23
23
21
21
22
22
23
23
23
23
22
21
23
24
21
49
59
43
37
37
38
38
10
14
21
27
60
54
47
42
33
24
20
25
24
23
22
22
22
22
22
22
24
24
24
24
24
24
24
24
24
24
24
24
26
26
26
26
26
26
24
24
25
25
24
24
22
22
23
19
19
32
28
32
43
102
153
142
144
144
144
140
138
140
147
151
157
158
158
159
167
169
170
171
172
172
173
172
172
171
173
173
174
173
172
169
170
172
171
171
162
179
179
140
83
77
69
77
106
159
92
58
71
75
62
78
75
78
85
90
90
80
66
56
71
77
85
90
91
87
79
73
70
72
81
86
88
92
92
92
105
79
117
89
114
115
122
129
79
152
114
96
104
87
77
83
72
56
48
62
72
56
49
54
49
48
41
32
35
44
49
48
48
48
49
49
49
51
55
55
54
55
60
62
64
68
73
79
84
83
82
80
83
86
84
86
86
84
80
75
72
73
77
81
79
63
67
54
48
64
66
76
69
79
80
71
70
74
79
82
84
87
91
97
91
91
90
93
91
89
86
84
87
89
89
88
88
89
95
97
94
87
79
73
76
88
83
61
54
64
66
59
64
74
63
64
69
71
56
49
52
58
57
58
59
57
60
64
70
67
66
69
69
71
73
73
72
65
57
54
56
57
47
30
21
24
29
31
36
37
38
45
43
34
36
49
48
41
40
41
41
39
34
31
34
43
50
57
58
56
50
45
47
51
57
60
61
66
71
75
83
84
76
70
68
71
71
71
73
74
75
73
67
61
61
63
64
61
57
56
54
56
54
54
54
53
51
52
56
53
56
65
65
59
58
59
59
54
56
56
54
52
57
60
56
56
63
66
67
68
61
49
54
68
65
74
73
66
75
66
61
63
66
67
114
109
85
98
84
104
93
92
123
127
99
90
92
107
93
100
101
94
91
92
92
94
97
105
104
98
94
94
94
94
106
112
109
109
113
115
115
115
113
105
105
111
110
104
98
98
104
104
108
112
99
85
101
97
92
97
89
91
93
93
101
88
86
99
92
97
97
91
87
84
83
85
86
86
86
87
88
87
85
87
92
97
104
106
106
106
107
107
107
108
106
101
92
91
94
91
85
80
81
82
81
80
78
76
75
71
69
70
77
81
75
66
66
73
74
66
66
74
76
74
71
69
72
73
73
72
72
73
74
73
71
80
78
66
68
81
79
76
82
84
72
63
69
81
89
86
87
72
63
60
68
81
81
68
57
31
18
18
18
14
9
15
20
32
47
56
62
58
48
44
40
37
35
37
37
32
27
26
28
36
47
45
41
46
46
38
36
38
41
42
43
44
51
62
64
57
58
68
74
75
74
74
74
76
69
58
58
67
67
61
59
60
64
64
64
62
62
58
58
65
66
66
71
72
71
65
58
53
49
44
33
21
14
24
25
22
23
23
21
21
22
22
23
23
23
23
22
22
21
22
20
38
39
32
27
27
27
27
13
19
28
37
54
52
50
47
42
34
26
24
22
21
21
21
22
22
22
23
24
24
24
24
24
24
24
24
24
24
24
24
26
26
26
26
26
26
24
24
24
24
22
22
22
22
22
19
20
36
23
31
78
119
145
145
139
139
139
138
137
140
147
152
156
157
159
160
163
164
167
167
168
168
170
168
168
168
169
169
170
169
167
165
164
165
165
165
171
170
149
112
74
91
81
101
177
155
67
37
63
87
67
57
58
63
70
71
71
71
74
75
77
80
83
84
83
81
77
78
81
81
74
70
92
92
92
93
112
101
117
105
109
111
104
94
89
109
83
101
93
78
77
74
61
65
60
51
56
63
56
41
36
36
34
35
41
45
49
50
49
48
49
49
50
51
52
52
54
57
63
64
64
67
71
75
81
85
92
93
90
85
87
90
86
83
79
75
71
72
77
83
81
65
67
60
56
69
70
71
72
79
79
77
79
80
73
70
84
87
92
97
92
92
91
91
91
89
87
86
87
90
93
93
91
91
95
95
87
79
71
70
78
88
80
60
52
64
66
57
59
67
52
59
72
77
62
53
55
58
59
62
64
66
67
67
67
70
72
73
72
75
80
84
81
69
54
46
50
53
44
29
22
26
33
35
37
38
42
47
47
36
36
48
50
45
40
40
40
38
32
29
33
39
43
46
47
50
55
59
60
57
52
52
60
66
69
71
74
74
75
74
73
73
74
73
73
72
71
68
65
63
60
61
63
59
54
56
60
63
60
57
54
53
53
54
53
45
45
54
59
59
59
63
61
46
43
54
64
72
75
72
71
66
54
49
52
63
67
60
54
63
58
71
68
57
70
61
60
61
61
60
104
114
83
94
89
114
101
94
119
118
103
98
109
126
122
106
94
90
93
93
93
92
95
102
107
100
95
94
94
94
97
105
111
110
113
115
115
111
109
113
112
105
103
102
101
103
109
109
113
118
105
84
102
105
102
98
89
97
97
93
103
86
84
95
88
94
94
91
87
84
83
85
86
86
86
86
86
85
85
87
92
97
102
103
104
104
106
107
107
108
108
108
105
107
107
99
87
79
77
78
78
76
76
75
74
72
72
71
71
72
72
65
65
72
73
66
66
74
76
74
71
70
71
71
71
73
73
72
73
68
67
78
81
68
68
76
77
71
75
87
75
63
64
85
104
97
91
102
108
98
68
81
81
68
73
67
51
40
27
14
7
6
8
18
30
42
56
56
52
47
44
40
39
39
39
38
32
27
29
37
49
51
47
50
50
41
38
39
41
42
43
44
52
61
63
57
57
67
70
70
70
69
69
72
72
64
66
75
76
68
64
63
64
64
65
68
72
70
67
73
78
77
77
75
70
64
58
53
49
44
33
21
15
24
25
24
24
24
23
23
22
22
23
23
23
23
22
22
22
22
16
25
26
22
19
19
19
19
26
34
45
54
47
49
53
55
55
51
38
26
20
21
21
21
23
23
23
23
23
23
23
24
24
24
24
24
25
25
25
25
27
27
27
27
26
26
24
24
24
24
23
22
22
23
22
21
24
37
22
43
118
137
134
146
132
132
132
133
135
140
147
152
156
157
158
157
158
158
160
160
161
161
163
161
162
161
161
162
163
162
160
156
154
153
153
154
178
155
107
82
82
83
78
117
165
124
64
41
63
83
59
58
53
57
63
68
61
68
78
85
86
82
80
75
72
72
75
80
82
80
74
70
92
93
93
93
106
117
100
112
97
111
104
83
95
74
68
99
83
70
76
65
62
64
60
50
49
56
50
34
29
32
36
41
48
49
46
45
46
46
49
49
50
51
52
52
55
57
63
63
61
62
66
71
77
82
87
90
92
93
96
91
85
80
79
76
72
73
77
79
79
72
60
67
67
70
79
67
79
72
72
80
82
80
73
69
84
87
94
97
94
93
95
92
88
87
90
90
89
93
101
104
100
94
92
88
80
78
78
79
81
78
75
66
61
62
59
56
56
57
45
62
76
77
62
53
55
58
62
64
68
70
73
70
69
73
81
82
76
75
80
84
81
69
54
47
50
53
44
29
24
30
34
38
37
40
43
47
46
41
41
46
46
48
45
41
39
36
31
27
29
34
39
46
54
55
53
50
47
51
58
61
63
63
63
61
61
64
67
70
71
72
74
75
73
72
72
70
68
67
67
68
68
65
60
57
58
60
63
63
60
58
58
58
54
45
45
54
59
58
58
63
64
51
46
59
68
75
73
64
60
63
66
71
70
63
58
59
66
78
67
78
78
70
83
73
67
67
66
64
89
102
94
104
93
110
104
94
114
109
106
105
119
140
167
129
94
84
92
93
93
92
94
99
105
105
105
106
105
102
101
99
106
109
105
104
104
104
101
116
116
102
95
97
101
106
109
108
113
121
110
84
102
110
105
97
88
98
97
93
103
86
83
93
86
91
92
91
87
84
83
83
85
86
85
84
85
85
84
86
91
94
98
101
102
102
103
106
107
108
108
110
111
114
115
107
88
75
72
74
74
74
75
77
77
73
70
69
68
70
70
65
65
70
70
65
65
72
75
72
71
71
71
70
70
73
73
70
70
70
67
63
68
73
71
69
68
64
84
91
90
79
58
94
124
126
109
112
97
80
68
81
81
68
75
86
88
70
49
23
7
3
16
16
12
14
21
35
53
59
56
52
53
52
45
39
38
32
31
38
50
54
50
53
53
44
39
38
40
41
43
44
52
59
61
57
59
64
67
66
67
64
68
71
74
70
73
79
80
71
67
63
62
62
61
62
66
72
64
59
69
70
69
65
61
57
52
48
43
40
31
21
17
22
24
24
24
24
23
23
23
22
22
23
23
23
22
22
22
21
17
13
15
18
17
15
16
15
36
46
59
67
45
49
55
58
61
63
48
26
18
20
21
21
22
22
22
22
23
23
23
23
24
24
24
24
25
25
25
25
27
27
27
27
26
26
24
24
24
24
23
22
23
23
22
23
26
33
39
73
133
140
130
126
128
128
128
130
134
138
145
151
154
154
155
155
155
155
157
156
156
157
158
157
158
157
158
158
160
158
156
151
148
147
148
148
157
136
100
64
70
63
63
111
84
85
84
69
68
62
45
79
60
64
70
73
73
72
74
75
89
84
78
72
60
65
73
74
73
74
81
85
91
95
95
93
89
117
79
105
85
116
123
101
101
78
83
99
78
72
65
57
72
50
46
63
56
40
33
37
37
41
45
50
51
49
45
45
50
52
50
48
50
51
52
52
55
57
61
61
60
61
66
71
76
74
69
73
86
101
96
84
80
79
79
76
72
73
77
78
77
75
54
71
74
70
86
66
83
68
68
82
70
75
82
82
85
89
92
97
92
93
96
92
87
91
99
94
89
91
101
105
101
94
88
83
80
81
83
85
88
77
70
68
65
61
59
59
59
54
49
67
76
70
54
50
51
56
62
66
66
63
64
66
66
68
78
81
73
69
74
72
69
66
60
56
54
50
39
27
26
31
34
37
40
42
45
47
43
46
46
41
41
49
49
42
38
35
29
27
27
31
35
43
53
56
53
51
51
54
58
58
55
56
61
63
59
60
63
65
68
70
72
75
72
71
71
72
73
73
71
68
66
64
63
56
56
56
59
61
61
60
59
59
57
51
51
57
58
57
57
58
60
64
67
70
65
54
50
54
57
59
65
72
70
59
57
61
65
73
63
72
73
63
74
66
66
67
66
65
75
95
110
113
92
97
101
112
141
129
147
135
131
139
177
136
117
128
118
106
106
118
104
110
118
122
121
115
109
105
104
113
110
99
99
114
113
97
96
95
96
92
91
96
105
108
108
105
112
124
113
85
103
110
105
97
87
96
97
92
102
87
84
95
86
91
91
90
88
85
84
83
84
85
84
83
84
84
85
86
90
92
96
97
98
100
102
103
105
106
107
108
110
114
115
109
88
70
68
73
73
72
74
80
80
75
71
70
69
70
70
66
65
68
69
66
67
72
75
72
70
73
72
67
68
73
73
69
69
75
69
54
56
73
79
73
70
68
57
91
114
119
82
104
110
99
87
68
63
59
62
76
80
68
88
84
78
69
79
70
51
27
7
7
7
7
14
21
37
49
52
50
55
55
48
40
39
33
32
39
52
56
52
50
50
45
40
39
41
41
44
46
50
55
59
56
60
63
66
66
69
69
70
73
74
74
75
75
72
69
67
65
63
62
58
53
56
57
57
52
58
60
61
60
58
55
48
42
39
33
26
21
19
22
24
22
23
22
22
22
23
23
22
22
23
23
23
23
23
23
20
17
15
14
16
18
25
28
40
40
40
40
48
50
52
53
57
59
49
29
22
24
24
23
23
22
22
22
23
23
23
23
24
24
24
24
25
25
25
25
26
26
27
27
25
25
25
25
24
24
24
24
24
24
23
22
28
30
67
129
131
138
133
121
128
128
128
130
135
140
147
152
152
152
154
154
153
152
154
154
154
154
155
154
154
154
157
156
157
155
153
148
144
143
144
144
147
110
74
67
82
79
58
78
80
64
87
72
70
75
77
97
85
81
75
70
83
78
72
68
87
83
76
72
70
70
70
71
74
78
84
89
98
97
100
103
95
117
70
92
77
91
91
77
82
88
78
74
77
72
58
50
66
47
44
59
49
45
35
35
43
47
48
50
49
48
45
50
59
59
51
48
49
54
55
56
55
57
60
61
62
66
70
73
74
70
65
67
79
98
96
80
78
80
79
77
73
74
75
77
77
79
57
71
77
70
85
71
68
82
82
68
79
80
87
94
97
91
88
82
89
92
97
94
92
95
101
97
92
93
95
95
93
90
83
79
79
83
83
89
87
74
63
65
65
62
63
65
62
53
53
71
74
66
54
46
49
57
67
74
71
62
62
68
68
63
71
81
78
70
70
67
66
66
61
58
51
41
29
23
27
31
35
38
43
46
47
44
43
49
49
39
40
49
50
42
37
35
29
27
28
31
32
36
46
51
55
56
58
57
58
56
56
58
63
65
62
61
62
62
65
69
74
75
72
71
71
74
75
75
73
71
66
64
61
64
60
60
58
58
60
59
56
53
53
52
53
54
54
54
56
56
58
63
68
71
66
53
48
53
58
57
60
66
65
59
60
60
63
72
65
79
78
65
74
66
65
68
67
68
78
86
90
110
109
126
149
148
159
136
145
139
145
161
163
134
119
125
118
106
106
118
108
112
115
114
112
113
119
124
114
121
116
102
97
107
109
104
98
98
98
96
98
102
110
114
111
106
113
124
115
86
101
105
103
102
90
95
94
92
102
87
85
97
87
90
90
90
90
87
85
81
84
85
83
81
83
84
85
86
90
91
94
95
96
97
100
101
102
103
106
107
107
109
110
108
90
71
69
73
73
72
74
81
81
75
72
74
71
71
70
66
65
66
66
66
67
73
75
72
70
76
75
68
68
75
75
68
68
80
79
58
56
76
83
82
76
68
71
88
104
107
104
116
123
121
112
98
93
94
88
74
76
93
75
73
74
78
80
78
73
66
62
54
41
32
12
11
13
22
32
37
42
48
49
44
39
34
34
40
51
54
51
47
45
44
44
44
44
44
45
47
50
53
56
56
59
61
67
73
74
75
73
73
72
70
69
65
62
63
67
71
66
65
60
56
53
59
64
63
58
56
57
60
60
57
50
42
35
28
23
21
20
21
22
23
22
22
24
22
24
24
24
24
23
23
23
23
23
23
23
20
17
14
15
18
25
29
40
40
42
44
45
47
48
48
48
48
42
35
34
34
31
28
24
22
22
22
23
24
24
24
24
24
24
24
25
26
26
26
26
26
27
27
25
25
25
25
24
24
24
24
24
24
23
22
27
50
104
145
129
138
138
128
133
133
133
134
140
144
151
154
153
151
153
153
154
153
154
155
154
154
155
155
155
155
155
156
154
152
148
145
142
141
138
137
156
105
78
89
127
113
73
82
78
71
80
74
74
79
82
85
83
76
70
64
63
68
74
80
84
83
76
71
70
70
70
70
68
71
77
82
89
96
106
113
105
114
94
105
80
87
87
77
69
70
71
71
73
65
63
53
51
57
54
44
41
51
56
51
47
47
46
46
47
47
47
51
59
58
50
47
50
54
55
56
55
57
59
60
64
69
73
73
69
70
75
75
75
82
91
85
82
80
79
77
74
74
75
77
80
86
73
73
76
73
79
73
73
79
79
72
92
89
83
79
92
90
86
86
88
92
98
101
100
88
84
91
99
103
94
87
86
86
83
80
80
80
80
83
81
73
63
62
62
65
64
63
60
54
59
69
70
66
62
53
56
66
76
81
80
73
73
78
77
71
76
88
85
75
68
67
66
63
59
52
41
31
28
28
29
30
35
38
43
44
44
44
42
46
46
41
42
47
47
43
40
37
31
29
32
32
32
31
34
42
54
58
60
56
57
57
60
63
71
75
77
74
70
67
65
69
74
75
75
74
74
72
70
72
78
81
79
71
60
57
58
57
52
52
57
57
53
51
54
58
58
56
54
54
54
58
58
48
50
66
73
72
61
56
64
66
61
63
64
64
61
53
56
70
66
84
86
74
81
72
72
74
74
75
82
76
84
111
118
142
171
164
169
140
140
133
138
154
143
131
121
120
118
106
106
118
118
115
112
111
113
119
126
129
126
130
125
109
109
100
98
107
102
104
105
106
107
108
108
113
112
106
108
120
117
88
98
101
102
110
98
96
93
93
102
87
87
97
88
91
90
90
90
91
90
83
83
84
83
81
83
84
86
87
90
90
91
93
95
96
99
100
101
102
105
106
107
107
107
106
92
76
70
73
73
72
74
82
82
75
75
75
71
71
70
68
65
63
60
65
68
76
77
72
72
79
79
72
72
79
76
68
68
78
82
72
67
70
76
86
78
57
71
78
103
112
118
116
123
132
131
121
115
122
90
59
58
71
63
67
72
76
64
72
85
93
93
84
72
63
40
29
22
23
27
32
37
44
51
47
40
39
39
42
48
49
49
48
47
47
47
47
47
47
47
47
50
52
56
57
59
62
70
78
78
78
81
79
72
68
67
65
62
62
66
66
64
64
65
65
59
56
60
63
58
56
57
60
60
59
56
45
33
23
20
22
21
21
22
23
22
23
24
22
25
25
25
25
23
23
23
23
23
23
23
23
21
15
15
18
25
29
40
40
41
41
41
41
42
42
40
36
37
48
54
51
43
37
31
24
22
22
23
24
24
24
25
25
25
25
26
26
26
26
27
27
27
27
26
26
26
26
25
25
25
25
24
23
24
23
39
97
134
141
134
143
142
133
137
137
137
138
144
149
156
157
154
151
154
153
154
155
156
156
153
153
154
155
155
155
156
156
158
156
153
152
150
148
141
136
156
87
71
101
137
120
77
82
74
80
72
77
82
84
84
74
75
70
64
59
57
62
68
72
86
84
75
71
69
70
70
71
74
78
85
88
97
100
102
104
104
95
114
106
87
80
80
87
70
52
63
84
73
52
76
55
53
57
54
47
48
58
64
57
50
47
46
46
47
48
48
48
50
50
50
50
51
52
54
55
56
57
59
60
64
69
73
74
74
75
80
80
76
72
76
82
83
80
79
77
75
74
74
75
78
85
85
68
69
80
73
78
79
72
72
79
93
89
83
80
84
87
89
91
90
92
99
104
100
88
84
88
95
106
99
82
78
85
84
85
83
80
79
79
77
74
67
63
62
67
60
53
51
52
70
71
66
65
66
56
59
70
73
74
75
78
78
76
78
76
82
91
86
75
63
70
67
59
53
48
39
31
29
28
29
31
35
38
40
40
40
44
43
41
41
46
47
42
42
47
46
42
36
33
35
33
33
34
35
39
41
40
39
44
61
69
68
66
68
72
75
74
70
67
65
69
74
77
78
78
78
72
61
59
65
70
70
63
53
51
56
57
52
52
57
57
53
51
54
58
58
56
54
53
53
59
61
50
48
60
67
70
64
53
56
65
70
66
64
70
65
48
42
53
50
67
70
58
65
60
67
74
74
75
88
70
95
115
113
134
149
150
162
138
138
123
116
124
128
128
124
118
118
106
106
118
123
117
110
104
134
129
124
119
124
136
137
119
122
104
99
111
104
106
107
108
109
109
107
108
108
104
104
115
117
91
98
95
103
112
104
99
93
92
98
87
87
97
90
91
90
90
90
91
90
86
84
84
81
81
83
84
85
87
90
90
91
93
96
97
99
99
100
101
105
106
107
107
103
99
89
78
75
76
75
71
73
85
87
79
75
76
74
70
69
68
66
62
60
63
69
76
77
73
70
75
78
73
73
77
73
70
70
71
74
78
69
55
63
85
78
55
53
69
102
126
115
103
111
133
138
121
121
128
114
102
82
69
76
81
78
70
78
76
75
69
81
81
83
81
75
66
63
54
37
37
43
45
48
52
44
40
42
45
47
47
47
47
49
49
49
49
50
49
49
48
50
51
55
56
59
61
71
79
81
83
84
77
70
69
70
73
69
65
63
56
53
63
66
73
64
49
43
48
54
57
62
58
58
64
56
46
31
23
19
21
20
20
23
23
22
23
25
24
26
26
26
26
24
24
23
23
23
23
22
22
23
20
16
20
26
28
41
41
41
41
36
35
35
36
36
29
36
57
69
64
51
43
37
30
25
22
23
25
25
25
24
25
25
25
26
27
27
27
27
27
27
27
26
26
26
26
25
25
25
25
25
23
23
23
65
135
157
137
137
147
147
136
143
143
143
144
149
152
158
161
153
152
154
154
155
156
157
157
155
155
156
156
156
156
159
160
162
161
161
162
163
162
153
148
134
66
58
107
112
101
71
86
72
87
65
80
93
88
84
74
70
66
60
60
64
63
57
54
86
84
75
70
69
70
70
73
89
94
100
104
118
108
94
83
92
70
116
95
91
79
77
91
91
58
65
99
69
44
84
58
67
45
41
58
76
64
56
49
49
49
48
46
48
48
48
47
45
45
49
50
51
52
54
55
56
57
59
62
68
71
72
77
83
83
78
74
71
76
74
77
79
76
75
78
78
74
74
77
75
75
83
62
66
84
68
79
81
71
72
82
81
84
87
89
80
85
90
91
91
95
100
95
97
100
103
96
91
92
89
78
78
84
86
87
86
83
82
77
76
76
70
62
60
64
59
48
44
48
83
78
62
63
65
58
58
60
62
65
67
73
71
66
74
77
82
86
83
73
69
70
65
55
50
51
48
37
24
22
27
31
35
36
37
37
39
45
44
40
40
49
51
42
39
46
48
46
42
40
38
32
32
33
28
32
40
46
48
51
56
61
63
62
58
58
63
68
70
70
67
70
74
79
82
83
83
84
86
84
78
75
77
77
78
77
71
67
59
57
57
57
54
50
49
54
58
53
50
48
53
65
66
65
60
58
56
54
59
63
60
61
60
51
53
71
73
59
56
66
61
71
70
60
67
63
66
68
68
72
99
79
76
98
107
116
142
156
153
136
147
137
123
113
105
124
129
119
132
118
118
132
133
125
132
147
150
145
137
131
124
113
115
128
118
118
116
114
112
109
108
108
108
109
109
107
105
104
103
107
110
107
98
94
104
109
105
103
98
94
93
88
90
95
90
91
91
91
91
91
91
88
84
81
83
82
83
83
83
84
87
89
90
91
96
96
96
98
101
102
104
105
107
107
101
88
80
78
81
80
76
69
72
93
101
89
82
85
78
70
69
69
65
63
62
64
68
72
75
73
69
68
72
70
71
70
68
71
71
68
70
75
63
52
61
81
77
61
68
55
69
103
108
96
94
109
122
125
123
113
111
109
93
69
69
80
83
76
80
74
69
64
77
89
87
87
87
84
83
80
80
82
80
82
68
63
56
50
48
48
50
51
54
55
57
57
58
58
57
55
53
50
50
52
53
54
56
56
67
68
69
70
70
74
73
72
71
69
69
67
65
66
66
64
66
66
67
68
67
68
69
70
67
56
56
67
53
44
34
27
19
21
21
22
22
24
24
24
24
27
26
26
26
26
29
28
26
25
24
24
24
24
25
25
27
26
29
30
41
40
40
40
32
32
32
32
36
42
48
54
58
60
60
60
56
47
33
26
27
26
26
26
25
25
26
26
28
28
29
28
29
28
27
27
27
27
27
27
25
25
25
25
29
23
28
41
96
136
158
142
148
148
148
148
147
147
148
148
150
153
155
156
151
151
153
154
155
155
156
157
155
155
157
156
156
156
161
161
164
163
166
168
170
168
160
156
134
50
41
71
114
66
78
89
84
63
71
102
88
93
88
72
80
101
107
81
48
101
82
62
85
84
75
70
69
70
70
72
92
82
84
103
129
107
89
89
126
97
105
105
74
84
74
77
73
77
70
64
68
76
64
37
48
55
96
101
69
67
57
53
51
51
48
47
48
49
49
48
47
47
49
50
51
54
55
56
57
58
59
66
74
76
72
76
85
85
78
72
72
77
79
81
78
72
71
78
80
74
75
82
80
70
82
64
67
83
67
77
79
75
78
84
79
79
83
85
80
83
87
86
90
98
99
95
95
101
101
94
88
87
86
82
85
85
84
83
83
82
81
76
76
76
67
60
59
62
58
46
46
46
94
83
57
58
63
65
60
57
56
64
70
70
65
62
71
82
83
78
75
75
72
63
61
57
52
53
50
36
23
23
29
33
35
36
37
40
43
46
47
44
45
52
52
45
39
41
44
47
48
49
41
31
31
33
29
31
38
43
49
52
55
56
55
55
55
58
61
65
68
69
57
75
96
102
103
105
101
93
91
90
83
79
68
68
68
73
78
73
64
58
57
57
54
52
50
54
58
53
49
48
54
61
61
67
66
58
56
56
59
63
60
60
57
52
57
72
78
71
68
70
65
65
63
61
67
68
68
64
64
72
95
78
75
90
106
115
124
137
146
148
130
132
134
137
100
119
138
145
125
127
141
155
164
149
143
150
156
153
151
149
118
104
102
111
109
109
109
109
96
96
96
97
103
108
109
107
105
103
102
101
101
100
97
97
102
105
105
105
103
99
94
91
91
95
91
91
91
91
92
91
91
91
87
85
85
84
82
79
79
80
85
86
86
87
91
92
94
96
100
101
101
102
103
105
100
83
74
76
78
77
75
70
80
104
114
104
99
101
89
73
70
69
66
63
64
64
68
68
72
72
69
68
69
70
70
68
67
70
70
69
70
68
60
57
65
74
76
72
73
57
68
98
119
117
111
116
100
104
102
90
77
83
68
46
44
51
62
79
84
78
76
76
76
79
81
80
80
80
81
81
80
82
83
84
84
82
78
77
79
80
82
83
84
84
84
83
81
79
78
76
72
71
72
72
72
72
72
71
70
70
70
72
73
74
75
75
73
72
71
70
69
67
66
66
65
65
65
65
66
66
67
67
64
58
59
65
50
43
35
28
24
22
23
23
24
24
25
24
25
26
26
27
27
27
32
32
33
32
32
31
29
28
26
26
29
30
32
33
34
36
38
36
34
33
33
34
41
47
53
57
60
60
60
60
60
52
39
32
28
27
27
27
25
25
26
26
28
29
30
29
29
28
27
27
27
27
27
27
25
25
25
25
30
25
34
52
120
136
152
144
148
148
148
148
147
147
147
147
148
148
149
149
149
149
150
151
154
154
156
156
155
155
158
157
157
157
162
163
164
166
168
168
168
165
158
155
128
68
54
46
83
69
85
73
74
59
62
82
84
99
106
98
90
73
85
138
105
112
101
102
85
84
75
70
69
70
70
74
89
81
105
153
161
131
101
93
111
90
98
90
79
89
71
80
77
65
64
77
76
60
63
83
102
90
109
98
69
66
57
51
50
48
43
43
47
49
49
49
48
48
49
50
51
54
55
56
57
59
63
71
76
76
73
76
81
83
81
81
81
85
88
87
81
76
74
77
77
74
75
81
82
71
80
69
70
81
69
76
78
78
81
82
80
79
80
80
81
80
83
84
90
95
95
93
95
96
92
88
86
88
92
93
95
88
82
73
72
74
76
75
76
73
64
61
61
62
58
49
47
53
97
74
57
59
64
63
62
60
59
65
70
68
66
64
66
74
75
66
69
76
72
61
58
57
52
52
45
30
22
27
32
35
35
35
37
42
48
50
51
53
53
53
52
48
42
38
42
47
50
53
42
33
31
33
32
32
38
39
40
41
46
48
47
48
54
58
57
57
57
57
96
80
73
82
102
119
108
74
93
90
83
79
68
68
68
72
78
78
70
63
58
57
56
59
57
46
42
46
52
59
57
45
45
58
66
64
61
58
54
54
59
63
63
61
63
68
73
74
77
74
70
65
64
67
73
74
67
54
54
65
106
91
80
87
109
118
116
116
127
144
117
124
133
140
101
108
127
146
132
148
160
163
171
156
150
157
148
150
154
155
126
107
98
103
102
102
101
99
98
97
96
96
99
104
107
110
94
94
95
92
90
91
94
98
103
105
106
108
108
104
99
95
93
95
92
92
91
91
92
92
93
92
90
92
99
99
91
84
79
79
80
83
84
83
85
87
91
94
96
97
98
98
100
102
98
84
75
73
70
70
71
71
81
104
114
107
109
109
91
73
69
70
66
65
66
65
66
66
67
69
72
73
71
71
70
70
69
65
65
69
68
65
63
62
66
66
74
84
81
61
65
89
117
130
119
116
115
118
116
105
83
102
90
67
58
55
61
78
82
75
64
67
73
79
81
80
80
80
81
81
83
84
85
85
87
91
94
97
98
98
98
98
97
98
98
100
100
101
101
102
103
103
103
103
91
91
91
91
80
80
81
81
82
82
84
82
80
79
79
79
66
66
66
66
65
64
64
63
61
60
61
58
60
65
66
58
50
43
35
30
28
28
28
26
26
25
25
25
25
27
28
28
28
28
31
31
21
21
20
20
32
32
32
31
31
29
29
30
31
32
34
35
37
38
41
42
47
53
60
62
61
60
60
60
67
58
47
37
32
27
27
27
26
26
27
27
28
28
30
29
31
30
29
29
28
28
28
28
26
26
26
26
28
28
44
66
142
137
148
150
148
147
147
146
143
142
143
141
141
140
141
142
143
144
147
148
148
151
153
154
154
155
155
158
157
157
161
161
162
163
164
164
161
156
151
147
114
72
63
48
74
63
77
63
76
68
65
68
84
100
107
98
96
104
88
126
125
134
132
97
85
85
74
70
68
70
70
74
91
105
143
188
141
110
80
71
104
96
104
84
88
92
68
71
77
64
64
76
69
56
80
129
120
99
102
80
69
66
57
53
53
53
47
46
48
50
50
49
48
48
50
51
52
52
52
55
59
64
69
71
72
73
77
78
79
80
84
87
86
87
85
81
80
85
84
74
70
74
73
75
78
75
80
72
72
81
72
74
77
78
82
82
77
75
74
78
83
76
78
88
90
86
86
91
94
92
88
85
88
89
89
93
93
88
83
78
73
74
74
73
71
67
64
66
64
62
58
48
50
69
92
65
52
65
70
58
56
64
64
60
63
66
69
67
64
69
70
63
68
76
72
61
58
57
52
49
41
26
24
30
37
37
38
37
40
42
48
50
52
52
52
51
48
46
44
42
43
47
50
53
47
35
31
28
28
32
36
38
35
36
41
42
42
43
49
53
52
52
53
53
41
75
98
100
88
93
104
115
93
90
83
79
68
68
68
70
71
70
66
63
60
59
57
59
57
46
42
49
57
63
54
39
39
53
61
61
60
58
54
54
59
63
63
63
63
60
65
70
67
61
57
52
51
54
60
66
70
63
63
73
123
113
88
83
101
116
115
101
102
118
112
113
116
117
107
96
101
121
150
165
165
150
152
144
151
166
132
137
146
150
142
121
107
109
103
103
104
104
105
105
105
104
103
100
105
107
91
91
90
91
80
84
91
99
105
106
106
109
108
106
101
98
98
99
95
93
91
91
92
91
92
91
88
87
87
85
76
69
74
79
78
78
79
82
84
84
88
91
93
91
91
96
96
97
94
84
75
71
67
65
68
69
75
95
105
102
108
110
88
70
68
70
68
66
68
64
63
65
63
65
72
75
76
72
69
70
69
62
64
70
68
64
67
68
66
62
74
93
87
65
62
83
100
120
118
111
115
120
117
105
83
115
109
83
72
75
71
69
78
89
83
77
80
87
88
86
85
84
84
84
85
85
85
83
82
85
93
97
96
93
93
91
90
87
87
86
86
84
84
84
86
88
88
88
89
89
92
93
94
94
94
93
91
88
88
86
83
82
83
83
66
66
70
66
65
67
63
63
58
56
56
56
55
69
69
55
50
44
35
30
31
30
29
28
29
27
27
27
27
29
29
30
29
29
31
31
31
32
32
32
33
34
34
34
31
29
29
28
29
28
28
28
45
45
45
46
51
57
63
65
62
60
60
60
72
63
50
43
36
29
28
27
27
27
27
27
28
29
31
30
31
30
29
29
28
28
27
27
26
26
26
25
27
30
49
76
142
135
150
150
148
147
146
145
141
140
140
138
138
137
138
137
139
141
143
143
146
148
152
153
153
154
156
158
158
158
158
156
155
154
153
154
154
151
146
142
100
55
64
76
80
47
57
73
89
87
78
69
88
95
88
73
81
103
91
161
165
128
133
118
85
83
75
68
68
70
74
75
97
140
174
187
121
99
81
81
112
112
121
91
92
92
63
66
64
74
71
63
53
65
104
150
91
72
78
58
69
65
57
56
66
64
58
53
50
50
49
48
48
48
50
50
51
51
52
56
62
66
70
70
70
71
78
79
78
78
83
85
83
80
76
73
79
88
87
77
70
74
76
77
80
78
78
73
74
80
76
73
73
77
78
78
76
74
71
77
83
75
76
91
93
82
84
95
97
92
89
87
88
88
88
87
84
84
87
88
86
82
78
71
66
64
67
66
64
62
58
45
50
79
85
59
51
68
73
56
54
67
67
60
60
66
73
72
71
75
76
70
71
76
73
63
61
59
54
48
38
27
27
33
38
39
39
39
41
43
45
48
48
48
46
45
45
45
44
44
44
48
49
49
44
38
30
23
29
35
38
39
39
41
45
43
41
41
46
52
57
59
60
60
79
73
73
79
80
101
105
90
91
89
81
79
70
66
64
61
65
61
59
57
57
58
58
54
51
56
61
61
58
52
50
51
50
52
53
52
54
58
60
61
60
57
56
60
60
54
59
71
73
70
66
63
61
64
68
68
63
53
52
61
116
115
97
79
90
121
113
109
102
98
124
105
98
109
111
97
91
98
117
152
167
156
152
156
161
172
154
140
143
152
141
129
129
142
120
120
119
119
116
99
90
97
104
99
101
104
94
90
85
83
86
89
88
88
105
109
108
106
109
106
102
101
103
102
97
92
91
92
91
91
92
91
86
85
86
86
80
76
80
84
82
77
77
83
85
79
81
89
90
82
85
94
94
92
92
84
75
71
67
62
65
69
73
88
101
100
106
109
87
71
69
70
68
68
69
64
61
63
62
59
66
79
79
73
70
67
65
64
69
71
68
67
71
72
65
61
72
93
74
68
63
60
87
111
125
125
102
103
112
119
77
103
116
104
89
86
80
70
72
83
87
82
84
89
90
87
88
87
86
84
83
81
80
80
84
87
86
86
96
84
84
96
92
91
89
87
87
86
83
84
86
89
90
90
90
90
92
92
104
98
91
87
89
91
89
88
87
87
85
85
63
70
74
78
77
69
62
48
64
61
55
51
53
43
51
72
50
44
36
32
29
30
30
31
30
30
30
31
31
31
32
33
21
22
22
22
35
34
34
32
31
30
30
28
31
34
41
43
41
38
38
37
36
40
47
52
57
60
61
61
62
62
63
62
61
61
64
65
50
23
17
26
29
29
30
30
31
32
33
32
30
29
30
29
27
26
26
26
25
25
25
26
31
35
56
111
143
137
134
132
134
136
136
136
139
139
136
137
135
135
137
136
139
139
142
142
144
146
146
145
147
149
154
155
155
153
151
149
148
147
147
148
148
147
144
140
115
60
52
80
91
48
42
78
105
92
70
51
59
68
76
79
77
126
167
190
168
166
126
117
97
81
75
89
68
72
76
84
105
144
240
188
99
85
125
124
98
104
121
97
91
88
61
81
71
73
69
53
90
102
114
103
102
63
79
97
74
66
74
86
74
67
62
56
53
51
50
47
48
49
49
50
51
54
57
59
63
65
66
67
67
71
77
79
78
78
80
80
81
78
76
76
79
85
85
80
77
76
81
85
84
81
77
77
78
79
79
72
73
76
77
77
75
75
74
79
82
77
81
93
93
80
86
101
97
92
91
91
91
89
87
84
80
81
86
86
83
83
80
69
64
65
69
66
64
63
57
44
52
87
76
58
56
68
74
58
55
68
68
63
65
71
77
75
75
78
78
75
75
76
75
70
64
60
55
48
37
26
26
36
40
41
42
42
43
44
48
50
52
51
46
45
48
48
47
45
48
50
51
50
47
41
34
29
33
36
34
34
36
38
39
39
37
40
45
49
54
59
65
69
60
82
84
65
75
91
103
103
89
89
81
78
72
68
68
72
70
66
61
59
59
60
60
56
52
57
63
60
57
52
52
57
57
51
50
54
57
58
58
60
60
54
54
60
60
53
58
67
68
66
65
65
65
65
67
66
61
57
58
60
114
116
99
79
83
108
113
109
101
98
100
98
105
116
112
97
91
98
98
128
152
156
159
160
161
162
151
146
135
136
130
118
118
130
119
119
119
119
115
101
98
107
102
101
100
101
96
90
83
82
86
89
88
88
103
110
111
111
112
111
108
103
98
94
91
88
88
91
92
93
93
92
88
88
94
97
93
94
96
94
90
82
77
83
83
74
75
87
90
83
84
94
94
90
91
84
75
72
69
62
63
68
75
89
102
103
106
107
87
73
69
70
68
69
70
63
60
65
65
58
61
72
76
76
74
69
65
68
70
70
67
68
74
74
67
61
69
84
60
63
70
74
86
100
107
105
100
89
84
94
85
98
107
109
106
93
88
87
75
63
69
80
85
87
89
86
87
86
86
86
88
90
93
93
89
87
86
86
96
84
84
96
92
93
93
94
94
96
96
98
100
100
99
97
95
93
92
93
96
95
93
91
91
91
91
89
90
88
88
89
86
77
71
71
70
65
65
71
75
72
66
61
55
50
53
62
50
44
36
32
28
28
29
29
29
29
31
31
31
31
34
35
38
39
40
38
37
37
39
41
41
42
44
45
34
37
44
47
46
44
44
44
43
47
52
57
61
62
62
62
62
62
62
62
57
64
73
81
66
48
42
43
32
32
32
32
33
33
33
32
30
29
30
29
27
26
25
25
25
25
25
28
37
37
71
125
143
141
134
131
132
133
133
133
135
135
135
136
136
135
137
137
139
139
140
140
142
142
141
141
143
145
151
152
151
148
147
145
146
145
146
146
145
143
141
137
109
74
60
64
64
56
56
64
67
65
61
57
61
62
66
73
77
141
181
149
127
148
118
104
114
86
70
72
85
80
73
68
92
146
222
157
106
103
119
134
108
102
114
96
83
79
65
79
63
63
70
79
107
123
106
96
89
60
77
85
74
71
74
78
72
66
63
59
58
54
52
50
50
49
49
49
51
56
60
62
62
63
64
66
67
71
77
79
78
78
79
78
79
78
78
78
79
84
84
80
80
77
82
84
84
85
76
79
80
78
81
69
71
76
77
77
77
77
80
81
82
81
85
88
85
75
81
93
92
87
88
89
89
89
88
86
86
84
81
77
75
79
75
65
64
69
67
65
63
62
55
46
57
92
70
63
64
64
71
61
60
66
66
67
68
73
74
73
74
74
75
73
73
72
73
70
63
58
52
47
37
26
25
37
41
42
43
43
44
45
48
55
64
64
54
50
51
52
50
49
53
55
60
60
56
50
43
35
32
30
26
26
30
34
34
34
34
37
42
42
42
49
64
76
84
71
67
72
95
112
108
83
90
87
84
79
75
71
68
73
80
75
68
66
63
61
60
62
60
58
53
51
52
54
54
58
60
57
57
65
66
61
53
52
57
57
57
60
58
56
60
61
54
50
52
53
56
57
61
64
67
70
72
72
112
117
101
81
72
96
113
109
101
98
88
98
105
103
112
97
90
98
92
110
128
141
166
165
160
156
146
155
152
139
130
118
118
129
119
119
119
119
113
103
107
121
102
104
99
100
95
91
84
82
86
89
89
89
96
108
112
113
112
112
108
101
93
92
93
93
92
91
90
94
98
95
92
93
94
90
83
83
83
82
77
71
71
79
79
68
70
84
93
87
87
94
94
90
90
86
76
74
69
65
62
68
75
89
102
103
106
107
87
74
69
70
69
70
73
63
59
67
70
61
59
62
67
79
83
72
70
70
68
65
64
67
71
72
69
62
61
72
60
63
70
74
78
98
110
114
109
87
63
81
71
67
69
81
88
79
74
80
81
76
82
90
88
88
89
86
86
85
86
85
79
86
96
103
86
86
86
87
96
84
84
96
92
91
91
90
90
89
89
86
85
84
86
87
89
90
92
91
91
93
97
97
93
91
92
92
94
95
96
96
99
77
71
84
83
65
65
83
76
72
66
61
57
60
56
50
48
43
36
32
28
27
27
25
25
24
24
25
30
32
33
33
22
23
23
23
24
24
24
24
25
25
24
23
25
29
35
40
29
29
29
29
41
45
52
56
57
56
54
53
50
49
48
48
46
48
50
52
54
47
41
30
39
39
38
36
35
33
33
32
31
30
30
28
27
26
25
24
25
25
27
35
43
36
81
140
144
141
133
130
126
128
128
128
128
130
131
133
134
135
137
139
140
140
140
139
139
138
138
137
138
141
145
148
148
147
147
147
145
145
145
145
144
142
137
134
118
77
57
56
56
64
65
58
47
50
53
49
74
53
49
66
63
71
65
101
96
89
79
119
114
85
70
73
84
80
73
68
75
118
164
115
88
131
111
122
122
99
104
94
76
73
71
69
77
63
70
93
125
113
97
88
91
74
91
85
90
95
90
76
68
69
72
72
67
60
54
53
52
51
49
50
54
60
62
63
63
64
64
65
67
72
77
79
79
78
78
78
78
79
78
76
77
89
89
77
76
82
78
72
77
88
76
83
82
78
84
68
69
75
76
78
80
81
82
82
86
89
87
82
80
78
79
84
87
87
88
89
91
89
87
86
86
84
81
80
83
86
78
65
65
70
69
64
59
58
53
47
64
99
69
72
71
62
67
63
63
62
64
70
69
71
68
70
69
69
70
69
69
68
68
66
59
51
47
43
35
27
28
37
42
44
45
45
47
47
48
54
64
66
61
58
57
55
53
50
50
55
62
64
61
55
48
39
33
30
26
25
27
29
29
28
29
32
37
35
32
38
53
65
61
83
100
105
83
66
70
95
90
87
87
81
78
74
68
71
74
70
67
67
63
61
61
62
60
58
53
51
52
54
54
58
60
57
57
66
70
66
58
53
56
60
59
56
54
60
66
65
66
66
68
68
70
70
70
68
66
65
64
63
108
119
98
82
76
88
113
109
102
98
94
105
98
79
112
97
89
98
92
104
110
117
157
165
160
152
151
160
173
167
141
130
129
141
119
119
119
119
111
106
114
132
108
100
101
97
95
93
84
83
87
89
89
89
96
103
107
109
105
104
101
97
98
99
101
102
99
95
92
95
101
98
91
98
105
105
106
98
94
94
86
80
72
68
73
61
65
84
90
90
89
93
93
89
89
88
78
75
70
66
66
70
76
88
99
103
107
107
90
74
68
69
70
72
74
65
62
69
72
65
60
58
61
76
84
75
72
70
65
64
64
65
69
70
68
63
58
65
71
68
64
60
78
97
122
140
124
90
68
76
85
69
68
72
68
65
62
58
62
71
81
84
84
87
88
87
86
87
86
82
63
72
86
97
86
86
87
87
96
85
85
96
92
92
90
94
101
103
102
101
98
97
96
95
94
93
93
91
88
92
100
101
95
92
97
95
96
97
99
99
92
70
77
107
106
71
60
77
64
60
55
50
58
66
58
38
50
43
36
31
28
27
26
24
23
22
21
19
32
32
33
33
64
64
64
63
92
92
92
92
108
108
108
108
139
144
150
155
169
170
170
166
162
164
170
172
171
169
168
169
159
159
160
159
160
152
136
127
106
108
103
83
42
42
41
39
36
34
33
32
32
30
29
29
28
27
25
25
25
25
28
51
53
51
87
146
143
141
133
128
123
123
123
125
124
125
127
130
131
133
137
138
140
140
139
137
136
135
135
135
137
139
144
146
146
147
148
149
147
146
146
146
144
140
136
132
135
67
44
61
66
59
58
64
62
58
53
46
78
46
38
60
69
95
52
108
138
121
77
81
97
78
77
89
68
73
80
84
62
75
101
83
95
189
145
140
133
97
98
92
68
79
69
72
105
70
63
87
118
106
92
62
103
97
113
98
114
126
116
86
81
74
78
75
72
71
62
58
56
56
56
56
57
60
62
63
63
64
64
65
67
73
77
77
77
77
76
74
76
79
81
77
78
89
87
72
71
81
80
72
74
85
78
84
81
78
84
72
73
80
81
79
80
82
85
85
85
91
87
80
82
87
86
86
89
92
91
91
91
88
84
81
79
80
84
88
91
90
83
72
67
67
69
58
53
55
46
49
67
94
75
75
70
61
67
61
61
61
66
73
69
67
67
68
68
68
70
69
68
65
65
61
55
49
42
39
31
27
29
37
41
42
46
47
48
47
44
44
51
57
61
62
59
57
56
52
49
49
55
59
57
52
46
42
42
41
35
32
29
28
25
23
21
24
31
34
34
36
42
45
64
50
61
90
103
87
75
75
86
90
87
85
79
75
71
66
63
66
64
62
63
63
62
59
52
51
54
56
56
54
54
56
56
50
49
54
59
60
63
60
58
60
58
51
54
64
67
64
68
70
67
64
61
63
67
68
68
70
71
68
106
95
69
97
97
79
101
92
99
114
98
98
98
98
97
85
87
97
100
96
89
85
108
122
145
154
137
152
159
151
146
166
171
159
149
142
133
131
128
125
117
115
119
96
85
92
97
94
96
97
81
86
94
99
99
100
102
100
101
101
100
100
102
101
98
98
97
97
97
101
102
95
88
97
105
103
113
100
96
100
91
92
81
63
69
61
66
87
86
94
91
91
91
88
89
89
85
77
71
68
76
80
85
89
94
97
104
107
96
79
69
69
72
74
74
70
68
69
70
68
65
65
62
65
72
74
72
67
64
67
64
63
65
67
67
67
63
58
62
68
64
66
74
92
115
137
117
83
69
71
79
58
50
57
58
61
66
64
64
65
72
80
82
82
83
82
83
90
88
80
75
75
75
75
75
84
100
108
83
83
112
111
75
98
87
87
69
96
100
79
100
75
87
90
89
87
97
112
87
82
78
78
99
107
100
88
96
97
97
87
62
49
52
67
93
83
67
56
71
68
62
55
54
60
66
64
59
57
57
57
62
65
86
111
127
137
151
162
176
176
176
176
185
199
216
219
232
236
240
238
225
208
221
203
231
236
252
241
242
233
219
214
218
218
219
219
206
206
206
206
229
218
218
225
234
242
250
246
244
241
238
239
213
191
160
135
78
60
35
18
36
32
34
38
18
17
24
37
30
27
34
58
50
49
109
153
132
127
121
116
112
115
117
118
121
122
127
129
131
133
139
140
141
140
138
137
136
137
136
137
137
140
145
147
147
148
151
151
153
153
153
153
152
147
140
134
124
78
48
50
58
44
44
58
48
48
48
46
49
52
59
62
69
65
120
143
85
70
91
76
99
67
102
75
78
88
57
67
47
91
85
85
97
98
125
119
119
102
99
84
72
61
60
71
88
50
48
36
95
96
62
64
68
111
129
110
79
114
78
104
101
78
84
71
69
76
61
58
55
55
60
61
60
60
63
63
63
63
64
64
67
74
77
71
70
71
72
74
78
80
83
83
78
78
75
66
66
77
83
79
76
77
78
81
78
76
82
76
74
84
86
79
79
82
82
82
84
85
84
80
84
92
91
87
88
89
86
85
87
87
82
77
75
79
84
86
86
84
80
76
70
64
69
53
47
53
43
60
76
84
77
72
69
64
64
61
62
63
67
69
69
67
68
68
69
69
70
69
68
64
61
58
54
48
40
33
30
28
30
37
40
41
44
49
49
50
49
50
50
54
58
58
55
53
56
56
54
53
52
52
54
53
51
49
48
47
43
41
39
38
35
30
27
28
30
31
31
34
40
44
50
56
56
65
67
74
84
90
105
101
92
85
81
78
74
70
66
70
70
64
64
66
67
63
54
49
54
57
57
56
54
54
52
49
46
49
51
54
59
60
58
58
54
50
53
64
65
61
64
67
64
59
57
59
66
67
66
71
71
66
106
104
98
117
102
64
89
104
111
104
87
86
87
87
97
85
86
97
100
96
89
85
92
97
98
112
114
121
113
98
119
152
176
167
162
159
159
153
141
132
125
120
123
98
90
94
97
96
97
97
76
78
82
84
100
99
99
99
101
101
101
102
102
97
93
94
95
98
102
105
105
95
91
98
98
87
93
86
86
94
82
93
91
74
75
72
72
84
87
94
91
90
90
86
87
90
92
79
70
70
86
94
98
93
88
89
97
107
103
88
78
73
72
74
72
69
68
68
68
68
69
70
69
62
58
68
69
64
64
67
63
62
63
64
65
69
67
54
66
66
65
65
73
75
80
90
87
89
86
64
62
76
73
54
51
61
74
83
82
69
59
63
74
79
76
75
80
87
88
86
69
69
69
69
58
65
75
82
84
81
105
102
84
105
88
84
115
71
68
107
105
72
90
106
113
83
69
79
112
113
104
85
100
92
95
109
97
73
68
81
85
86
96
109
123
118
112
107
107
114
120
124
145
150
151
150
141
158
182
200
199
191
194
207
230
228
226
225
227
228
228
229
229
229
231
232
228
223
224
226
226
216
218
208
214
223
235
223
229
224
216
214
217
219
220
221
220
220
221
221
232
225
231
243
244
240
236
235
236
238
238
238
239
240
242
242
233
213
186
167
89
47
11
13
25
41
41
20
37
25
33
59
46
62
121
149
137
132
126
120
117
117
119
120
123
123
127
128
130
132
139
140
141
140
138
135
136
136
137
137
138
141
146
148
147
149
154
157
160
160
162
163
161
156
148
142
124
86
56
50
55
48
48
52
50
48
48
48
49
52
59
63
65
63
118
129
111
96
91
75
121
87
96
69
91
85
60
54
59
80
105
118
120
103
112
104
99
90
80
70
71
68
80
96
91
55
48
29
85
88
61
66
85
78
118
114
105
79
93
111
106
74
91
75
69
72
55
59
54
50
53
56
59
62
63
63
63
63
64
64
67
76
77
65
59
64
74
83
87
81
77
75
72
69
64
62
65
72
80
80
75
71
75
74
72
73
78
73
67
78
85
78
78
81
81
80
80
79
79
79
82
92
92
85
84
82
82
81
85
84
81
77
77
79
80
80
78
76
75
75
71
60
66
51
45
51
45
74
84
76
72
69
69
67
63
60
63
66
67
67
68
68
68
67
66
65
64
65
68
65
60
57
55
49
39
31
28
28
31
37
38
39
44
47
46
50
58
60
56
53
53
50
49
49
52
55
56
55
52
50
51
52
55
51
44
44
48
53
55
53
51
52
55
50
37
27
21
24
31
37
43
50
56
56
77
75
74
72
84
81
78
78
81
80
76
73
73
74
74
68
64
66
71
73
67
59
58
60
58
56
56
52
48
48
51
56
58
57
53
53
56
58
54
49
50
57
57
52
54
60
65
67
65
63
63
61
63
72
72
61
106
116
129
119
105
76
89
104
111
104
86
86
86
86
96
86
85
97
99
96
89
88
90
89
82
87
88
95
88
73
90
116
128
130
146
157
173
170
181
172
163
154
129
105
95
100
98
97
97
97
83
82
78
75
100
100
100
100
101
101
101
101
98
94
93
97
101
102
103
108
110
101
95
106
112
103
108
96
97
107
95
102
96
86
74
79
75
77
94
93
89
89
89
86
86
91
97
87
79
80
89
94
96
93
88
86
93
106
109
99
91
82
73
69
67
67
67
67
68
68
69
72
75
71
62
60
60
64
64
61
60
61
61
62
65
72
67
61
63
67
66
65
72
63
59
65
64
82
94
66
54
85
89
64
56
63
72
77
81
80
70
63
63
63
56
52
52
54
62
72
90
90
90
87
84
83
86
88
87
79
96
88
100
115
90
84
83
104
108
91
82
126
150
99
88
110
112
92
91
67
79
119
108
95
91
99
89
73
85
130
182
189
193
186
183
186
192
196
199
204
210
214
215
213
209
201
174
191
215
232
232
220
216
226
236
231
223
216
209
209
212
213
214
215
217
212
209
209
214
219
225
226
212
213
197
217
213
213
226
225
219
216
218
221
222
223
225
227
228
229
227
218
222
237
232
230
229
233
238
240
240
240
236
234
233
233
237
239
242
244
250
216
152
88
36
14
7
27
4
43
65
54
41
81
140
143
142
138
132
127
124
124
124
125
127
129
129
129
131
132
139
143
144
143
140
138
138
137
138
138
140
142
147
150
149
151
157
159
160
160
161
163
161
157
148
142
125
99
69
50
48
55
55
49
47
47
46
46
48
51
58
62
70
67
86
83
107
105
82
80
110
89
81
66
87
73
73
59
102
100
99
135
117
91
111
121
105
103
88
82
62
56
65
85
78
59
54
21
68
79
59
68
72
93
111
99
118
102
142
122
100
72
94
84
78
77
53
58
58
54
53
53
57
65
63
63
64
64
64
64
67
77
77
65
59
64
74
81
82
77
72
69
66
64
60
60
66
69
74
74
73
69
67
64
64
68
73
71
70
81
82
73
77
81
79
79
78
77
75
77
82
92
92
82
77
77
81
82
84
82
80
79
80
80
78
75
73
71
70
72
69
58
63
48
42
47
49
84
85
73
70
71
69
67
62
60
63
66
67
67
71
71
68
67
66
65
64
65
68
65
60
57
55
49
39
31
27
29
34
39
40
41
46
46
43
48
60
67
65
62
63
63
64
64
63
61
60
60
54
48
48
51
57
55
46
44
48
51
55
56
59
67
80
82
75
68
55
40
22
9
32
43
50
56
51
61
76
85
70
72
75
79
82
82
78
75
75
68
71
83
81
76
62
60
64
60
56
58
57
54
53
52
52
53
57
58
59
57
53
54
59
61
57
52
51
57
57
52
54
60
65
67
65
63
63
63
67
77
77
66
106
125
145
119
101
98
101
93
99
114
98
98
98
98
96
87
87
97
98
94
89
88
90
89
82
79
74
89
96
88
92
95
80
77
102
128
158
168
184
179
175
165
134
108
100
105
98
98
98
99
99
94
87
81
98
98
99
99
100
100
100
99
95
90
92
97
99
101
103
109
110
102
95
106
107
98
104
90
87
96
84
88
86
82
61
75
75
70
97
91
88
89
89
86
87
91
96
92
93
93
89
86
87
91
94
93
94
101
103
102
100
93
80
70
64
65
67
67
68
68
69
72
77
76
68
60
60
69
67
57
57
61
61
62
68
75
71
62
66
67
67
66
72
63
62
71
66
72
84
81
60
80
88
80
78
76
70
62
67
82
89
86
83
79
70
56
51
52
65
83
84
84
84
85
86
86
85
83
89
77
89
78
109
122
93
82
78
90
111
126
88
79
106
116
83
93
96
90
92
75
79
103
117
115
93
67
73
96
153
204
209
213
200
175
170
180
197
209
225
222
216
211
236
233
224
213
229
229
228
228
236
230
234
245
238
237
235
234
220
220
220
222
224
221
214
208
198
204
210
214
214
223
198
206
195
224
211
216
229
225
218
216
218
219
220
220
220
220
222
222
222
206
199
208
222
227
232
236
239
240
240
237
232
233
239
244
231
232
232
232
233
225
247
236
210
152
86
58
31
41
44
38
36
95
154
138
145
142
138
131
127
126
126
126
130
130
130
130
131
132
139
143
144
143
142
139
139
138
138
138
140
142
146
149
149
151
156
157
157
156
156
157
156
151
144
139
125
107
77
50
44
58
56
48
45
45
45
45
47
50
57
60
67
53
58
47
76
91
73
81
74
71
64
66
67
58
88
80
95
113
119
154
140
95
98
106
93
84
73
69
85
73
73
85
71
60
57
19
58
72
57
70
86
91
61
116
108
80
94
115
101
76
90
82
78
80
67
69
68
65
61
60
62
66
65
64
64
64
64
64
66
74
76
69
66
69
70
69
68
68
73
73
69
63
60
61
66
67
68
69
70
68
63
60
59
65
72
75
79
89
84
70
74
80
78
77
73
74
75
77
82
93
94
82
75
75
79
82
82
82
80
79
81
80
77
74
71
70
68
70
65
57
58
44
40
48
64
84
81
70
71
72
71
69
63
60
61
63
66
67
72
73
73
73
73
73
71
70
68
64
59
56
54
48
39
29
26
27
33
39
41
41
46
46
45
45
51
54
55
54
52
55
58
59
55
56
59
61
56
48
44
49
57
60
54
49
45
45
47
53
58
62
66
72
84
93
93
89
73
61
29
32
43
50
61
63
65
68
71
77
85
86
84
84
80
77
77
70
71
78
77
76
71
67
63
60
56
56
56
56
54
56
57
57
52
49
48
51
57
61
61
59
57
53
56
61
63
60
63
65
61
57
54
58
67
71
72
77
78
70
89
104
124
89
111
98
110
101
77
97
102
103
103
103
109
91
85
94
98
91
77
68
87
91
87
85
86
87
87
87
85
85
85
85
73
102
120
122
131
130
130
129
137
119
111
116
99
100
101
99
98
97
97
96
95
94
96
96
96
97
97
96
93
89
90
94
96
99
105
111
110
99
94
102
104
94
104
90
84
89
73
77
74
73
56
72
74
66
94
88
85
84
83
83
86
93
95
91
96
99
95
89
86
87
91
96
94
95
96
97
100
99
87
70
64
66
67
67
67
67
68
71
76
75
69
61
60
70
71
60
58
61
61
63
68
75
77
69
67
67
67
69
72
73
71
75
61
62
67
76
52
69
85
87
88
83
74
64
64
76
84
82
80
83
74
58
51
55
65
77
55
65
79
89
86
84
83
81
93
76
89
70
104
103
107
99
93
79
69
114
138
95
95
141
109
69
75
103
105
102
82
65
146
96
54
50
105
149
189
204
193
199
197
179
172
195
211
211
205
217
217
205
224
224
219
210
188
194
202
208
234
231
226
225
228
226
219
211
211
219
225
226
227
222
215
209
196
184
185
196
212
219
198
218
185
199
179
193
221
221
221
219
215
210
204
202
203
193
193
203
220
222
208
187
209
212
219
221
234
234
234
234
237
237
237
237
238
236
235
232
231
231
232
232
249
248
232
207
155
90
43
39
67
104
145
148
146
144
142
141
140
138
137
137
131
131
133
130
130
133
140
143
144
144
144
141
140
140
139
140
140
142
145
146
146
148
154
154
153
152
152
152
152
149
144
139
135
128
98
53
36
42
52
50
44
44
44
44
44
48
55
58
58
42
97
94
81
52
72
76
60
73
66
61
91
88
112
86
79
104
108
133
125
105
122
125
100
81
74
85
81
78
78
81
63
56
56
20
56
68
56
68
67
109
77
109
82
92
96
87
94
82
86
86
82
80
75
71
70
69
66
65
66
68
68
68
69
69
67
67
67
70
71
69
69
67
66
63
62
65
72
73
69
64
63
65
67
65
63
69
70
69
67
62
61
71
76
71
74
86
82
72
75
80
77
72
72
73
77
79
82
92
95
88
79
78
80
81
81
81
79
79
79
78
75
75
73
72
70
64
60
58
46
43
43
47
79
85
80
74
72
74
76
71
65
60
59
61
66
69
74
75
78
78
78
76
72
70
65
63
58
54
51
44
35
29
24
22
31
40
42
42
46
47
48
48
51
50
51
51
51
54
56
57
55
57
60
64
59
50
45
51
55
54
54
50
47
44
46
52
59
65
68
74
83
91
98
96
99
99
84
56
33
41
34
57
67
61
75
64
64
75
81
81
82
82
79
79
73
66
71
79
83
73
67
64
63
63
61
58
56
53
56
54
51
45
44
50
58
60
59
56
56
54
57
60
60
59
63
67
61
57
56
57
64
70
71
71
72
70
98
104
99
95
129
101
89
113
94
86
99
99
99
99
105
90
83
91
98
90
78
70
87
92
87
82
85
87
87
87
97
97
97
97
84
100
96
81
81
89
102
109
116
101
98
107
101
103
102
99
98
97
97
97
97
95
93
91
91
93
92
94
95
93
91
94
96
101
109
114
113
102
96
104
105
96
105
94
88
91
71
72
69
65
58
69
71
68
87
86
79
75
75
76
85
97
99
90
89
94
99
94
87
80
80
86
92
94
94
94
96
100
89
71
64
65
67
67
67
67
68
69
71
71
69
61
55
64
78
74
65
60
62
63
65
67
73
71
69
67
67
69
70
69
68
70
72
76
83
84
68
71
70
75
76
71
70
74
75
72
68
64
68
72
70
62
55
51
49
48
70
77
88
94
94
93
92
89
91
81
83
73
89
91
87
100
125
161
128
88
97
119
107
90
107
82
92
116
85
96
103
93
126
76
73
116
171
186
198
216
198
201
199
185
204
217
222
212
216
228
228
217
218
222
222
217
200
211
227
235
230
226
220
220
225
227
223
221
208
215
222
226
215
209
202
197
186
175
177
187
191
201
200
211
192
198
189
195
201
201
202
203
206
206
204
200
218
199
186
189
192
196
187
170
185
190
194
197
211
216
221
221
220
218
216
217
218
223
231
232
229
225
226
226
221
236
242
236
250
221
141
61
59
125
149
133
141
141
141
138
138
137
136
136
133
131
133
131
128
133
137
139
142
144
143
142
139
139
139
140
139
140
141
141
142
144
149
150
149
148
148
148
148
145
142
138
133
130
104
64
41
44
48
48
44
43
43
43
43
47
53
57
53
49
99
113
82
63
73
79
79
79
79
60
91
97
109
91
93
103
86
97
96
84
112
123
121
102
84
77
67
72
72
67
60
52
54
21
56
68
57
68
46
80
117
106
123
113
138
113
95
84
81
88
88
80
70
64
64
65
65
65
67
69
74
77
77
77
76
74
71
71
67
65
65
66
66
65
65
68
70
70
69
66
66
70
70
64
63
70
71
69
69
68
72
83
86
71
63
77
85
81
84
81
73
66
68
73
75
75
79
89
93
86
80
79
78
79
78
78
78
77
75
75
73
73
73
71
67
63
57
58
37
44
51
53
84
83
79
76
74
74
74
71
69
64
61
63
68
73
77
78
80
80
79
75
70
68
63
61
56
52
48
39
32
27
23
22
31
42
43
43
45
46
48
52
54
56
57
60
63
66
69
67
67
64
63
64
64
56
53
60
60
51
46
45
45
44
44
48
54
65
77
79
75
74
82
91
101
110
137
119
85
41
30
34
54
78
64
52
52
64
83
83
83
83
80
86
79
63
66
80
83
71
67
68
67
67
66
63
57
53
51
51
51
50
52
53
54
54
56
57
59
59
58
58
58
58
60
65
64
60
60
58
57
64
70
68
67
65
110
104
99
95
129
101
74
116
105
88
92
92
92
92
98
83
76
84
97
89
77
70
85
94
87
74
87
87
88
88
97
97
97
97
95
102
99
89
73
81
94
102
102
93
96
110
104
102
98
94
97
97
97
97
105
98
89
84
85
88
88
90
95
101
96
96
99
104
111
117
118
109
103
109
108
98
107
97
94
94
68
71
69
59
65
67
68
74
81
84
73
65
64
68
82
99
107
99
91
85
91
93
90
88
83
86
88
91
92
94
98
100
89
73
64
65
67
67
67
67
68
67
67
69
71
68
60
61
80
88
73
59
61
61
62
62
64
67
68
68
68
67
65
62
61
64
66
72
83
87
86
73
65
68
64
52
51
64
70
68
62
63
70
72
75
80
79
72
64
61
62
66
69
73
77
77
76
73
88
89
75
76
84
89
76
117
117
123
89
79
88
96
105
105
82
79
82
84
103
120
123
114
85
61
91
157
206
204
210
225
222
215
212
200
220
233
237
227
216
227
227
216
225
232
237
239
216
222
231
236
223
218
213
207
205
207
211
214
217
214
211
213
210
204
198
192
188
178
178
189
168
177
195
191
179
173
181
176
173
172
172
173
184
192
197
197
208
188
175
178
162
172
169
156
164
167
170
174
181
188
195
200
194
205
219
230
221
215
209
203
220
220
220
220
225
240
245
240
198
224
168
62
64
135
137
129
134
134
136
136
136
136
136
136
135
134
133
129
127
133
135
137
139
142
142
142
138
138
138
138
139
139
138
136
135
136
141
142
141
140
140
140
140
137
133
129
134
131
111
70
50
47
44
42
42
42
42
42
42
46
53
56
73
58
65
74
85
80
70
90
105
87
98
60
74
92
86
81
90
101
87
99
108
85
98
98
100
93
74
55
75
93
93
75
60
52
54
21
56
66
59
68
82
33
84
136
149
86
94
146
113
96
89
91
84
75
65
60
62
65
65
63
64
69
78
80
79
77
77
78
72
72
65
62
64
66
66
67
70
70
68
65
68
68
68
70
72
63
63
70
71
69
69
71
76
86
83
66
60
77
85
79
80
80
74
71
71
72
68
67
73
84
88
81
77
75
75
75
74
74
74
74
73
73
73
75
69
66
64
58
54
55
31
50
59
63
86
78
76
76
77
74
69
69
71
70
68
68
74
77
80
80
80
80
79
74
70
68
62
60
54
52
44
35
29
28
27
24
31
44
47
45
45
45
46
47
48
49
50
51
52
57
64
63
54
51
55
66
68
64
65
71
67
53
41
39
39
40
42
46
53
53
51
56
72
82
93
100
110
117
106
119
126
108
74
39
34
46
64
52
52
64
74
74
74
73
72
78
76
69
70
70
64
63
64
64
65
66
66
64
58
54
52
48
48
51
57
57
50
49
54
59
59
59
58
57
57
56
58
61
66
61
59
61
59
63
72
68
65
58
116
106
117
92
114
98
78
103
104
102
88
89
88
88
93
80
72
79
96
93
78
70
87
91
86
71
87
87
88
88
87
86
86
86
93
97
99
98
91
90
92
93
96
90
96
112
103
98
93
93
97
98
99
100
110
103
93
84
79
87
87
89
95
105
98
97
101
105
111
118
118
110
106
112
109
97
107
99
99
95
70
70
68
53
71
65
66
80
75
84
72
58
57
62
79
103
113
108
98
85
82
89
95
98
95
91
93
94
90
94
96
100
89
73
64
64
64
67
67
67
68
67
65
67
71
74
71
67
75
94
84
58
59
56
61
58
59
64
71
70
61
68
66
58
63
65
55
54
61
69
89
79
71
76
77
53
41
52
56
58
63
64
56
44
51
68
75
74
72
74
79
80
77
79
83
86
85
82
85
94
69
78
91
99
80
141
114
111
103
135
98
84
105
132
78
116
95
63
91
113
98
69
49
55
97
148
190
209
226
228
213
195
186
175
168
190
206
206
204
215
215
203
197
208
219
223
222
218
210
207
210
208
202
200
204
212
221
224
224
216
210
203
185
180
172
166
168
157
158
168
152
158
186
168
154
140
159
145
143
143
143
143
156
166
173
182
169
158
158
170
140
153
154
144
145
148
149
152
155
161
166
174
187
180
171
165
179
181
185
186
183
182
182
182
171
168
151
127
121
79
41
28
79
131
118
137
129
129
131
132
133
134
137
136
135
133
132
128
126
129
132
135
136
138
138
138
137
137
137
136
138
137
134
132
131
133
136
138
135
135
134
134
133
129
126
124
125
130
112
79
54
49
42
42
39
40
41
41
40
44
53
55
49
45
49
55
88
91
69
97
124
93
111
61
49
75
58
61
126
124
89
85
101
86
111
119
92
102
95
77
60
87
87
60
60
52
54
21
56
64
60
68
59
86
97
78
101
166
128
116
134
116
97
91
82
70
66
65
65
65
65
62
61
69
80
80
73
70
70
71
72
72
64
60
63
65
65
70
75
73
69
68
66
68
68
71
73
65
62
66
69
69
70
70
72
78
74
64
65
78
79
70
71
74
77
79
74
71
70
68
72
77
80
78
73
71
72
72
71
71
72
72
72
72
71
71
67
64
60
54
51
49
33
63
72
65
82
78
77
76
77
71
67
67
71
72
69
71
77
78
84
82
80
80
79
72
69
68
61
58
53
49
41
32
28
31
30
26
31
47
49
44
45
43
43
43
46
47
49
51
52
58
64
60
55
54
60
70
73
71
72
76
70
55
41
38
36
37
47
53
58
63
69
75
84
88
87
87
89
91
119
107
101
98
84
62
42
34
39
29
29
39
49
49
49
49
55
65
66
66
65
52
61
78
80
75
74
72
71
66
61
58
59
53
46
44
48
52
54
52
51
52
53
53
56
56
57
57
58
59
63
60
60
61
64
66
72
70
65
58
110
104
115
99
113
98
82
90
110
108
108
92
103
87
87
97
75
80
92
99
101
89
89
91
88
89
90
90
89
88
85
84
82
82
89
90
95
98
93
92
91
94
95
92
94
105
103
100
96
99
98
97
96
95
103
102
97
94
95
92
91
91
93
91
93
94
99
104
110
114
114
106
106
117
96
94
95
93
102
95
74
70
69
73
65
90
67
81
72
89
75
49
42
59
87
106
111
133
99
87
86
107
90
71
98
102
95
82
87
100
91
100
97
85
73
59
59
73
69
68
68
67
66
66
69
73
74
72
70
65
99
74
55
53
64
56
54
72
78
75
55
67
69
58
71
73
61
50
53
62
79
83
84
81
74
72
72
71
73
73
73
73
70
60
53
59
72
60
60
72
72
83
83
72
43
81
103
96
89
97
93
69
88
99
63
102
106
138
134
82
104
92
94
104
121
104
87
82
98
88
76
65
45
46
71
106
116
153
179
194
192
207
190
148
160
154
146
141
203
214
206
177
224
208
204
212
200
213
213
202
201
205
209
213
184
190
198
204
191
185
178
172
139
138
139
139
138
135
130
124
117
111
105
101
100
113
113
100
102
122
148
167
157
151
140
133
130
142
142
130
106
99
96
102
98
108
122
133
125
121
115
110
107
107
104
103
123
114
102
94
86
81
76
71
54
41
29
29
51
46
38
34
94
136
123
130
127
127
129
130
132
134
136
136
134
133
131
127
124
122
131
133
132
131
133
133
136
134
135
135
134
132
127
124
125
127
128
128
128
127
127
125
125
124
122
121
120
115
109
105
90
56
42
43
38
38
38
39
35
41
50
56
63
57
55
62
47
57
79
88
93
74
79
73
80
66
66
81
95
128
111
98
71
104
105
115
112
103
91
81
74
87
74
60
57
66
58
35
56
64
62
72
52
99
76
85
119
115
105
93
66
100
102
69
83
68
66
67
66
66
66
64
67
75
80
71
68
71
71
66
70
69
65
63
63
64
66
71
74
76
72
71
68
69
68
71
76
73
65
64
66
69
69
69
69
72
72
71
69
73
71
67
68
72
75
78
75
71
73
78
77
72
72
75
73
72
72
72
72
72
72
71
71
69
70
67
66
61
56
51
56
44
45
58
40
82
89
56
77
76
77
72
67
67
70
70
67
57
64
78
88
84
79
76
66
70
69
66
59
56
51
46
49
8
29
60
35
24
40
37
34
38
40
41
41
43
45
48
50
51
53
59
61
57
59
69
78
80
75
73
75
80
72
58
47
43
35
35
44
51
54
58
65
74
79
82
82
84
86
89
102
100
98
101
108
91
69
49
21
27
37
46
51
54
56
56
45
68
81
69
69
84
83
64
76
77
75
75
70
71
75
77
70
64
54
45
43
52
59
53
51
50
51
52
53
54
57
57
57
58
61
61
60
61
64
68
69
70
65
61
102
96
104
109
122
100
82
87
115
108
108
93
103
87
84
97
83
85
89
101
101
89
91
91
90
93
95
95
90
88
88
87
86
85
89
88
92
94
93
90
91
92
92
86
86
95
102
103
108
107
98
90
79
76
84
90
95
98
98
96
94
93
93
91
89
90
93
99
105
110
111
101
99
107
84
82
83
83
103
94
77
71
63
67
59
85
67
78
63
77
77
75
72
69
97
106
89
100
91
100
114
100
82
90
102
87
93
87
89
95
85
90
83
68
59
53
53
60
64
68
69
68
67
67
67
71
74
74
68
65
94
71
57
57
66
54
54
67
75
76
64
67
66
61
72
76
75
69
69
72
74
79
85
84
71
72
72
72
61
61
61
61
74
70
60
53
46
44
55
75
83
72
72
83
66
74
88
97
101
101
79
65
86
96
72
96
85
96
84
80
115
93
80
82
92
110
107
85
65
65
65
66
80
84
94
110
89
125
169
199
208
212
192
157
163
143
115
95
188
183
167
130
137
144
158
172
188
201
201
189
171
167
164
163
166
171
174
175
172
164
156
150
149
137
121
109
113
109
104
103
106
107
101
97
117
129
128
117
117
115
112
109
116
106
94
84
74
85
85
74
68
65
63
62
75
73
70
67
65
67
74
76
72
67
66
64
75
67
55
45
41
37
31
27
27
28
30
31
50
47
45
43
108
142
132
131
130
129
130
132
133
134
136
136
134
131
129
126
125
122
129
132
130
126
127
129
133
134
134
131
124
118
114
112
114
115
115
115
116
116
117
118
119
120
121
121
119
116
108
105
93
63
45
41
40
39
38
37
32
38
47
54
43
47
56
72
70
62
50
54
67
61
80
74
88
81
82
89
79
125
129
129
131
147
125
118
97
97
97
97
80
80
67
58
66
61
44
25
54
63
63
77
80
69
100
121
99
106
155
123
119
108
97
90
84
75
66
66
66
66
66
69
75
81
73
66
65
73
73
65
69
66
65
65
64
65
71
70
71
71
71
71
68
69
68
72
78
81
72
68
67
69
69
68
68
69
71
72
71
69
68
68
71
72
74
75
75
70
73
80
79
73
73
78
80
80
79
78
75
74
72
71
71
69
69
66
64
59
53
50
46
43
50
53
52
63
68
66
77
77
76
72
68
67
67
67
65
57
64
78
86
81
75
70
66
69
68
66
59
55
50
43
24
40
35
53
135
68
16
47
37
31
24
19
42
43
45
47
49
50
52
57
63
61
66
83
90
84
71
70
82
90
78
61
53
48
39
36
43
48
48
48
51
57
61
67
74
80
86
90
96
110
119
109
95
95
89
76
47
33
25
20
42
48
50
52
47
56
66
70
76
78
76
69
70
76
77
77
80
78
71
70
73
73
68
58
50
53
56
52
51
51
52
52
53
54
57
57
57
58
60
58
58
57
60
65
68
69
60
61
117
101
107
119
132
102
81
87
115
108
108
93
103
87
84
96
83
92
90
101
100
90
91
90
90
96
104
104
95
90
89
90
90
87
89
89
92
93
92
92
92
92
89
81
81
93
97
103
106
107
102
95
83
80
84
82
85
101
97
96
93
93
92
91
90
88
90
93
99
104
114
98
90
93
73
73
77
81
103
94
77
71
84
88
80
106
96
102
81
90
75
77
81
83
104
108
85
91
104
106
132
101
86
101
90
82
87
96
95
80
84
84
71
50
49
54
54
49
52
60
65
67
66
65
65
65
77
74
68
65
85
68
59
65
66
54
54
59
62
75
87
63
57
68
66
71
79
84
84
79
72
70
75
84
71
72
72
72
61
61
61
61
69
74
70
60
60
58
70
90
83
72
72
83
82
81
81
80
96
100
68
85
83
95
88
87
89
104
81
110
110
87
73
77
92
110
107
85
58
58
58
58
53
81
111
125
120
99
95
106
157
157
151
140
126
137
150
161
149
112
78
76
68
93
115
120
129
142
142
131
129
132
136
139
153
151
147
145
160
153
147
141
147
130
107
90
101
96
92
89
90
87
81
78
62
72
73
62
73
66
57
49
65
66
66
65
67
79
79
67
76
75
74
74
77
71
61
55
70
73
80
84
83
79
78
76
66
59
46
37
34
30
24
23
28
31
33
34
48
51
54
57
125
149
141
137
136
136
136
136
135
135
135
136
134
131
129
126
127
126
134
134
133
130
131
131
133
133
134
129
121
114
109
106
105
106
106
106
107
107
111
113
117
119
121
121
119
116
109
105
100
71
49
33
33
36
40
39
31
35
45
50
37
41
50
67
73
68
60
51
63
58
77
66
81
88
89
82
100
131
111
94
124
152
145
150
97
97
97
97
87
74
60
54
58
44
33
33
54
60
66
91
100
54
81
88
127
108
138
108
127
102
90
98
83
86
66
66
66
66
66
71
77
73
67
65
66
73
73
65
66
67
66
65
66
70
69
65
65
67
67
67
66
68
69
69
71
72
70
69
69
69
68
67
65
65
67
68
68
68
68
68
71
72
74
77
77
70
67
73
78
82
82
78
79
80
79
78
75
74
71
71
70
68
69
66
61
57
51
42
37
40
52
50
52
50
56
67
77
77
76
72
68
67
66
66
65
58
64
78
80
75
69
67
65
68
68
66
57
53
49
43
40
28
41
116
176
138
54
17
33
38
47
53
56
55
53
52
52
51
50
53
58
56
62
76
80
77
69
69
78
88
80
67
59
54
44
40
43
48
49
48
48
51
57
61
67
71
75
79
60
84
102
112
115
103
89
69
77
55
32
22
23
34
41
43
44
44
49
64
72
68
70
71
70
70
76
78
81
80
71
68
67
71
77
72
61
50
48
51
52
52
53
53
53
53
56
56
57
60
61
60
60
57
56
60
62
66
66
63
133
105
106
124
134
102
83
88
109
103
108
90
100
87
84
97
81
91
87
101
99
92
91
90
91
99
109
107
98
94
94
95
94
91
89
89
92
92
92
91
92
93
94
88
88
98
97
98
100
102
105
104
105
109
106
87
82
96
97
95
92
91
92
91
90
87
89
91
95
99
114
96
83
83
67
70
77
81
103
94
77
71
78
82
73
100
96
99
73
78
74
56
65
94
103
108
96
113
128
96
127
110
101
98
72
90
86
99
91
65
93
88
69
46
48
59
59
48
48
50
54
60
63
62
63
59
76
73
68
66
80
66
61
67
66
54
54
54
53
66
94
61
54
74
61
68
76
83
83
77
71
67
71
83
71
71
71
71
73
73
73
72
70
69
74
70
65
54
54
65
72
83
83
72
82
97
88
57
78
93
66
111
82
93
97
80
69
111
81
106
87
75
75
87
121
104
87
82
82
72
59
49
39
67
84
79
88
90
93
122
79
88
105
122
95
92
86
83
85
59
45
53
62
91
105
94
102
115
115
102
108
124
147
163
150
144
137
132
128
122
115
109
95
84
69
57
72
68
63
57
53
48
42
38
30
42
42
31
38
45
55
62
45
61
83
98
64
75
75
63
61
69
82
90
88
85
85
86
86
84
78
75
89
86
85
84
81
73
61
52
44
39
34
30
31
34
33
34
48
52
61
67
130
157
143
142
140
140
138
137
136
135
134
134
133
130
128
126
127
129
134
138
138
140
140
139
139
136
136
134
126
120
113
108
103
103
104
104
106
107
111
114
119
121
124
123
121
115
108
105
98
83
56
27
26
29
33
34
33
33
41
48
48
42
40
48
45
55
69
71
64
54
71
58
66
80
81
66
92
118
92
72
108
137
131
137
112
102
91
81
80
66
58
45
35
25
33
57
56
60
72
98
91
91
101
102
126
94
92
119
101
102
105
106
88
84
75
67
65
70
66
69
68
66
66
64
66
72
75
68
66
67
67
69
70
67
60
59
62
65
66
66
65
65
65
64
62
61
62
63
64
65
65
63
62
62
65
66
66
66
66
68
70
71
73
75
75
71
67
70
75
81
81
74
71
71
72
71
71
71
69
70
70
69
66
64
59
54
47
40
38
45
47
53
40
52
59
56
75
75
76
73
66
66
65
65
64
58
63
79
75
69
66
64
65
66
67
67
53
52
48
43
43
18
89
171
150
157
142
73
36
35
30
30
33
36
39
39
38
41
44
47
50
46
50
60
63
66
72
70
67
73
79
74
68
57
46
41
42
48
49
48
51
57
66
67
65
66
70
72
102
93
86
94
95
98
96
92
92
82
65
50
22
19
31
37
37
33
42
61
68
55
57
74
73
69
70
74
73
73
78
80
77
70
73
78
70
51
44
50
53
52
53
54
56
56
56
55
56
60
60
60
60
58
55
55
60
63
64
63
139
110
104
119
122
102
92
95
102
98
107
86
99
102
96
99
81
90
86
88
98
94
92
91
91
97
105
99
92
94
97
97
96
95
90
90
91
93
92
91
93
98
99
95
95
101
103
101
99
101
105
105
110
121
117
93
82
91
97
94
90
87
81
81
82
81
92
92
94
96
96
93
86
82
80
79
79
79
102
94
89
94
95
84
84
88
92
77
83
68
68
70
68
98
113
108
112
111
126
96
139
92
108
99
77
112
100
107
93
70
98
93
69
48
51
55
55
54
56
56
54
51
67
75
68
56
74
72
70
67
67
65
65
67
65
65
66
64
54
57
80
63
61
77
61
69
76
78
79
76
74
71
74
78
71
56
56
71
78
78
78
79
91
74
57
44
51
55
62
66
55
82
85
59
83
104
92
76
93
84
61
104
96
100
114
90
88
108
78
80
66
91
87
103
117
92
66
57
63
62
60
58
66
78
72
50
54
59
76
111
125
83
65
80
61
64
70
77
84
88
88
88
69
87
112
130
101
112
128
139
143
132
117
106
105
96
82
71
64
56
48
41
28
26
25
27
38
38
38
38
38
38
38
38
39
39
40
39
47
51
61
71
56
57
64
67
65
65
72
72
68
69
75
78
78
81
88
89
84
82
82
82
96
89
80
72
75
67
57
47
35
30
24
20
11
32
47
46
51
49
55
87
154
160
151
146
142
140
140
138
135
134
133
133
133
132
130
129
128
132
136
140
141
144
147
147
145
146
145
142
134
127
120
114
109
109
109
111
113
118
123
128
132
135
136
135
133
130
123
119
105
101
89
74
35
43
52
45
38
34
37
42
46
50
56
62
65
61
54
48
41
50
72
59
78
79
74
58
73
112
90
79
112
108
94
91
88
94
88
73
61
60
59
61
45
44
54
85
55
58
51
55
83
95
97
92
109
80
79
124
117
112
128
98
90
86
100
67
82
73
71
66
67
66
69
69
68
72
73
69
69
67
67
69
69
63
56
56
62
64
63
63
64
64
62
60
58
58
58
60
62
62
63
62
60
62
60
62
65
65
66
67
70
71
73
71
70
71
70
66
68
70
69
68
67
66
66
66
67
67
68
68
67
65
62
58
56
52
46
42
54
35
72
57
33
60
86
35
73
73
72
71
64
62
63
62
63
59
62
60
62
65
64
63
51
51
51
50
49
48
44
37
4
75
148
164
152
155
163
149
106
73
26
9
23
35
35
30
33
35
36
39
43
40
40
49
52
54
62
64
60
65
77
79
70
56
44
38
38
47
50
47
48
55
66
69
66
64
65
67
54
67
85
98
112
106
98
89
83
82
81
81
41
27
14
3
27
36
37
43
47
51
56
51
63
68
73
71
73
71
77
85
84
73
71
80
75
60
52
52
54
54
55
56
59
57
54
51
55
60
61
59
59
59
57
58
62
63
63
61
137
117
105
108
107
106
105
102
102
107
103
86
102
97
96
100
81
89
85
88
97
95
92
91
91
95
97
87
81
89
95
97
96
95
91
90
91
91
92
91
93
96
100
95
95
101
104
102
98
98
98
97
101
112
113
99
89
92
97
94
89
86
91
93
93
93
95
95
94
95
96
93
86
82
80
79
79
79
101
92
94
101
102
96
92
86
94
82
93
81
64
100
93
90
106
135
131
99
94
111
155
93
117
116
98
97
89
96
96
89
93
90
71
54
52
51
52
52
54
56
57
60
73
79
74
57
72
71
71
69
68
67
67
67
66
66
66
68
67
58
65
69
70
74
67
72
74
74
74
74
74
74
74
74
71
65
65
69
69
66
66
70
73
70
67
66
81
77
72
66
49
73
85
72
96
90
71
65
79
95
105
110
75
65
104
127
106
98
77
69
94
123
108
93
62
67
69
71
54
47
36
30
70
73
65
56
54
51
44
43
109
79
68
78
96
105
119
128
108
98
86
76
51
60
76
85
96
93
90
88
84
76
65
58
45
39
29
23
28
23
19
18
22
27
31
32
36
39
41
42
43
45
48
47
42
39
39
39
43
54
65
67
72
73
67
57
75
72
65
62
79
76
69
66
77
81
88
89
85
82
82
82
101
96
93
87
75
67
57
47
35
30
25
20
38
57
66
62
52
49
55
87
156
156
151
148
143
140
139
138
135
134
131
131
131
132
130
130
132
137
139
142
145
146
150
152
153
152
152
150
144
139
134
127
123
124
124
125
128
134
139
145
150
152
152
151
145
140
133
129
122
115
109
104
33
22
29
38
41
38
33
35
40
46
52
57
60
58
56
54
63
62
74
49
60
67
77
77
82
99
89
73
103
100
108
105
79
86
80
64
58
63
63
58
32
38
70
88
52
49
60
58
67
64
80
109
104
107
116
115
91
101
113
98
89
91
93
69
65
71
78
80
77
74
74
74
74
72
71
68
67
66
66
66
63
58
60
60
62
62
64
63
64
63
62
60
59
59
60
60
61
61
62
61
60
62
62
63
64
64
65
67
68
71
72
65
61
67
67
61
61
64
66
68
66
64
64
64
66
66
67
67
65
62
56
54
52
50
48
46
34
80
143
130
38
44
69
65
69
68
67
67
64
63
62
62
61
60
61
60
61
62
64
64
51
51
51
51
46
37
31
31
64
141
161
140
168
170
160
152
160
138
115
85
59
40
40
39
36
33
29
30
36
34
33
42
44
46
48
50
54
62
72
77
66
51
42
37
37
47
50
44
43
48
56
62
63
63
63
63
63
65
67
68
63
78
94
105
82
81
81
81
77
59
33
18
14
27
36
37
37
43
49
54
55
59
63
69
73
73
74
81
85
80
75
78
77
75
67
58
54
55
55
56
58
57
55
52
55
61
62
58
55
58
60
65
69
68
61
57
128
117
105
98
99
107
109
98
97
112
97
92
108
91
96
102
81
88
85
88
95
97
93
91
91
95
97
87
81
89
95
98
96
95
92
91
92
91
93
93
94
96
96
90
90
99
100
98
94
91
95
101
99
100
105
105
99
98
97
95
88
87
91
93
94
94
94
94
94
95
96
93
87
82
80
78
78
78
99
94
101
108
116
110
100
78
79
72
90
82
83
113
95
90
122
144
133
110
84
125
153
91
126
117
123
115
96
89
89
96
86
88
75
62
52
52
52
52
50
57
64
73
79
86
80
65
72
72
73
73
73
73
73
71
70
67
66
71
71
56
49
70
74
67
73
69
68
69
69
69
69
69
69
69
72
77
77
72
67
67
65
64
62
61
61
65
88
83
78
70
67
71
74
71
110
80
69
84
80
84
127
97
88
65
104
140
119
78
86
75
92
121
86
63
49
81
96
84
69
66
63
63
59
48
43
46
54
62
71
69
52
55
67
83
82
74
61
52
60
51
37
28
30
29
29
28
62
54
44
36
33
31
28
25
20
17
15
12
29
29
33
32
30
29
31
32
34
35
36
36
35
35
35
35
36
38
39
39
38
62
73
62
88
100
94
72
76
72
65
62
79
76
69
65
78
81
88
89
84
82
82
84
89
92
94
86
75
67
58
47
35
32
26
19
33
46
49
40
53
50
56
88
160
152
149
146
144
141
139
138
137
136
135
133
135
134
136
136
138
138
147
148
147
150
154
157
156
156
156
154
149
146
144
139
135
135
135
136
140
146
151
157
162
164
164
164
149
145
138
136
134
132
129
121
71
47
34
41
40
41
38
33
34
40
46
50
54
56
60
62
69
66
77
50
57
63
73
81
60
70
105
101
113
87
97
70
66
73
67
52
52
70
70
52
38
39
81
68
47
37
73
63
61
71
105
148
122
111
114
111
98
113
101
91
86
100
84
73
65
71
78
80
77
74
74
73
71
68
67
67
67
67
67
64
59
59
62
64
65
64
64
63
63
62
62
60
59
59
60
60
60
60
61
61
60
62
62
63
63
64
66
66
69
71
66
60
60
67
67
62
62
64
65
65
65
65
65
65
66
65
64
65
62
56
51
48
46
48
51
53
68
138
185
172
104
53
37
69
62
62
62
62
62
62
61
61
60
60
60
60
61
62
64
64
51
51
51
51
44
30
38
60
156
151
154
156
167
168
164
149
165
168
171
153
96
26
15
40
29
25
22
27
33
30
30
38
41
40
38
35
39
46
57
65
61
47
42
38
36
47
51
47
48
50
52
55
57
59
58
58
67
75
85
92
83
89
93
93
81
81
82
82
90
77
59
45
21
14
28
36
41
42
44
50
52
52
54
59
71
74
71
75
80
87
85
75
73
80
80
68
60
56
56
55
54
55
57
57
58
62
64
55
52
55
62
66
66
65
62
60
113
108
104
92
91
104
101
82
81
99
92
97
112
86
96
102
81
88
86
88
94
96
94
91
91
97
101
95
91
96
99
98
96
92
89
87
89
90
92
91
91
94
94
90
90
95
95
94
90
91
97
104
102
96
102
106
104
101
98
95
88
84
82
82
82
82
94
94
96
95
96
93
87
82
80
78
78
78
97
99
106
116
131
123
103
66
58
54
77
72
106
104
83
105
142
132
129
124
104
130
134
85
127
101
133
153
115
91
78
85
80
86
77
67
52
52
52
52
46
56
68
84
83
87
85
68
72
72
73
74
73
76
75
76
70
65
66
67
64
54
42
54
67
69
82
67
59
61
63
64
64
62
62
64
72
87
87
72
79
79
79
79
93
92
84
82
66
70
76
81
89
76
62
55
105
82
95
122
95
61
114
72
125
100
114
119
124
68
93
91
103
123
91
84
82
112
114
86
51
63
79
90
90
69
61
74
18
22
17
13
18
21
13
4
36
33
29
28
33
36
36
37
37
30
19
16
22
27
24
26
30
33
36
33
30
28
30
31
14
17
24
28
28
28
28
31
33
35
37
39
39
42
43
43
41
41
41
41
33
66
76
59
50
81
87
66
62
68
71
72
69
70
73
78
78
81
87
88
84
82
82
82
73
78
83
69
75
64
58
47
36
32
26
20
38
48
46
33
53
49
57
88
156
151
149
146
144
142
140
139
138
137
136
135
136
136
137
140
142
144
150
151
152
154
158
160
159
158
158
156
155
152
148
145
144
145
146
147
150
155
158
163
167
169
168
167
152
148
141
140
141
141
139
136
132
102
77
66
47
40
41
35
33
35
42
45
48
54
63
67
56
62
83
65
67
66
61
62
84
62
92
85
82
56
87
62
58
65
59
43
47
72
74
47
59
47
82
38
42
28
82
66
86
91
86
76
129
109
84
93
130
142
98
87
83
107
78
76
82
78
75
66
65
71
67
66
67
67
67
67
67
67
67
64
59
59
62
64
66
67
66
63
65
66
64
62
59
59
60
58
57
58
62
62
59
59
62
64
67
66
66
66
64
61
60
61
66
73
73
66
64
63
64
64
64
64
64
64
64
64
62
60
56
55
52
43
40
46
53
58
138
174
173
156
181
105
23
48
58
58
60
59
61
61
61
61
61
60
60
60
62
63
64
64
51
51
51
51
37
32
60
107
172
171
166
151
158
156
163
166
164
164
170
175
106
31
1
25
22
22
23
27
31
30
31
37
38
37
35
31
29
33
41
49
49
45
45
42
41
45
47
45
52
57
56
56
55
51
52
57
75
72
67
64
67
68
72
77
80
81
82
82
82
73
73
70
46
21
14
28
40
42
44
46
48
50
52
52
67
74
73
71
78
87
91
84
80
83
81
78
71
62
55
53
48
53
62
61
61
60
59
52
48
52
61
62
61
60
65
68
103
104
105
95
91
98
91
76
76
90
103
102
102
102
102
99
93
82
85
87
90
94
94
91
91
94
101
100
95
100
102
100
96
93
92
91
90
89
89
89
92
92
92
90
92
94
94
93
92
92
96
99
99
95
97
100
101
99
77
100
114
113
86
83
80
84
97
99
94
93
90
102
102
90
69
90
98
89
94
102
118
127
119
115
106
104
87
87
87
87
110
100
80
128
114
104
118
107
107
117
76
107
152
100
120
120
86
93
106
119
73
79
87
92
73
62
49
39
65
80
98
99
92
83
61
48
71
61
61
73
69
92
76
75
73
65
82
68
61
56
44
48
63
81
89
68
59
60
63
64
63
56
56
63
73
65
71
86
84
84
84
84
85
62
88
93
83
83
74
60
67
86
97
60
63
101
99
100
124
136
76
87
107
123
71
111
93
56
91
88
88
96
83
68
115
109
87
66
50
99
119
80
84
82
77
74
70
42
27
31
20
8
15
36
19
9
15
36
3
29
47
42
43
22
19
37
23
37
40
26
27
28
33
35
23
14
18
32
22
21
21
21
21
21
26
30
33
35
35
37
39
38
38
40
43
43
43
44
49
54
60
60
56
57
63
69
74
72
72
70
70
69
73
70
86
86
86
86
87
87
87
87
86
83
76
72
62
63
60
62
52
33
27
37
44
55
53
40
53
49
57
88
149
160
152
145
145
144
142
141
141
139
139
139
138
139
143
144
146
152
152
153
155
156
160
160
160
161
162
162
160
158
154
152
152
154
156
157
158
159
160
165
169
169
166
164
146
146
148
148
148
148
150
151
153
151
144
141
112
102
75
57
50
39
34
35
60
58
43
66
60
58
70
73
75
74
70
70
70
70
70
68
66
64
63
63
76
53
36
36
60
75
74
60
58
84
100
51
38
46
60
70
89
83
85
95
116
108
70
98
124
62
93
88
76
82
94
57
84
83
80
86
85
76
69
67
67
69
68
68
69
67
67
66
63
60
59
59
64
71
66
64
66
67
63
60
58
58
58
56
56
57
61
58
52
52
61
65
66
66
66
64
58
57
59
63
69
71
71
67
64
64
62
62
62
62
62
64
62
61
58
52
50
53
52
46
41
53
57
153
166
166
166
166
173
155
88
24
42
48
49
52
69
72
65
54
59
44
44
59
58
49
56
72
52
41
37
43
42
57
104
193
172
173
173
170
169
168
168
166
166
165
165
165
141
11
15
12
21
21
24
26
30
29
31
34
36
34
37
36
31
31
34
35
40
41
43
43
42
42
41
42
50
55
54
56
58
52
50
57
61
65
73
77
75
73
73
73
74
74
74
74
55
74
81
69
68
58
33
10
14
30
36
27
44
50
52
55
64
73
73
75
74
80
85
87
88
85
84
85
82
68
58
52
48
57
69
69
62
57
54
54
53
56
60
62
59
59
63
66
98
99
102
97
93
92
89
82
87
98
95
95
95
94
92
87
82
79
81
85
87
91
94
92
90
92
100
106
101
101
102
100
96
99
106
106
96
91
90
90
90
89
88
87
89
90
94
96
98
97
96
95
95
95
94
94
94
94
95
90
100
119
127
112
99
86
96
94
92
93
78
90
90
79
80
88
91
88
90
97
108
114
115
110
104
98
92
91
91
91
110
100
80
128
114
104
118
107
94
104
87
120
112
80
118
120
87
98
108
110
84
86
89
91
78
80
83
86
88
89
95
96
92
80
61
48
65
59
61
73
69
88
79
72
74
69
76
69
63
60
55
51
61
82
85
74
74
75
70
68
65
56
56
67
87
71
65
72
84
84
84
84
80
71
87
92
92
86
73
64
76
83
104
83
87
99
83
92
121
97
104
81
106
148
60
125
109
83
103
82
92
91
78
73
95
88
62
43
75
87
93
94
99
98
87
80
68
54
44
44
70
60
53
52
44
32
25
27
41
41
33
19
42
68
67
37
25
36
43
44
42
36
32
33
35
19
14
21
21
21
21
21
24
27
32
33
33
34
34
35
37
38
38
40
41
42
42
43
49
53
61
62
59
62
68
73
84
77
67
60
74
74
74
74
74
74
75
75
75
75
76
79
82
82
76
72
62
62
61
62
52
35
29
37
44
55
53
40
53
49
56
88
141
152
144
137
136
137
140
143
142
141
141
141
141
143
147
150
150
155
154
155
156
156
158
157
158
158
160
160
160
160
161
159
159
160
161
159
161
161
161
164
168
168
163
158
152
149
151
152
153
154
156
158
160
159
153
149
159
139
103
58
30
25
23
31
38
45
42
69
59
55
60
68
70
69
66
66
66
67
68
68
68
68
68
67
53
46
52
67
84
81
70
54
58
84
100
50
37
46
60
70
72
101
102
78
87
114
90
101
120
104
123
94
95
101
101
81
84
84
84
83
81
78
74
71
71
71
69
68
69
67
67
67
64
62
58
56
60
69
64
55
56
57
55
54
55
55
55
54
54
55
56
51
42
42
52
61
64
64
64
65
63
64
67
67
67
66
66
65
64
64
62
62
62
62
61
62
61
61
56
53
53
46
46
55
54
34
123
164
166
166
167
167
183
177
159
99
30
35
51
52
34
30
47
72
50
44
43
49
51
59
52
37
57
66
45
7
68
150
191
168
175
176
176
176
177
177
176
174
173
172
171
171
153
31
17
19
21
22
24
26
29
29
31
32
33
35
41
42
38
35
35
39
43
43
39
34
33
37
42
47
49
50
50
59
71
68
57
55
61
63
66
68
70
70
70
70
59
59
58
58
65
77
83
81
72
67
57
48
26
13
11
33
32
41
47
49
59
66
64
66
67
68
73
75
78
79
82
84
83
75
66
60
55
59
65
63
58
53
57
67
71
68
64
61
61
65
65
62
94
92
94
97
89
94
101
91
76
76
102
102
102
102
95
91
81
78
79
82
85
88
92
95
90
92
101
116
112
103
101
101
96
101
111
111
102
95
95
95
93
92
90
89
90
91
95
96
99
97
96
94
95
96
97
98
99
99
103
94
96
110
138
133
128
115
105
92
87
89
78
90
91
79
94
86
83
85
87
89
91
94
109
104
98
94
95
98
98
98
110
100
80
128
114
104
118
108
99
96
96
117
91
76
121
117
89
108
111
94
98
95
91
89
61
68
77
84
84
85
91
95
92
81
63
48
54
60
62
73
73
79
87
68
71
78
69
71
67
64
62
55
60
71
75
74
78
81
76
72
69
62
62
72
87
71
66
73
84
86
84
84
70
85
84
88
90
85
80
78
92
76
99
104
99
85
70
106
75
89
70
84
100
91
76
88
85
89
120
134
100
84
71
80
81
77
49
40
89
87
80
98
112
101
83
71
67
71
68
60
59
62
55
43
71
74
67
55
26
25
34
47
71
80
95
110
86
70
65
76
74
61
49
43
62
36
18
16
21
21
22
22
35
39
40
38
37
34
34
37
38
40
39
38
36
35
35
35
50
53
61
63
64
68
75
77
77
74
71
69
81
81
79
78
77
76
75
75
76
76
76
79
83
83
76
73
62
61
62
62
52
36
30
36
45
55
53
40
53
50
57
89
128
139
131
125
122
128
138
144
143
143
144
144
149
150
155
158
159
160
160
157
156
154
153
152
152
151
151
152
154
158
161
161
160
158
157
157
157
158
161
164
168
168
165
160
158
157
158
158
158
159
160
163
165
164
157
154
167
160
136
88
51
43
38
37
39
41
33
62
54
49
47
60
62
62
57
58
58
60
60
61
61
61
62
62
44
46
64
90
96
81
69
67
58
84
99
50
36
45
60
70
65
108
109
72
87
114
90
101
117
126
127
98
106
111
91
100
84
84
84
81
74
73
78
78
73
71
71
69
70
69
69
69
66
63
58
54
57
64
59
48
45
50
52
52
50
49
49
50
53
51
49
43
39
42
53
60
62
61
63
65
69
69
69
65
64
63
62
62
63
63
63
63
62
62
62
63
62
60
53
53
53
46
46
55
60
80
171
171
170
170
168
168
185
180
179
168
99
54
33
15
59
62
48
21
38
44
44
38
39
48
41
26
45
13
35
97
183
173
178
186
182
183
183
183
181
182
182
179
178
177
177
177
171
53
18
26
23
23
25
26
28
29
31
31
32
35
41
42
38
35
35
39
43
43
39
34
33
37
42
47
49
50
51
56
68
72
62
50
63
61
57
57
60
63
63
63
52
52
53
53
67
64
70
81
78
73
62
57
58
33
18
20
20
25
33
40
49
56
55
56
59
63
68
71
73
74
77
77
78
82
79
74
67
59
53
57
59
57
63
71
75
73
68
64
64
73
73
60
92
90
96
98
86
81
84
80
74
73
117
117
118
118
113
104
96
89
80
79
83
85
94
97
95
94
101
117
114
103
101
100
96
97
98
98
101
102
102
101
99
97
95
95
95
94
94
93
94
93
92
92
95
99
101
104
106
106
97
108
106
93
118
129
142
146
128
101
85
84
91
102
102
91
105
86
76
86
85
82
81
80
103
99
95
93
101
101
101
101
110
100
80
128
114
104
118
108
116
98
95
100
103
91
128
110
90
115
112
85
108
102
94
89
74
76
77
78
81
84
91
95
89
81
64
47
49
56
62
73
74
74
92
67
70
83
63
74
70
65
64
61
61
65
70
71
74
76
79
79
75
68
67
74
72
68
70
87
83
87
84
84
63
96
83
87
89
80
85
98
100
65
88
113
92
70
68
128
81
103
91
114
111
85
94
90
89
101
111
135
104
80
70
84
71
71
59
62
87
85
78
124
106
90
68
52
66
83
85
70
49
70
77
66
56
77
84
73
69
60
69
92
84
71
61
60
95
72
67
65
89
84
78
65
86
54
26
18
21
21
22
22
43
45
45
45
32
33
35
37
39
40
39
38
35
34
33
34
50
53
60
64
65
69
76
80
55
67
79
90
82
81
82
82
85
85
86
86
88
88
87
87
86
83
76
71
62
61
62
62
53
37
30
36
44
55
53
40
51
49
56
89
120
131
123
116
111
122
133
142
143
144
144
145
151
152
155
158
161
163
160
157
156
152
150
148
147
147
148
148
151
153
156
157
158
154
154
154
155
157
159
164
167
168
165
163
160
160
161
161
163
163
164
168
168
166
161
156
168
170
153
128
77
48
30
15
45
43
27
43
50
48
45
49
51
51
48
49
49
50
51
50
46
44
44
44
52
52
67
91
90
75
75
90
58
83
100
50
36
45
60
70
73
100
101
79
116
108
70
98
114
117
105
100
101
104
73
99
84
84
84
87
65
69
76
81
72
69
68
67
67
66
66
66
66
64
59
56
56
59
56
46
48
52
57
54
48
43
45
50
53
48
40
39
47
56
65
65
61
58
58
62
68
68
63
60
61
60
57
57
58
60
61
61
61
61
61
62
61
58
51
49
50
48
56
46
51
167
171
165
171
171
168
172
171
174
173
175
182
146
87
49
24
22
29
39
30
44
44
30
29
21
28
43
37
61
114
165
181
183
186
187
186
186
186
186
185
185
184
181
178
179
177
180
181
68
17
29
23
23
25
26
27
27
30
29
32
35
41
43
40
39
39
38
37
39
40
43
43
41
38
38
45
52
52
45
49
61
61
50
63
60
50
45
59
61
63
63
60
60
60
60
55
44
50
70
74
73
68
63
74
68
44
7
9
16
20
30
40
47
45
49
53
61
67
68
72
76
76
72
75
86
89
83
78
64
47
56
62
64
62
63
63
63
65
62
61
73
75
58
90
96
101
98
82
70
73
74
80
107
113
113
117
125
113
104
96
89
82
82
82
83
96
102
100
97
100
105
104
103
103
97
96
100
95
93
98
102
104
104
101
99
97
99
98
96
94
93
92
90
90
90
93
94
98
100
104
104
105
105
105
105
97
96
101
113
151
129
103
96
87
95
91
77
91
89
91
90
88
75
74
90
99
98
97
95
100
100
101
101
90
84
105
99
98
79
101
105
107
108
113
122
74
96
120
113
88
117
117
88
95
95
94
91
89
87
86
87
88
83
75
70
88
82
66
47
62
60
61
62
70
70
94
69
71
84
67
75
71
65
67
64
61
63
71
75
76
77
81
81
78
73
71
74
74
70
74
73
83
88
103
112
79
107
88
87
89
79
88
94
89
71
102
122
97
90
85
83
108
91
125
116
115
119
99
101
108
68
75
76
81
64
71
59
48
48
57
85
110
88
92
126
88
81
71
66
67
81
83
71
69
71
66
68
68
64
63
71
40
48
59
66
83
97
85
55
54
76
82
70
63
85
98
96
87
69
43
25
21
20
20
22
27
28
28
28
29
32
36
39
41
40
40
39
39
37
36
37
46
52
61
63
63
66
71
73
69
68
77
77
78
77
78
79
78
79
83
84
85
86
88
89
86
83
76
71
64
63
62
63
57
43
34
34
42
41
41
41
48
49
56
59
104
108
97
87
108
116
131
139
158
157
156
156
152
153
156
157
159
160
159
158
154
150
146
142
143
142
146
148
150
153
155
156
154
152
150
149
151
155
159
163
167
168
166
166
164
164
164
164
165
165
165
168
171
170
164
168
165
163
166
165
136
107
55
15
27
42
35
45
40
42
42
43
48
53
55
53
48
46
46
44
40
36
34
32
68
75
83
89
70
48
55
86
62
92
116
71
44
51
60
67
70
78
102
94
118
128
88
111
138
107
119
128
97
99
98
92
84
120
125
90
64
66
69
67
72
71
67
65
65
65
65
65
64
63
60
57
56
56
52
50
50
52
54
51
44
43
48
55
55
44
33
38
52
68
71
64
60
57
57
60
65
64
58
57
58
57
56
54
56
57
57
57
58
58
58
58
58
55
49
48
50
46
48
32
134
165
177
167
174
174
179
176
179
179
180
180
196
190
173
137
71
41
27
54
46
44
41
39
37
26
33
67
121
171
201
181
174
185
192
190
185
185
185
186
185
185
184
181
173
179
175
158
196
99
7
27
23
23
25
25
26
26
27
27
31
35
39
42
43
42
42
42
38
37
38
42
43
41
38
34
38
54
55
42
43
56
62
58
64
62
64
66
67
64
66
66
87
81
72
67
54
33
26
34
28
54
73
67
64
67
69
63
35
21
10
15
36
43
41
38
48
60
66
64
69
77
77
72
72
86
90
87
86
75
54
47
55
62
63
63
60
58
62
59
58
67
71
61
91
98
100
91
80
65
66
71
84
98
84
95
105
106
84
82
88
87
84
83
83
83
96
101
98
97
96
97
97
101
102
99
100
103
102
98
92
94
102
103
99
95
96
97
96
94
92
91
89
89
87
89
91
91
94
96
99
99
101
101
102
102
102
96
86
85
117
118
103
85
71
85
90
80
91
91
91
92
89
84
84
91
97
98
97
94
93
91
90
90
84
78
99
93
92
74
95
100
105
107
101
91
82
99
106
100
103
116
116
103
95
95
94
92
90
87
86
86
84
82
78
76
85
83
67
46
62
62
62
62
61
72
83
72
75
81
71
75
70
67
67
64
62
63
71
72
68
69
77
79
75
73
72
72
59
68
79
88
81
90
103
112
89
102
93
93
86
81
87
95
96
74
101
117
95
104
110
109
117
84
88
90
112
122
109
73
127
98
88
84
76
60
70
54
57
43
62
103
96
97
90
80
81
59
66
91
90
75
73
83
67
67
64
71
77
71
62
50
73
71
70
67
70
77
71
56
83
70
63
66
74
72
86
109
83
76
67
60
42
32
21
20
28
28
28
28
28
32
37
40
41
40
41
41
42
42
42
44
49
55
58
59
60
62
69
74
77
76
69
68
71
74
76
76
78
79
83
84
85
87
89
88
86
83
76
70
64
64
62
63
61
51
38
33
41
41
41
41
46
48
55
58
102
111
104
96
111
119
132
140
158
158
157
157
155
156
158
158
158
158
159
156
148
142
139
135
135
137
141
145
151
155
158
156
153
150
146
145
149
153
158
162
166
168
166
165
165
165
164
164
163
163
163
165
166
164
164
170
170
166
163
163
175
146
106
63
59
52
19
34
28
32
34
35
41
46
50
50
48
46
46
47
29
31
33
35
39
51
66
78
66
53
59
81
71
102
125
81
39
41
45
49
79
78
88
71
114
132
112
116
115
90
108
111
79
111
127
119
101
111
105
86
70
70
70
73
79
79
74
69
65
64
64
63
61
60
59
57
56
53
51
51
51
51
51
50
50
52
55
59
54
40
32
40
52
66
66
58
55
56
57
57
58
58
58
57
57
55
55
54
55
55
55
55
54
54
54
54
54
51
49
47
49
58
43
102
166
166
175
186
176
175
178
178
178
179
180
180
166
175
188
198
184
154
123
96
63
46
54
83
113
123
153
176
205
178
176
198
199
180
174
185
186
186
186
186
185
183
180
179
171
178
172
157
190
112
19
22
23
23
25
25
24
26
26
26
30
33
35
39
42
42
42
43
43
42
41
38
38
40
40
34
31
48
57
52
54
58
65
69
66
63
64
64
64
64
66
66
88
85
82
79
94
77
62
56
38
33
40
63
66
64
64
67
65
50
34
20
14
25
43
49
52
59
64
63
64
71
76
73
74
80
86
87
87
84
67
53
46
52
66
68
69
65
64
64
64
67
71
66
91
93
87
80
76
75
77
77
66
52
56
85
101
95
79
78
83
84
83
83
83
84
87
93
91
91
92
94
97
98
99
104
104
101
100
98
92
94
102
103
99
94
91
92
91
90
88
87
87
87
87
87
89
90
92
93
94
94
94
94
94
94
96
94
91
88
89
91
94
88
88
98
94
80
91
91
91
90
92
96
96
92
96
99
97
94
93
91
90
90
84
78
99
93
92
74
95
100
100
113
107
84
91
101
87
80
110
98
98
110
95
96
94
92
93
87
86
87
90
94
97
99
84
84
68
46
62
62
62
62
55
73
72
70
77
72
81
74
68
68
68
65
64
63
70
72
69
67
70
72
72
72
73
72
59
68
79
88
81
91
103
112
106
94
102
102
78
82
89
98
107
80
101
111
95
116
123
110
101
115
56
81
109
86
134
64
94
97
96
114
70
54
63
47
55
55
82
109
89
104
97
73
71
66
78
92
107
87
76
81
68
85
95
81
79
73
67
63
41
53
68
80
80
57
77
126
100
54
46
82
74
72
86
109
82
79
77
75
68
55
42
32
28
28
28
28
28
32
38
41
42
41
43
44
45
47
49
49
61
57
55
54
57
62
70
74
77
76
69
68
71
74
76
76
78
79
83
84
85
87
88
86
86
83
76
70
66
66
64
63
64
58
44
33
41
41
40
41
45
48
55
58
101
113
114
110
118
127
138
147
158
159
158
159
160
161
160
160
160
159
159
156
148
142
139
135
135
137
141
146
152
157
158
157
153
148
144
143
146
152
158
163
166
167
166
166
165
165
163
160
159
157
156
157
158
155
159
163
165
167
170
167
161
155
148
134
98
73
22
17
25
35
39
41
42
42
42
44
43
42
42
42
34
39
50
55
35
41
50
57
60
58
66
75
87
117
140
96
48
44
42
39
103
101
112
94
76
108
107
88
105
85
111
100
77
99
123
135
126
98
76
75
77
77
77
79
81
79
74
69
65
64
63
60
59
57
56
55
54
53
51
49
51
51
51
52
55
55
53
52
47
36
35
42
47
56
56
48
49
51
51
51
51
54
56
55
54
54
56
56
55
53
53
51
50
49
49
48
47
49
51
54
52
72
77
171
184
170
172
189
178
177
178
178
178
178
180
179
179
177
176
174
181
168
189
200
182
154
145
163
191
186
186
189
188
187
183
179
185
195
189
169
186
185
185
185
183
180
179
180
172
178
172
157
185
130
38
17
25
25
26
26
26
26
25
25
28
31
33
36
37
38
38
40
39
42
44
42
40
40
40
36
34
42
52
57
59
55
58
64
63
63
63
61
60
59
59
59
74
76
79
82
98
98
90
77
67
43
29
41
53
59
66
64
65
65
66
50
19
17
32
45
50
48
53
60
62
59
66
72
75
75
80
87
87
85
80
61
51
47
56
68
71
67
65
66
69
66
64
65
91
89
78
74
76
75
72
75
62
42
49
90
110
98
101
92
84
76
83
80
84
84
85
90
90
89
89
93
96
97
98
103
102
94
92
93
95
101
104
103
97
91
90
92
91
87
85
82
84
84
84
86
89
90
91
89
91
97
91
91
90
90
91
91
85
84
92
73
76
92
116
114
96
67
88
91
91
90
89
103
105
94
98
99
101
100
101
100
100
100
89
89
107
100
99
90
109
108
96
120
123
96
85
89
82
69
100
82
82
102
98
96
94
95
94
87
84
79
62
68
79
87
84
84
64
46
63
64
64
63
52
79
61
67
76
71
85
72
65
69
68
65
67
64
69
77
80
78
68
65
71
75
78
82
74
72
73
73
85
93
104
112
115
88
107
108
77
79
87
101
115
86
102
109
99
120
114
83
93
110
106
73
87
84
104
101
69
75
58
90
64
48
59
42
41
84
110
103
94
102
106
110
66
91
92
73
106
107
90
67
83
122
128
95
69
73
83
86
79
75
79
79
76
75
74
70
47
83
90
63
63
85
98
96
83
75
65
58
67
67
68
55
28
28
28
28
28
32
39
42
44
39
39
43
51
51
51
51
65
59
53
47
58
62
70
71
72
71
77
78
76
76
77
77
82
86
89
87
87
89
88
86
85
83
77
73
69
67
64
63
64
61
51
38
40
41
40
40
44
47
52
58
97
116
121
121
123
130
143
147
156
157
158
161
162
162
163
163
161
159
158
156
154
151
146
143
143
144
147
151
154
157
157
157
154
150
145
144
148
154
158
163
165
166
166
166
166
165
164
163
154
153
154
154
154
155
159
151
157
161
167
169
174
174
172
169
156
136
89
64
41
41
50
54
52
47
41
41
40
40
38
38
48
58
72
81
59
54
45
39
55
66
69
70
96
126
149
105
66
60
51
45
79
87
112
105
76
114
111
102
108
100
120
108
97
88
90
129
129
92
68
79
88
83
79
80
73
69
65
64
63
64
61
59
56
53
53
53
53
53
49
48
51
51
51
52
50
48
41
40
40
34
36
39
44
49
49
42
46
49
49
49
48
50
54
55
54
54
58
58
56
52
51
51
48
46
45
43
43
47
53
59
65
72
162
177
177
173
173
174
178
178
178
178
178
178
179
177
175
173
172
169
165
162
160
150
173
175
178
178
177
177
175
172
175
180
180
177
179
179
183
187
185
185
185
184
181
179
179
180
175
180
169
157
181
146
50
11
25
25
26
26
26
27
27
27
28
26
33
34
36
37
37
37
38
39
44
41
41
42
37
42
44
44
45
49
52
52
44
48
62
62
60
56
55
54
54
54
55
57
64
70
70
84
89
83
75
74
60
31
36
45
53
59
62
63
66
66
54
30
17
26
35
30
36
51
56
56
56
66
74
73
76
87
88
84
86
75
62
52
52
58
62
60
58
64
69
57
52
57
86
106
87
77
92
81
70
78
66
76
70
90
96
86
90
90
89
91
97
76
86
86
68
74
92
80
87
93
96
100
101
96
91
92
90
90
94
98
101
99
93
88
89
94
94
87
83
84
88
91
87
86
87
88
87
83
88
98
93
90
87
87
88
88
91
87
83
82
83
87
109
114
99
82
86
90
90
88
91
107
115
107
104
101
100
100
100
100
100
93
89
101
115
102
101
106
117
106
100
124
121
86
71
83
85
76
86
81
80
94
101
96
93
99
97
93
83
76
65
71
80
87
100
86
61
37
64
67
66
65
52
82
85
65
72
74
73
60
65
69
69
68
67
64
67
74
79
77
67
62
70
75
77
84
70
72
70
70
90
96
103
109
117
77
96
109
68
100
124
74
106
108
113
115
114
110
110
114
91
102
115
126
104
99
91
85
82
94
100
79
44
43
40
48
55
89
98
90
83
97
101
89
81
76
113
143
77
79
98
75
84
88
105
77
64
72
97
80
70
77
105
80
71
61
61
71
57
60
96
60
93
73
64
68
35
69
90
90
56
63
72
79
41
35
26
20
39
39
41
43
46
36
37
46
52
52
53
53
78
73
68
61
58
62
70
74
70
72
79
82
79
77
77
79
85
93
95
90
90
89
87
84
82
80
80
78
74
69
65
62
64
63
56
44
41
41
41
43
43
46
47
45
92
131
121
120
132
136
141
147
153
158
163
164
165
165
167
167
165
162
160
158
157
155
154
153
153
154
155
157
159
160
160
162
160
158
152
152
154
159
161
164
166
167
169
169
169
169
168
166
160
159
158
159
159
161
164
158
164
166
170
172
175
179
183
186
168
167
167
167
160
86
69
86
63
45
31
29
81
53
44
58
85
82
105
80
52
57
57
52
77
73
73
73
89
126
105
51
67
77
69
54
94
77
83
107
101
111
118
109
98
102
113
105
103
101
107
98
113
90
76
88
93
81
73
74
68
67
67
64
64
62
63
63
53
53
51
52
54
52
48
45
43
35
38
52
44
37
35
38
38
33
29
36
51
54
51
45
44
47
48
47
47
47
50
50
50
51
54
54
52
51
50
50
48
49
43
33
52
58
52
43
96
147
176
178
178
175
176
179
179
178
179
179
179
179
178
177
174
172
171
168
167
166
167
167
166
166
169
169
170
171
172
172
172
174
176
174
176
174
177
183
183
183
183
183
181
181
183
182
176
182
167
166
180
165
70
11
26
26
26
26
27
27
30
30
22
27
33
42
35
40
45
51
56
56
48
49
58
45
35
24
44
44
43
45
51
54
55
54
60
61
61
60
59
56
53
51
50
50
54
59
59
73
80
81
76
77
81
77
56
41
28
30
48
56
74
46
54
61
32
18
7
22
43
54
54
55
56
59
68
71
71
81
67
66
75
76
83
58
53
68
67
55
55
64
71
70
66
68
79
90
87
77
92
81
75
85
71
81
75
86
93
90
90
90
90
90
92
73
90
92
68
74
94
80
84
91
96
105
106
94
85
90
91
91
92
92
92
91
88
86
88
95
95
87
88
95
103
104
99
89
82
79
78
76
81
90
92
92
93
90
88
88
89
90
95
91
82
73
90
94
94
89
87
90
90
90
97
114
124
121
112
103
93
89
89
91
91
84
83
103
114
98
92
102
107
89
98
130
111
73
69
90
87
82
75
72
74
87
100
96
93
97
100
101
93
92
96
99
97
95
75
73
62
53
62
66
65
63
56
81
81
65
73
74
68
62
67
70
70
71
68
63
65
68
66
65
66
63
67
66
63
66
69
70
70
70
89
93
99
104
120
98
106
119
117
106
102
88
109
91
93
122
116
99
99
116
100
107
115
122
110
107
105
100
92
84
75
75
42
35
39
63
78
100
101
97
85
81
91
111
93
105
84
77
113
99
63
74
88
84
101
82
78
83
103
82
76
75
77
59
85
111
99
56
67
44
39
51
40
49
20
51
55
65
68
64
63
65
70
70
61
55
51
49
49
48
44
44
43
38
38
46
50
51
51
51
67
63
58
54
51
54
57
61
67
71
77
79
80
78
78
77
78
86
86
83
89
90
87
82
78
77
78
78
76
70
65
62
64
63
59
49
44
40
39
41
44
46
45
45
94
138
132
135
141
146
149
153
157
163
168
169
169
170
171
172
171
169
166
164
162
162
162
162
163
164
165
166
166
167
169
171
171
168
162
161
164
166
167
169
171
172
173
173
173
173
172
171
170
169
169
169
170
170
173
174
176
177
179
180
182
186
191
192
178
178
178
178
175
155
162
146
103
89
111
156
174
145
112
93
82
103
102
60
57
77
76
56
80
72
62
53
108
113
92
58
52
84
84
62
53
72
95
109
87
103
96
75
72
84
86
81
87
106
127
125
101
80
76
79
80
72
65
65
66
66
68
68
69
69
71
71
53
53
52
53
54
52
47
44
46
51
44
27
37
35
35
33
17
37
45
36
33
24
32
47
48
44
45
45
45
44
45
44
43
42
43
44
45
47
48
48
44
33
39
59
40
44
57
97
158
187
190
188
176
178
179
181
180
181
179
179
179
179
178
178
175
175
173
171
170
169
170
170
170
170
172
172
173
174
175
175
175
175
176
176
178
178
179
179
181
182
181
181
183
185
186
183
179
186
170
177
179
179
95
15
26
26
26
26
27
29
31
32
34
34
30
29
56
52
45
41
40
41
44
47
52
45
36
29
44
44
44
45
49
52
56
55
59
65
75
83
80
71
61
54
54
54
51
52
58
65
71
77
83
84
80
74
100
84
68
54
49
42
51
39
50
65
54
64
17
15
13
25
47
54
55
56
61
69
71
72
70
69
75
77
82
60
52
64
65
57
57
63
68
71
79
89
86
84
87
77
91
81
81
91
76
88
81
80
85
96
91
90
90
90
85
69
94
101
68
74
94
80
83
90
101
105
105
101
94
89
90
91
92
91
91
93
95
99
107
118
118
109
109
120
132
141
138
125
112
104
101
107
112
111
95
94
92
92
91
90
89
91
94
91
85
82
87
88
88
91
90
90
89
89
96
114
124
119
109
99
88
84
87
91
92
84
77
98
109
92
87
94
92
74
87
128
102
75
77
89
67
82
74
58
66
87
96
97
92
89
94
97
95
99
108
108
100
93
61
63
60
54
54
58
58
56
63
73
73
72
79
68
62
66
70
72
74
72
71
65
67
65
66
66
66
67
66
61
55
50
70
70
71
70
83
87
93
98
96
97
89
99
115
96
87
115
128
108
114
132
105
99
99
101
98
97
100
101
103
104
107
110
90
68
56
65
40
39
55
70
90
99
91
94
94
84
88
101
63
100
91
79
90
93
83
111
95
77
93
89
80
79
93
65
81
78
61
67
71
96
84
41
82
72
65
67
24
43
26
68
79
68
64
69
71
69
66
64
63
65
68
70
66
58
48
41
38
45
45
38
51
51
51
51
83
78
73
71
72
73
69
66
65
67
71
76
79
78
78
76
75
82
82
79
87
90
85
76
71
70
70
72
74
72
65
62
63
64
62
55
49
45
39
41
44
46
45
45
98
148
148
155
152
157
160
161
163
166
169
170
173
173
174
175
175
173
171
170
170
171
171
171
171
173
174
175
175
176
177
179
179
177
171
169
169
170
171
173
175
176
177
177
177
177
177
177
176
175
177
177
178
178
182
183
184
186
188
189
190
193
193
191
189
189
187
187
197
185
182
187
167
172
178
182
196
143
95
80
81
103
83
57
47
52
52
47
77
75
72
69
113
119
121
100
54
69
91
78
89
67
81
120
128
129
121
110
97
88
86
85
81
86
107
114
99
87
83
76
77
81
79
72
67
67
67
66
65
64
64
64
53
53
52
54
54
52
46
42
27
43
51
47
35
35
33
34
49
29
21
31
45
54
47
32
33
39
40
40
40
40
43
44
46
47
48
46
45
44
43
43
29
49
55
44
24
57
116
182
187
190
188
184
181
181
181
181
179
181
180
180
180
180
180
180
177
178
178
177
175
174
175
176
176
176
178
178
179
180
181
181
181
181
182
182
184
184
185
185
185
185
185
185
186
187
188
185
179
187
178
188
177
191
126
21
26
26
27
27
28
28
31
31
35
35
31
30
55
50
43
42
43
43
40
41
42
42
40
40
42
44
44
45
48
50
52
55
59
65
75
84
84
77
66
61
60
56
48
44
49
55
60
64
77
77
75
74
98
93
89
75
78
47
43
36
43
60
50
70
46
34
24
15
30
47
54
55
54
67
72
70
62
71
73
78
79
61
48
54
61
64
66
57
62
66
74
83
101
91
87
77
91
81
82
96
81
89
88
75
83
101
88
88
90
90
78
67
96
107
68
74
94
80
79
89
96
97
103
111
105
91
91
92
93
95
99
103
109
109
109
112
110
100
97
105
119
129
135
133
127
119
127
147
154
148
125
110
96
95
93
92
91
88
86
87
92
95
109
97
93
92
92
91
89
86
88
103
113
105
93
88
88
90
93
95
97
86
73
94
101
87
88
95
87
70
82
114
83
75
76
76
53
77
75
58
69
90
94
95
89
76
78
85
89
90
90
88
84
82
66
63
52
41
51
55
56
52
68
70
70
78
83
63
58
68
69
75
76
74
72
69
68
71
76
75
71
69
66
66
64
54
70
72
72
72
77
83
90
93
100
117
98
108
118
101
65
83
108
114
109
93
85
110
110
85
81
80
78
78
84
91
99
104
63
63
60
43
48
63
70
62
77
78
74
83
104
106
90
67
84
77
97
93
82
91
119
104
100
72
89
93
70
64
73
43
80
82
68
98
78
67
67
78
51
83
119
54
54
57
80
107
90
76
81
101
78
71
63
55
54
59
68
75
77
65
50
38
34
48
48
34
51
51
51
51
72
68
62
58
70
65
56
53
59
63
65
70
76
79
79
78
81
90
90
86
90
91
84
75
66
66
66
69
72
72
63
61
63
64
62
57
54
48
43
41
44
46
45
46
100
153
159
169
161
166
166
163
166
168
169
170
174
175
176
176
176
176
176
176
177
177
179
178
178
179
179
181
182
183
183
185
185
184
179
176
175
175
175
176
177
178
179
179
179
179
181
180
181
181
184
184
185
185
188
189
190
191
192
192
192
192
192
192
193
191
191
191
167
194
180
187
207
181
173
189
181
95
50
72
81
85
57
66
76
47
47
76
72
82
98
109
116
142
157
143
86
70
76
84
73
87
119
147
105
80
88
114
105
82
81
94
93
78
57
61
71
80
76
59
58
68
68
61
67
66
66
66
48
48
50
50
50
50
49
50
55
51
46
42
51
38
35
43
35
32
34
40
26
34
38
33
29
24
28
35
36
35
36
36
35
36
38
36
33
33
38
40
38
37
39
39
55
44
38
41
72
136
186
176
178
176
175
177
180
182
178
181
178
179
181
180
180
180
181
181
182
182
183
181
180
179
179
179
182
182
183
183
184
185
185
185
185
185
186
186
187
187
188
189
187
187
187
187
187
187
188
185
183
189
185
194
175
194
150
25
26
26
27
27
29
29
31
30
23
30
40
44
73
78
84
88
78
64
43
28
38
44
40
43
44
42
45
47
48
48
50
55
59
61
64
65
66
66
66
66
66
57
47
40
40
43
48
52
54
62
74
81
78
73
64
61
85
55
61
51
39
50
41
60
57
56
56
41
24
30
47
54
51
61
70
71
59
67
76
78
75
59
51
53
57
68
68
56
60
56
52
53
96
94
105
101
104
75
78
99
85
86
92
90
82
85
87
84
76
75
73
93
107
105
103
86
78
79
80
85
90
92
103
115
109
96
95
92
92
99
104
105
109
109
103
100
95
89
88
93
103
108
111
119
123
117
132
158
167
162
173
159
142
128
111
104
95
92
91
88
89
94
97
97
94
91
91
91
87
82
83
96
103
95
86
85
88
89
90
88
85
71
69
89
87
83
83
90
70
68
79
90
74
70
67
67
61
75
75
62
68
87
85
84
81
68
69
76
81
81
79
77
72
70
82
64
55
57
64
63
58
57
56
69
76
85
101
95
81
67
68
76
80
75
73
72
69
74
78
77
75
71
67
71
69
57
64
70
74
73
76
80
90
97
103
106
108
111
101
107
94
70
73
89
98
93
91
107
113
106
76
77
80
81
92
99
93
77
77
64
47
34
52
77
88
75
72
67
77
99
100
99
83
49
92
75
83
64
65
78
111
99
90
66
68
77
66
75
81
65
75
80
49
92
85
82
80
82
57
71
103
67
54
57
85
88
82
61
73
100
89
71
54
41
62
61
59
63
69
69
70
70
62
70
63
48
41
39
51
71
60
61
62
63
62
62
62
63
60
62
62
65
70
77
79
79
84
93
93
89
90
89
80
78
65
66
66
67
70
68
62
60
62
64
61
57
55
49
44
42
43
45
44
45
99
161
166
164
167
169
172
175
177
178
179
179
176
176
177
178
179
179
181
181
182
183
184
184
184
184
187
187
187
187
189
189
190
189
188
186
184
182
182
182
183
183
182
182
182
182
183
184
186
188
190
190
190
191
191
191
193
193
193
193
194
193
193
193
192
192
192
191
189
191
194
197
197
184
176
200
145
47
50
58
78
56
47
57
42
40
56
80
77
97
112
138
131
153
143
111
101
96
86
80
79
88
126
123
125
106
95
46
91
74
77
90
91
74
74
67
65
82
82
62
57
63
64
61
61
64
64
64
52
52
51
49
48
46
47
46
55
50
44
39
53
43
35
30
21
22
49
107
33
27
26
41
36
30
27
32
33
32
33
33
34
35
38
34
28
28
35
37
40
38
40
40
44
33
52
120
173
180
180
175
175
177
177
178
181
179
175
172
178
180
180
180
181
181
182
182
185
184
186
186
185
185
186
186
186
186
187
187
187
187
188
188
188
188
188
188
188
188
188
188
189
189
189
189
189
189
189
188
187
190
190
193
176
186
169
38
27
28
33
34
32
30
27
34
46
60
69
67
82
77
84
89
84
73
60
54
61
46
40
28
30
38
44
47
48
48
50
55
61
61
62
62
63
66
67
67
66
60
54
50
44
40
36
37
44
55
69
78
65
70
76
81
96
90
91
56
53
74
54
50
64
66
66
65
38
26
28
40
45
50
57
63
59
63
58
60
59
58
55
54
54
61
66
57
58
57
59
65
77
91
102
98
107
79
76
99
85
83
90
85
80
76
86
87
81
72
73
90
101
96
97
84
81
90
92
90
91
97
103
108
102
97
96
90
90
99
104
103
101
97
90
86
83
83
90
96
102
100
97
102
106
109
125
147
154
148
159
155
148
145
149
135
119
109
96
95
98
99
97
94
87
89
90
89
84
79
83
93
96
89
88
90
90
88
82
74
67
58
66
88
77
80
82
83
60
71
78
72
70
72
67
65
71
74
73
69
67
77
77
74
72
69
72
70
65
69
75
75
70
70
73
70
64
66
58
54
63
70
45
57
69
76
100
88
79
71
69
77
82
76
73
73
70
69
67
73
78
75
74
76
71
64
62
64
71
74
77
79
83
87
90
92
93
94
59
97
110
89
65
73
89
98
112
96
91
98
82
80
77
75
88
94
89
74
66
45
51
81
120
97
81
75
89
82
90
107
112
83
63
63
93
92
58
58
77
77
63
88
72
73
70
85
64
81
75
68
51
72
65
63
70
73
66
63
75
56
51
54
41
61
53
71
97
79
63
68
78
85
80
74
68
62
61
63
65
68
70
70
62
70
63
48
54
42
42
54
71
71
70
70
68
67
66
66
65
65
64
63
65
71
77
77
79
86
86
82
84
82
77
80
66
66
66
67
69
67
61
59
62
62
59
57
54
49
45
42
43
45
44
45
101
164
169
168
172
175
177
178
179
179
179
179
177
177
178
180
181
181
184
184
185
185
187
187
188
188
189
189
190
190
191
191
192
192
193
191
190
189
189
189
189
189
188
188
188
188
188
189
191
192
193
194
194
194
194
194
194
194
194
194
194
194
194
194
193
192
192
196
198
196
189
183
202
199
193
196
85
48
52
40
63
53
50
53
34
31
44
66
88
122
139
135
151
169
162
136
125
87
70
84
94
93
119
111
106
93
102
78
63
63
65
60
55
57
64
69
76
88
89
75
68
67
66
65
62
61
61
59
53
52
51
49
47
44
44
46
49
46
41
36
27
40
44
37
39
78
138
190
127
92
58
40
51
56
48
27
25
33
37
36
36
35
36
38
39
39
39
36
36
36
39
40
53
105
156
185
184
169
170
184
177
177
177
175
170
172
179
181
182
181
181
181
182
182
184
184
186
186
188
188
186
186
187
187
187
187
188
188
188
189
189
189
189
189
189
189
189
189
189
189
189
189
189
189
189
189
187
187
187
188
188
187
179
180
178
59
16
24
33
39
52
61
70
74
76
80
91
99
67
72
77
73
99
87
63
40
40
43
45
48
35
38
42
44
48
49
50
56
61
62
63
63
64
66
66
64
63
64
70
73
64
50
35
30
41
48
58
64
72
77
83
88
76
74
91
76
70
79
58
58
64
64
64
66
55
38
26
28
36
45
50
57
56
59
63
60
60
60
60
60
49
53
59
58
58
57
59
64
64
78
86
88
101
75
76
99
85
83
84
80
75
70
80
93
87
65
75
88
91
81
89
80
84
103
111
97
91
101
101
97
92
95
94
85
85
97
104
101
92
89
91
94
98
99
102
104
110
111
105
100
107
118
133
150
152
141
128
125
118
115
144
140
135
115
106
104
107
106
105
97
88
86
86
84
79
76
81
91
88
81
82
85
85
85
80
72
59
55
68
85
69
78
85
78
54
71
76
69
72
76
69
64
71
72
73
76
67
73
76
72
72
77
76
69
63
68
75
75
70
72
70
66
70
75
70
62
61
66
55
59
75
80
99
79
75
81
76
80
84
77
74
73
73
68
61
73
78
73
77
80
75
75
70
62
64
73
78
77
74
71
118
108
94
84
60
84
97
89
71
65
73
89
84
68
63
70
90
83
74
67
82
89
83
67
55
44
66
105
134
104
82
80
98
85
84
93
99
78
69
79
98
103
76
81
114
102
70
84
71
93
64
72
60
91
66
72
57
66
89
57
73
71
73
78
81
42
27
49
59
75
62
73
96
78
60
53
52
76
86
77
89
70
63
61
70
70
70
70
62
70
63
48
65
55
55
66
57
57
59
60
60
62
63
64
65
65
64
64
62
64
71
74
75
84
84
77
77
72
73
73
69
66
66
67
69
67
60
59
62
61
58
52
51
49
44
43
43
45
44
45
108
172
176
175
177
179
181
181
181
181
181
181
181
181
182
182
184
184
186
185
187
187
189
189
190
190
191
191
192
192
193
193
194
194
196
196
197
196
196
196
196
196
194
194
194
194
194
196
196
196
197
197
197
197
197
197
197
197
196
196
196
196
196
195
195
194
194
189
187
189
197
201
194
205
199
173
66
69
68
58
40
49
53
48
38
44
72
103
167
157
158
159
178
189
194
189
116
84
74
93
150
93
86
87
102
73
77
70
78
90
84
70
60
66
79
74
67
66
67
61
57
56
55
55
53
54
52
52
52
52
50
49
47
44
44
45
45
41
35
30
41
15
23
61
124
178
203
173
195
177
157
116
66
38
27
44
45
39
35
39
41
39
38
37
36
35
36
36
45
59
77
90
148
182
198
172
169
184
184
170
177
179
179
175
171
171
178
181
182
181
182
182
183
183
186
186
187
186
188
188
186
186
188
188
188
188
188
188
187
187
187
187
187
187
187
187
188
188
188
188
189
189
189
189
189
189
188
187
186
184
183
183
182
179
189
88
22
33
49
60
73
83
92
93
77
62
69
91
76
92
98
83
99
99
76
40
33
39
49
56
44
41
38
36
48
49
50
56
61
62
62
63
62
62
61
60
62
64
70
76
76
69
60
47
37
40
42
44
67
71
77
82
68
57
82
84
90
88
65
76
77
70
64
64
60
55
38
26
26
36
45
50
48
52
56
60
66
67
67
67
44
41
50
55
56
55
57
62
68
67
70
73
87
65
76
99
85
83
80
76
70
66
75
97
91
61
73
85
84
71
84
78
87
112
118
101
89
97
97
90
87
91
89
81
81
94
104
99
88
81
83
85
90
94
94
91
97
103
102
95
101
114
128
140
139
129
144
130
113
100
113
113
110
103
102
107
116
115
112
107
94
87
82
81
76
76
80
87
80
69
69
74
73
78
81
75
60
63
78
83
64
77
83
69
57
71
76
76
80
73
67
64
69
69
72
76
72
76
80
76
74
76
72
76
77
79
79
74
70
72
72
61
66
82
92
80
62
50
78
72
86
96
96
71
73
87
81
82
83
75
72
79
75
70
67
74
68
60
70
80
80
87
81
69
62
64
81
76
67
63
75
82
92
98
100
77
64
72
71
71
65
73
66
82
88
81
96
86
72
61
77
84
78
63
48
64
82
95
105
112
106
89
91
72
64
70
78
92
94
83
104
99
124
119
49
67
107
100
86
113
54
48
57
97
65
73
92
65
93
79
106
78
88
114
93
61
69
36
50
52
65
50
67
65
64
60
37
46
59
57
98
89
68
63
73
66
73
73
62
71
67
48
71
68
81
100
68
68
68
67
66
65
66
66
65
65
64
64
62
62
64
70
74
82
83
76
74
70
73
69
65
65
65
65
69
65
62
56
62
59
55
44
55
49
44
43
43
45
44
44
113
175
182
175
180
179
181
181
181
181
181
181
182
182
184
184
184
184
186
187
187
187
189
189
190
190
191
191
193
193
194
194
195
195
197
197
198
198
199
199
199
199
198
198
198
198
197
197
197
197
197
196
196
196
196
196
196
196
196
196
196
196
196
195
195
194
194
194
196
194
192
189
181
193
186
156
57
57
40
50
25
47
56
45
48
71
123
171
192
127
119
171
202
180
157
144
81
87
96
103
107
109
119
83
99
76
98
93
73
70
65
58
58
64
64
63
65
67
68
67
65
61
61
62
49
49
50
50
49
49
48
47
47
45
44
44
41
36
30
27
32
44
89
141
196
189
181
181
179
183
191
179
191
159
122
97
79
63
46
43
44
43
42
42
48
57
67
75
95
126
167
197
183
183
178
176
177
173
173
178
178
178
180
178
181
177
174
171
178
181
182
182
183
183
186
186
187
188
189
188
186
186
187
187
186
185
186
186
186
186
187
186
186
186
186
187
187
187
188
188
188
188
189
189
188
188
186
183
180
175
176
177
182
182
190
113
37
50
70
85
73
78
87
92
105
75
69
91
61
87
92
68
85
102
89
55
42
43
45
48
48
43
36
33
45
49
50
56
61
62
62
62
61
61
60
63
67
64
63
66
71
71
71
64
34
33
32
30
51
55
62
65
77
53
69
75
93
89
75
93
94
85
77
70
62
60
55
38
24
26
36
45
43
46
49
53
70
70
70
69
45
38
41
47
50
47
50
53
59
57
76
69
75
91
80
83
90
95
78
75
69
68
72
77
85
88
69
81
81
67
68
78
91
104
111
101
89
88
91
87
85
89
89
82
82
96
103
97
85
87
86
84
85
93
90
81
83
92
92
89
91
101
114
122
119
113
129
130
116
95
93
92
93
93
94
100
112
121
128
112
96
84
81
79
78
78
80
81
72
65
63
68
73
82
81
69
59
74
82
80
65
79
79
62
71
76
79
80
79
71
68
69
71
73
74
77
70
82
84
79
78
78
75
87
81
81
78
73
70
75
71
58
81
69
83
93
66
76
79
64
83
100
106
102
62
82
84
82
75
74
77
91
76
74
76
71
61
61
73
82
86
91
97
94
77
58
69
78
81
69
50
63
66
55
70
76
53
59
66
68
70
67
63
67
75
80
103
94
78
63
60
51
40
36
47
92
116
96
139
126
90
103
114
96
60
91
99
78
69
78
100
84
118
93
85
101
105
105
108
46
59
80
69
68
70
83
88
62
66
110
75
81
68
97
67
56
56
67
104
87
80
85
56
48
63
56
49
45
46
75
93
84
71
103
75
60
78
82
74
73
70
63
64
68
75
79
79
62
83
89
70
60
75
66
63
64
64
64
62
61
63
65
71
73
75
74
71
71
73
69
64
64
64
62
57
62
66
72
68
64
56
56
39
50
50
38
45
45
44
62
116
189
185
171
182
182
182
182
182
182
184
184
184
183
186
186
185
186
188
188
188
188
190
190
191
191
193
193
193
193
194
194
195
196
197
197
198
200
200
200
200
200
198
198
198
198
198
197
198
198
199
197
197
195
195
195
195
195
195
195
195
195
195
195
195
194
194
196
196
195
194
194
187
189
206
114
33
25
41
26
39
39
53
27
53
87
129
149
150
140
151
173
187
162
127
89
104
93
91
104
134
123
93
123
99
93
139
110
69
64
62
57
57
56
55
56
62
66
67
67
64
62
61
61
46
46
46
45
46
46
47
44
41
44
45
39
35
38
29
17
73
136
186
198
184
184
184
182
180
179
179
179
179
179
179
179
172
165
124
72
24
46
94
140
146
160
176
175
177
179
179
179
179
179
179
179
178
178
179
179
181
179
181
182
181
179
176
179
180
181
182
182
182
182
186
186
187
188
190
189
188
186
186
184
186
184
186
184
184
184
184
184
184
184
184
184
184
185
186
186
185
185
187
187
184
182
177
174
169
162
166
170
173
181
179
130
47
51
58
61
77
78
70
99
140
97
77
92
85
79
75
76
70
120
123
74
28
38
45
40
46
43
36
35
44
49
51
57
62
63
63
62
63
62
62
67
71
67
70
77
78
79
84
84
99
83
56
43
20
25
36
48
57
64
68
63
58
82
92
76
81
81
81
81
80
73
67
53
38
23
17
21
23
47
59
50
66
66
66
66
62
49
42
46
39
46
55
60
83
85
83
76
82
99
91
95
102
105
80
76
70
66
51
55
62
66
70
77
78
71
74
81
90
98
99
95
87
83
89
88
88
91
96
94
94
103
101
91
86
92
93
85
85
93
93
85
83
85
83
82
84
90
101
107
104
101
104
117
121
111
93
93
92
93
88
97
107
115
117
106
92
84
82
83
83
84
83
78
70
68
67
67
76
90
86
63
56
68
75
75
71
86
80
65
79
75
78
82
78
70
70
73
75
76
77
78
70
91
91
69
75
83
82
89
77
81
79
71
70
78
73
69
81
78
97
99
85
86
85
73
97
101
85
66
55
81
81
77
66
73
94
101
75
74
83
76
68
73
79
84
88
90
95
96
84
64
69
81
81
69
53
71
81
76
80
80
49
49
54
60
66
66
65
66
69
72
77
87
76
49
38
34
29
25
56
95
106
92
119
138
114
108
121
126
114
119
78
125
121
70
43
65
67
49
53
61
63
78
95
79
86
83
116
91
70
60
85
80
93
100
72
94
91
90
78
67
67
78
89
75
73
81
92
89
47
51
60
44
14
60
67
64
53
82
75
61
76
88
77
71
71
65
78
75
68
64
76
35
57
85
60
50
64
57
59
63
64
64
64
64
66
66
70
67
70
71
69
68
68
67
67
66
64
62
59
62
66
68
53
48
45
46
60
50
50
60
45
45
44
62
121
184
183
173
182
182
182
182
183
183
185
186
185
185
187
186
187
187
189
189
189
189
191
191
193
193
194
194
193
193
194
194
195
196
197
197
198
200
200
200
200
200
198
198
198
198
198
197
198
199
200
198
196
195
195
195
195
195
195
195
196
196
195
195
195
195
196
196
196
195
195
194
197
185
186
81
31
71
69
70
95
87
60
76
93
109
132
143
135
142
161
179
184
151
110
95
101
93
97
111
112
99
71
97
99
128
158
90
65
65
64
63
61
60
59
59
58
58
59
60
61
61
60
59
57
56
53
49
46
44
45
44
44
30
29
45
24
16
48
99
159
184
199
186
184
184
184
182
181
179
179
179
179
179
179
177
176
183
175
151
140
149
170
186
187
182
179
179
179
179
179
179
179
179
179
179
178
178
179
179
181
181
182
182
181
179
179
179
181
181
182
182
182
182
184
184
186
187
188
188
187
185
185
184
184
183
184
183
183
183
183
183
183
183
183
183
183
183
182
182
182
182
181
181
180
176
170
165
158
154
160
161
161
171
162
131
47
50
57
61
74
82
74
95
142
102
74
76
75
76
78
82
78
97
97
79
52
33
36
55
46
43
36
37
43
49
51
57
62
63
63
62
64
64
64
66
65
64
73
86
90
94
106
116
94
86
81
71
64
48
30
26
37
47
57
64
69
77
79
81
79
78
78
78
60
59
63
60
56
38
22
17
14
31
45
47
61
61
61
61
55
51
35
24
44
52
61
65
87
94
77
70
76
92
91
95
102
105
79
76
68
66
51
55
62
66
78
71
71
78
82
85
87
89
89
87
85
84
85
87
88
92
101
99
100
107
99
86
87
94
94
85
85
94
99
98
92
80
75
79
82
88
96
100
97
95
90
108
117
112
93
93
93
92
86
92
105
110
104
99
91
88
87
89
88
90
87
78
73
75
71
61
77
91
84
59
60
71
78
75
71
86
83
70
85
76
79
87
82
69
71
79
80
81
83
84
74
97
93
62
82
85
84
84
71
84
84
72
74
80
71
81
79
86
101
90
93
82
88
75
101
89
75
55
66
86
89
72
52
39
105
91
86
77
77
73
70
77
81
86
88
90
90
97
91
74
70
81
81
70
61
75
78
68
73
76
53
57
54
54
54
61
65
62
60
58
55
56
52
43
38
36
31
26
67
98
95
89
108
138
128
133
92
107
147
161
100
105
108
110
77
84
85
83
94
83
57
68
76
92
87
89
121
89
74
74
70
60
83
61
54
65
79
66
64
52
52
64
54
45
48
62
95
45
64
99
90
79
109
64
64
63
45
66
71
70
68
91
79
63
63
64
79
75
68
65
69
29
51
79
75
64
79
69
63
63
66
67
68
69
71
69
69
68
69
67
68
67
66
66
64
64
63
64
66
64
62
58
53
44
45
43
46
35
34
46
45
45
44
63
127
178
177
180
182
182
183
183
185
185
186
186
187
187
188
188
188
188
191
191
190
190
193
193
193
193
194
194
193
193
194
194
196
197
198
198
199
199
199
199
199
199
198
198
198
198
198
198
199
200
201
199
198
198
198
198
198
198
198
198
197
197
197
197
197
197
197
196
196
194
194
194
205
189
183
73
29
55
52
68
107
103
84
105
107
111
117
124
138
152
163
164
146
109
91
93
79
78
87
109
110
103
76
90
116
141
163
83
59
59
60
60
62
63
62
60
58
55
54
55
57
57
55
54
52
51
49
46
45
44
44
44
24
39
39
24
30
60
128
192
197
185
177
178
184
184
184
182
180
179
179
179
179
179
179
176
173
179
189
187
186
189
187
182
180
182
182
183
182
179
179
179
179
179
179
179
178
178
179
179
181
182
183
182
181
179
179
179
180
180
182
182
182
182
183
183
183
183
184
184
185
184
185
184
184
183
183
182
182
182
182
182
182
182
182
182
182
181
181
180
178
177
177
176
175
171
165
157
151
154
160
156
154
160
154
135
47
50
58
61
67
88
80
89
122
99
78
72
78
81
84
84
85
90
90
85
72
43
43
60
46
43
36
37
43
49
51
57
62
63
63
63
64
64
64
70
73
63
54
60
68
71
70
68
81
89
100
91
96
89
85
81
54
46
37
47
51
49
54
62
87
87
87
87
86
70
57
48
66
57
38
24
21
19
24
42
55
54
54
55
67
66
53
33
29
31
31
35
66
77
61
54
61
76
80
83
90
95
78
76
66
68
71
77
85
88
81
67
67
81
91
86
84
82
83
82
83
84
87
88
90
92
95
94
95
101
96
89
91
94
92
83
83
91
99
102
92
76
73
78
82
87
92
96
96
94
95
108
109
100
93
93
93
92
86
89
98
111
97
94
92
90
94
95
94
94
88
81
77
77
72
66
80
75
69
63
73
87
92
80
71
73
72
69
94
85
80
93
83
68
73
82
83
86
89
90
81
96
89
67
95
83
80
81
74
88
85
72
77
79
68
87
73
90
92
73
87
69
82
66
88
70
81
72
93
83
77
55
70
74
76
77
104
81
70
68
69
74
79
86
88
88
84
97
98
83
69
81
81
70
71
72
58
37
52
68
61
77
68
61
54
57
61
59
52
46
49
22
23
49
52
49
41
38
73
96
92
85
113
125
126
162
107
76
112
132
105
76
85
126
133
83
117
125
81
90
91
85
62
75
63
96
97
66
63
90
111
66
85
65
74
54
80
81
74
62
62
74
62
56
65
81
48
67
65
89
62
58
84
76
80
75
50
68
68
76
61
94
81
66
60
60
65
68
75
79
65
48
69
74
65
54
69
61
62
66
69
69
70
73
76
73
69
67
68
70
70
64
61
61
62
62
63
67
66
65
62
56
58
56
58
51
45
57
57
45
45
45
44
63
131
177
172
180
182
182
183
183
185
185
186
186
187
187
188
188
188
188
191
191
190
190
193
193
192
192
193
193
193
193
194
194
196
197
198
198
199
199
199
199
199
199
198
198
198
198
198
198
199
199
200
199
198
198
198
198
198
198
198
198
197
197
197
197
195
195
196
194
194
194
195
191
207
197
198
94
73
32
49
66
66
80
111
98
104
107
110
114
155
167
159
137
130
115
115
116
101
101
116
135
78
81
59
71
83
90
113
36
54
52
55
56
59
60
61
60
60
59
56
54
52
51
49
50
34
34
33
33
44
44
44
43
31
24
24
31
106
167
199
185
185
175
182
200
184
181
184
182
182
179
179
180
180
182
182
182
183
182
178
179
183
189
183
169
172
177
179
180
181
179
179
179
179
179
179
179
178
178
179
179
181
181
182
181
181
179
179
179
182
182
183
184
183
183
184
181
180
179
181
182
185
185
185
182
181
179
178
177
179
179
179
179
180
181
182
182
182
181
178
177
179
177
175
173
170
168
163
155
149
156
159
151
148
150
147
139
47
50
57
62
62
92
84
83
93
90
84
84
84
86
83
84
85
109
108
90
73
67
61
52
45
42
35
36
42
48
51
57
61
63
63
62
62
62
63
64
61
57
55
55
52
56
67
71
81
88
93
91
106
99
91
76
78
65
54
46
57
47
51
70
60
60
60
60
87
79
75
73
72
66
56
38
36
20
20
40
51
51
51
51
54
48
40
27
48
42
33
31
62
66
81
85
91
96
82
82
82
82
76
62
64
72
88
87
83
70
70
70
80
85
95
85
84
92
84
81
82
83
87
90
94
94
89
88
93
96
95
91
92
91
88
82
82
88
91
92
85
75
73
78
83
87
90
95
97
97
105
111
104
87
97
107
105
92
101
107
115
114
114
109
108
106
101
99
99
97
93
87
82
79
76
83
89
66
58
64
80
95
95
81
80
71
69
73
92
88
81
91
78
74
82
83
80
87
92
93
93
89
82
78
102
85
80
81
83
94
86
72
80
78
66
86
72
92
89
62
83
87
61
71
107
89
63
49
99
85
69
57
85
95
76
76
99
82
72
76
78
75
79
85
88
87
100
90
90
94
85
87
73
51
76
84
49
34
53
53
59
65
40
40
40
40
39
40
42
44
23
36
48
53
45
32
31
54
72
123
101
99
135
134
112
144
146
128
95
77
102
126
118
131
139
86
92
94
78
89
122
131
106
72
70
100
92
64
85
83
103
69
75
94
87
86
80
73
50
47
60
80
88
65
65
88
70
108
75
64
49
71
108
96
53
86
41
98
91
67
45
79
77
66
60
59
65
55
62
79
70
70
69
68
65
64
63
62
61
65
72
75
76
73
78
82
74
70
72
75
73
63
56
60
61
60
61
62
67
66
66
68
74
46
65
65
41
95
136
86
64
64
65
63
108
178
186
179
182
183
184
184
184
185
186
187
187
188
188
189
189
189
189
189
190
190
191
191
192
192
193
193
193
193
194
194
196
196
198
198
198
198
199
199
199
199
198
198
197
197
197
197
198
199
200
199
199
198
198
198
198
198
198
198
198
198
198
195
195
194
194
194
193
193
208
190
203
200
190
135
74
77
83
92
47
71
106
124
94
105
118
136
169
155
140
121
143
106
94
109
82
113
121
90
67
67
68
65
60
55
51
48
48
48
50
51
54
55
57
56
55
54
53
52
49
48
46
45
44
43
43
44
45
42
35
30
18
38
74
141
181
185
182
177
179
183
183
179
176
178
182
184
181
180
181
181
183
183
184
187
188
184
186
183
183
183
182
180
175
176
177
178
178
178
178
178
177
177
177
177
177
177
177
177
177
177
178
177
178
179
181
182
181
182
182
182
182
182
181
180
179
178
178
180
183
181
177
173
168
163
160
160
162
164
164
164
167
169
173
175
176
175
175
176
175
172
168
164
162
160
158
155
151
151
149
142
141
142
140
139
75
40
61
63
59
74
84
81
87
84
83
79
93
88
84
80
82
98
104
93
79
81
77
59
45
42
35
34
37
44
49
52
57
62
63
62
60
62
65
67
63
61
61
55
49
52
65
90
87
70
65
72
96
104
97
82
86
90
90
85
83
85
85
82
84
86
70
43
66
72
66
68
70
68
62
58
51
24
15
28
34
34
34
34
32
43
50
62
50
43
39
35
66
63
88
92
98
103
90
90
90
90
75
62
63
73
87
87
79
67
70
80
86
87
94
87
87
91
88
84
84
84
84
88
93
93
88
86
89
91
90
90
90
85
81
82
86
84
84
84
81
79
76
78
83
88
93
97
97
96
101
109
107
93
107
121
123
114
105
109
113
113
111
108
106
104
103
102
100
97
96
90
84
81
85
99
97
70
57
65
82
90
88
75
83
78
79
86
84
84
83
84
75
83
93
88
82
90
93
87
105
81
73
93
106
86
84
80
84
94
86
72
83
77
69
80
78
88
93
79
85
83
65
80
97
86
82
63
85
64
63
81
81
92
87
78
66
83
83
83
81
76
78
85
88
87
87
88
88
82
95
100
91
73
78
85
50
37
45
39
32
31
30
29
28
27
30
37
46
53
36
54
53
36
43
66
78
74
62
99
100
106
157
147
125
128
114
127
124
87
116
134
121
132
118
104
94
84
103
96
105
126
119
74
63
95
93
90
85
57
68
53
72
105
90
95
77
46
44
42
54
74
77
53
53
77
69
52
49
51
31
80
131
70
60
80
40
77
73
40
55
60
77
73
70
70
74
70
77
87
87
87
87
87
74
74
74
67
54
51
65
81
84
73
77
89
87
80
76
73
70
62
62
72
77
76
75
73
71
69
67
68
67
55
63
63
57
127
160
114
64
64
65
63
112
177
182
180
181
181
183
183
184
184
185
186
187
188
188
189
189
189
189
189
190
189
190
191
191
189
190
192
193
193
194
194
196
196
198
198
198
198
199
199
199
199
198
198
197
196
196
196
197
197
198
198
198
197
197
197
196
196
196
196
196
196
196
195
194
193
193
193
192
193
205
188
198
200
191
160
65
88
103
105
110
111
116
121
108
115
123
138
139
130
121
115
130
98
83
92
83
72
71
70
65
63
63
63
63
60
55
53
50
49
48
47
45
45
46
44
43
42
43
43
42
43
43
43
41
41
41
41
31
31
30
29
68
127
177
197
178
169
177
199
183
183
183
184
185
183
176
175
177
180
181
181
182
182
183
183
182
180
177
176
175
175
175
175
175
175
175
175
173
173
173
173
173
173
174
174
172
172
172
172
172
172
172
172
174
174
175
175
176
176
177
177
175
175
177
177
177
175
174
174
172
168
163
157
149
142
137
135
137
139
138
140
146
151
157
160
162
162
162
162
162
158
154
149
146
148
151
151
148
142
136
135
139
141
141
141
84
38
55
64
57
66
79
82
84
80
79
79
79
83
90
94
83
93
100
98
89
65
54
56
48
43
37
34
34
37
43
49
52
57
62
63
65
69
75
81
79
65
56
57
59
64
57
42
51
66
72
65
81
74
81
96
90
85
85
90
91
88
88
92
111
109
98
83
81
72
60
65
60
57
51
47
64
36
36
63
57
57
56
56
89
104
116
114
69
55
44
48
66
63
82
87
93
97
83
83
83
83
74
62
62
73
82
78
73
75
80
86
87
85
87
94
94
89
88
89
89
85
83
83
88
91
87
84
81
81
83
85
85
77
73
84
93
86
79
81
85
82
79
79
83
90
97
100
95
89
92
105
109
101
105
123
133
129
115
112
109
106
104
102
102
101
101
100
100
98
100
93
87
83
87
99
91
69
57
66
82
86
80
66
81
78
81
95
83
90
91
76
74
94
103
92
88
96
94
78
115
79
70
100
100
92
92
78
76
92
88
73
86
77
72
71
86
85
99
103
86
79
71
93
85
85
87
75
72
69
80
88
63
71
80
70
54
78
82
82
79
76
78
85
88
86
88
101
101
82
94
104
100
87
80
88
53
38
34
28
21
19
21
22
21
22
38
40
42
44
49
54
53
48
66
86
94
82
62
83
117
134
147
138
134
111
125
131
153
107
118
98
78
117
92
125
103
72
111
110
77
64
97
83
81
90
90
100
76
61
60
56
79
119
90
82
65
46
65
63
75
95
77
53
53
77
67
99
54
67
80
101
53
53
48
62
47
67
42
26
49
46
71
70
69
69
65
76
83
79
67
67
65
64
62
61
60
61
58
49
57
80
84
61
58
82
93
91
86
83
77
68
68
77
82
82
82
82
67
67
67
68
57
69
61
61
55
102
106
87
65
65
65
64
120
170
176
186
181
181
183
183
183
184
185
186
187
188
188
189
189
189
189
189
190
186
188
191
191
188
188
192
193
193
195
195
196
196
198
198
198
198
199
199
199
199
198
198
196
194
196
194
196
196
197
197
197
197
197
197
196
196
196
196
196
196
195
194
194
193
193
193
192
193
202
187
191
199
193
186
74
57
70
90
126
134
125
114
110
112
113
120
117
108
103
103
123
108
96
96
95
66
56
72
56
56
56
56
40
40
39
40
40
41
38
37
34
32
30
30
31
31
33
33
33
34
37
37
38
39
41
41
37
54
80
99
159
180
184
159
183
192
184
164
183
183
183
184
185
183
176
175
177
180
180
179
177
176
175
175
174
173
170
168
166
165
165
165
165
165
166
165
166
166
166
167
167
167
167
167
168
168
168
168
168
168
168
168
169
169
169
169
168
168
168
168
167
167
167
169
169
165
157
155
153
152
148
142
136
132
127
122
121
122
122
123
126
129
135
140
144
146
146
146
143
140
134
129
129
134
142
147
147
143
136
136
143
145
145
146
100
35
45
62
59
58
74
85
83
79
78
79
79
83
90
94
89
87
93
103
104
74
54
52
52
45
41
35
34
32
37
43
49
52
57
62
65
69
75
82
84
71
61
67
75
79
66
48
65
80
87
80
65
58
65
81
97
78
78
97
78
60
60
78
68
70
81
95
91
94
91
83
60
57
51
47
66
35
48
98
119
118
118
118
136
138
141
139
139
122
105
85
65
67
73
75
79
77
68
72
71
69
74
62
62
73
70
67
75
87
86
87
85
82
82
97
95
89
89
92
91
88
81
80
85
88
87
82
77
75
77
80
78
71
68
83
94
84
78
79
82
82
78
78
82
89
97
104
99
88
87
103
111
107
93
114
129
126
120
114
107
105
98
98
98
98
100
100
97
97
101
96
90
86
85
83
72
68
62
69
78
85
75
61
79
73
73
88
94
90
91
74
80
100
108
94
91
99
105
71
117
86
70
96
85
99
103
79
70
91
90
73
83
77
78
71
92
85
97
110
87
78
76
95
80
85
78
81
76
73
81
65
61
83
85
59
63
69
76
82
78
80
81
85
90
87
100
121
121
94
81
94
95
86
82
88
54
40
27
21
15
13
19
23
23
22
58
47
34
23
54
36
48
82
82
71
71
82
74
84
141
167
111
112
134
102
126
91
118
83
107
132
106
94
86
122
107
71
84
147
135
86
53
96
113
90
83
85
64
92
84
73
88
133
87
57
51
73
59
57
68
88
81
65
65
88
91
68
54
78
87
79
52
44
29
48
59
79
60
82
77
91
59
60
57
57
50
68
75
64
62
62
64
65
67
68
70
78
82
62
56
77
76
42
35
65
87
93
99
102
95
77
72
69
73
73
72
71
70
69
68
68
50
79
60
58
77
78
48
63
65
66
66
66
124
167
172
188
180
180
181
181
183
182
183
185
187
188
188
187
187
187
187
188
189
184
186
191
190
184
186
191
190
193
194
194
195
196
198
198
198
197
199
199
198
199
198
198
196
194
194
194
194
194
197
197
197
197
197
197
196
196
196
196
195
195
195
194
194
193
193
193
192
193
200
187
188
193
190
186
137
55
61
110
90
117
127
113
100
97
93
102
108
103
91
85
82
84
76
69
62
53
45
45
49
51
51
51
50
49
48
46
46
45
43
40
37
35
34
32
31
29
29
30
30
32
35
35
37
38
40
41
59
100
156
197
193
177
171
177
179
176
179
185
184
183
180
177
175
177
184
186
183
180
177
175
173
170
169
168
169
168
166
162
161
160
160
160
161
161
162
160
160
160
160
161
163
163
162
162
163
164
164
163
163
163
162
163
165
163
162
161
155
154
156
158
158
156
154
153
149
141
130
129
131
134
134
136
134
130
125
120
115
115
118
117
119
121
126
131
137
139
136
135
133
131
127
125
124
130
138
144
148
146
141
140
143
145
145
144
109
33
38
61
59
58
65
79
80
78
77
79
93
89
85
80
93
83
88
108
115
105
80
49
54
50
45
39
34
32
35
39
43
48
52
56
57
59
67
71
73
72
71
70
66
59
59
68
81
65
59
66
103
110
104
88
100
74
74
100
89
62
62
89
79
59
51
60
61
74
91
66
72
69
62
58
57
24
45
111
140
140
140
139
139
140
141
143
130
134
144
138
66
70
73
77
75
66
65
72
70
61
70
60
62
75
66
69
79
85
90
88
84
81
79
80
91
91
90
91
90
87
82
80
83
85
87
85
80
76
74
74
73
71
70
79
86
86
86
85
82
82
82
81
86
95
98
104
105
99
94
114
122
110
100
100
100
100
129
135
127
107
102
102
102
104
102
100
95
94
113
101
101
112
91
95
86
61
75
75
78
80
47
85
87
56
79
86
85
87
101
70
93
108
96
90
110
102
84
95
116
86
88
93
95
103
106
81
77
105
91
96
80
88
79
80
97
93
96
99
83
77
82
92
84
84
76
88
86
81
80
65
66
77
75
66
66
73
78
82
73
83
85
81
94
89
96
101
130
104
108
107
101
93
85
87
72
47
19
11
17
32
27
31
36
40
54
55
61
68
55
65
76
86
75
88
89
81
71
122
151
139
156
111
91
107
104
94
109
124
85
123
134
96
114
123
102
96
146
130
123
66
70
75
84
103
101
51
69
88
104
97
92
92
53
66
108
84
57
80
73
78
74
117
104
67
55
39
59
86
67
41
21
92
30
63
66
92
52
84
60
52
46
63
80
89
83
64
55
69
67
56
70
60
55
66
51
61
80
86
70
43
44
66
73
61
112
100
46
90
114
83
74
84
91
85
76
107
154
100
51
78
62
62
61
61
61
59
55
57
63
65
65
65
105
164
190
182
180
180
181
181
181
182
183
183
184
184
184
185
185
184
184
187
187
184
184
190
188
183
183
186
186
180
181
181
182
182
183
183
186
190
195
195
194
193
193
192
193
193
194
193
194
194
194
194
194
194
194
194
195
195
193
193
195
195
193
192
192
192
192
192
192
192
198
189
188
188
188
187
203
113
48
66
107
111
117
126
145
113
106
125
120
86
81
94
85
72
60
42
35
38
45
50
51
51
51
51
37
48
48
36
28
42
44
35
27
27
33
41
57
53
45
42
27
31
30
45
57
88
123
131
171
171
170
169
167
166
164
164
175
175
175
177
182
179
175
170
167
169
177
178
175
172
170
169
167
166
165
166
168
166
162
158
158
156
157
157
157
158
160
160
160
158
158
162
164
163
160
158
159
161
158
157
155
152
151
152
154
152
149
140
136
136
141
145
147
146
141
136
133
128
124
125
128
129
131
135
135
132
127
119
113
115
126
133
135
133
133
137
137
135
135
135
133
132
133
132
133
136
139
140
139
136
134
133
133
134
134
133
97
51
43
56
42
68
76
63
76
78
77
81
85
88
85
87
92
101
100
87
109
125
81
56
56
55
50
46
32
32
34
37
39
43
48
50
52
56
64
71
72
68
71
74
70
60
59
66
74
70
64
60
63
69
75
76
73
71
71
70
102
106
92
68
77
101
96
66
32
64
78
69
64
60
44
70
58
51
37
109
151
151
151
150
150
150
152
151
150
149
149
149
64
68
74
81
77
68
70
79
70
55
54
49
58
77
71
78
85
89
93
92
87
83
80
81
88
91
90
90
89
87
84
83
80
84
90
91
85
80
74
73
73
73
73
77
81
87
95
96
93
94
96
93
99
109
106
93
98
117
99
108
111
108
115
106
94
85
115
124
121
107
90
90
91
91
105
101
94
93
88
86
99
119
120
109
96
82
81
79
76
73
78
85
71
58
97
97
95
88
86
67
97
108
92
86
107
100
83
108
109
77
78
103
76
104
99
80
90
104
95
90
82
84
75
83
102
107
104
90
75
75
85
91
90
85
80
88
88
77
72
65
90
55
52
87
67
81
82
82
72
81
82
78
92
87
92
99
120
113
111
103
96
97
87
85
79
60
41
32
39
53
56
60
65
68
86
84
74
62
71
71
71
71
66
82
97
100
95
126
140
128
148
120
109
121
95
100
111
141
120
97
105
121
136
94
129
123
104
122
95
73
108
77
69
89
91
75
95
96
77
74
61
47
49
57
88
62
71
77
66
84
73
90
72
71
90
52
90
74
46
61
78
74
53
84
87
91
77
89
80
72
72
64
66
77
117
131
100
34
67
56
70
60
74
76
49
51
67
66
57
42
45
67
86
94
51
95
118
89
83
70
69
103
59
62
71
122
174
135
83
91
63
63
63
61
60
64
72
78
62
63
63
63
101
161
187
176
179
178
179
179
181
181
182
182
180
180
180
180
180
180
180
181
183
183
183
184
183
180
181
181
181
180
180
180
180
180
180
179
179
182
186
189
190
190
190
191
193
195
194
194
194
194
194
194
193
193
193
193
193
194
192
192
192
192
192
191
189
189
189
189
189
189
195
189
191
191
192
192
185
185
142
81
54
70
90
106
114
94
91
106
93
76
81
103
76
57
40
37
38
42
49
51
51
51
50
50
36
48
48
37
44
33
33
44
46
31
35
55
41
44
48
51
56
92
127
141
153
162
173
177
167
168
169
169
170
171
172
172
174
174
173
174
176
173
169
167
163
158
153
150
153
156
161
163
166
167
168
168
168
164
160
155
153
153
153
153
153
154
156
157
160
161
161
164
165
165
160
156
153
153
151
147
143
138
137
138
137
135
131
127
128
130
134
136
137
136
134
131
129
135
142
149
152
147
140
138
138
136
132
125
124
133
151
162
161
151
144
140
129
122
127
132
134
134
135
135
136
137
136
134
131
128
126
125
124
122
122
122
114
66
53
62
57
73
82
77
75
77
76
81
85
87
87
87
90
102
106
96
115
139
115
79
56
55
52
47
32
32
32
34
36
40
46
48
51
57
67
75
75
70
71
74
72
67
59
56
61
68
74
79
57
62
68
71
71
70
70
70
91
91
82
69
68
61
60
63
78
87
71
42
60
64
49
65
56
51
37
109
155
154
155
153
154
153
156
156
156
155
155
155
60
62
67
77
81
71
68
75
73
61
68
58
61
75
79
89
95
94
98
95
90
83
79
81
88
91
86
86
86
87
86
82
77
83
96
97
87
80
77
77
77
75
74
77
81
87
94
99
101
104
103
99
103
116
110
88
93
121
108
99
95
100
115
106
94
85
94
108
111
102
90
90
90
90
104
101
94
91
76
74
86
105
135
117
97
92
89
82
72
65
93
71
66
79
97
95
88
89
67
64
104
106
86
79
100
94
81
109
103
74
81
106
80
107
89
74
107
102
98
82
90
85
79
87
100
106
104
85
69
82
97
96
92
83
80
83
83
73
77
108
91
81
69
62
103
77
69
81
70
73
75
71
87
82
87
97
107
123
118
96
90
103
93
85
86
72
66
56
63
78
71
75
79
83
103
108
92
62
70
71
71
71
73
81
100
118
133
135
131
125
126
124
121
125
97
108
94
131
144
109
90
117
93
73
133
114
108
103
79
97
94
107
119
119
76
75
84
71
63
91
104
94
82
80
92
64
73
85
71
72
60
104
78
57
48
88
82
51
90
99
48
76
68
93
99
76
94
80
88
82
40
80
92
66
79
86
82
62
67
56
70
60
81
82
55
58
81
72
70
74
52
60
80
102
86
75
124
133
126
105
66
110
74
86
73
83
119
113
75
68
77
77
77
77
63
57
50
48
52
56
56
56
95
154
179
169
178
179
180
180
180
180
180
179
178
177
176
175
175
175
175
174
175
179
180
174
173
180
180
175
177
181
181
181
181
181
181
180
177
177
179
182
183
184
184
185
186
188
188
189
188
188
188
188
188
188
188
188
188
188
187
187
188
188
187
186
185
185
185
185
184
184
188
186
187
187
188
188
178
196
191
141
96
77
57
63
76
74
77
84
65
48
37
43
47
44
41
39
38
41
48
48
44
41
41
41
37
48
48
37
48
45
58
78
80
63
47
41
49
73
105
129
143
151
158
156
158
164
171
175
161
161
162
162
163
164
165
166
155
155
155
155
153
150
146
144
141
132
122
116
120
128
136
147
158
163
163
161
155
149
143
142
143
146
146
144
143
142
144
145
148
148
151
153
151
149
144
140
136
136
136
136
137
137
138
138
135
132
126
122
120
118
116
112
109
111
113
117
121
127
145
161
164
155
142
131
123
119
114
109
111
117
130
142
150
154
157
146
133
125
122
124
124
123
124
124
124
124
125
124
123
122
122
121
120
118
118
119
123
69
49
54
62
65
74
80
78
77
76
81
85
88
87
87
73
91
101
96
95
130
131
74
57
48
47
42
26
30
30
32
35
38
43
48
51
57
67
74
76
80
80
75
73
72
67
63
66
74
81
85
64
68
75
76
73
70
70
73
75
69
67
71
99
74
63
74
70
74
74
70
54
70
55
59
57
51
37
109
160
160
160
159
159
160
162
162
161
160
160
159
55
59
66
78
83
69
61
69
81
83
106
84
70
71
88
95
99
95
96
94
90
83
79
81
87
90
83
82
82
84
86
80
74
80
98
101
89
80
79
80
80
77
74
78
81
84
86
90
96
101
101
92
94
103
99
91
99
117
113
93
85
94
100
101
100
100
80
97
106
100
102
102
102
103
103
101
94
93
82
72
72
82
117
108
95
92
95
85
70
59
87
64
71
100
83
76
77
87
64
65
100
103
81
75
96
89
85
111
86
82
99
103
107
114
81
70
118
101
101
76
94
90
88
96
95
95
93
75
71
93
105
97
90
81
79
82
81
74
76
90
79
87
89
50
91
76
64
82
70
70
70
66
84
81
84
102
93
121
123
92
88
108
97
87
84
79
81
73
78
92
70
72
78
80
98
117
108
76
55
65
76
86
78
78
98
127
168
150
132
125
109
111
117
114
111
116
69
102
128
132
116
102
87
114
126
127
134
69
94
119
93
82
94
122
100
103
112
78
85
118
124
98
91
69
68
56
70
101
77
61
67
101
87
84
74
62
102
96
93
93
81
85
66
83
96
55
94
61
82
76
66
82
77
53
63
68
64
57
67
56
70
60
70
81
66
76
68
53
56
73
60
49
56
78
103
53
61
105
143
125
59
85
72
120
101
66
63
91
74
64
57
57
56
57
59
62
66
69
52
53
53
52
91
150
176
166
178
177
178
178
180
179
179
177
176
175
174
174
174
174
175
175
176
181
178
166
167
183
184
171
181
181
181
181
181
181
181
179
178
177
176
178
179
179
178
178
177
176
174
174
177
178
178
178
179
179
179
179
179
179
179
179
178
178
178
177
177
177
178
178
181
181
180
178
177
175
175
175
195
167
167
189
194
142
81
38
18
26
34
37
41
42
37
33
33
34
34
30
27
26
34
36
33
30
31
31
36
48
48
37
36
71
106
118
152
148
105
48
131
144
163
177
160
159
159
156
157
160
167
171
157
157
156
154
152
151
151
150
130
130
130
129
128
123
119
115
114
112
108
103
104
110
116
127
139
146
149
145
136
130
126
126
131
134
134
133
133
135
137
137
137
136
135
133
132
129
125
124
124
124
125
122
120
119
117
115
112
107
104
103
101
97
93
88
84
86
92
94
98
106
123
145
150
144
140
135
129
124
117
115
113
113
112
111
115
128
147
154
153
147
138
126
122
117
114
113
114
115
117
115
117
117
117
116
115
114
112
112
117
60
35
38
54
49
58
74
75
74
75
81
85
90
87
85
94
115
129
128
106
137
155
91
65
46
46
41
21
26
32
30
32
36
41
46
50
57
65
72
75
81
83
80
83
84
81
74
90
85
79
75
78
84
90
95
70
73
70
70
68
54
56
73
60
68
85
102
81
69
63
67
49
75
59
56
57
52
39
110
166
166
166
165
165
165
167
166
165
164
164
163
53
55
63
75
77
63
58
66
80
88
111
86
73
76
91
106
106
94
93
93
90
93
94
91
85
82
82
75
75
83
85
78
71
81
95
97
88
84
84
82
78
73
75
82
84
79
80
86
92
97
97
86
83
88
90
97
107
112
100
83
76
81
102
100
102
93
88
101
103
93
89
100
100
89
101
88
87
95
74
69
61
55
64
104
113
102
108
110
99
78
78
71
80
97
79
83
82
59
76
78
89
85
79
89
75
87
86
115
51
97
118
68
105
118
83
102
117
108
67
104
93
83
90
98
92
95
91
71
75
98
104
96
86
79
77
83
80
74
69
66
83
79
86
107
77
75
67
82
73
75
73
64
82
85
80
106
101
117
107
107
93
95
109
90
82
90
97
81
77
89
101
91
94
110
117
132
131
116
78
77
79
74
81
89
119
156
158
130
127
135
112
105
111
133
116
123
97
97
81
114
140
140
134
84
110
134
107
81
145
129
102
96
118
98
100
102
120
82
96
102
88
82
75
102
94
103
103
77
91
91
60
75
54
101
80
64
99
90
76
68
81
84
52
81
65
59
73
70
66
63
68
84
91
86
92
85
83
85
64
83
62
56
71
69
67
75
75
71
71
68
66
66
73
79
80
82
42
91
111
92
91
49
53
84
110
98
94
101
99
87
106
79
60
63
61
59
59
62
64
66
68
70
105
147
168
169
176
176
176
176
175
175
174
174
172
172
170
169
169
170
172
174
176
174
166
156
158
177
181
168
177
179
185
185
181
178
178
175
174
173
173
174
181
169
169
180
177
174
169
167
170
171
172
171
172
172
173
173
173
174
172
172
171
171
171
171
171
171
172
172
174
174
174
173
172
171
171
171
169
174
164
163
181
179
144
94
57
54
34
22
22
37
37
22
30
46
48
35
29
40
33
19
40
43
43
42
45
51
51
47
35
105
166
180
168
162
154
147
169
162
154
142
131
130
130
130
161
161
161
161
150
139
122
118
128
128
129
130
131
132
129
127
125
122
116
113
113
113
108
105
105
105
104
108
120
128
132
131
127
122
122
123
126
129
130
130
131
135
140
142
142
139
135
132
132
132
131
131
129
124
119
115
109
104
101
98
97
95
94
92
92
91
88
85
82
83
87
88
87
90
102
117
126
128
134
136
134
127
119
115
114
110
105
98
97
107
123
139
147
150
148
143
136
129
120
115
113
113
113
114
115
117
118
115
114
112
111
111
121
68
37
46
56
56
56
64
75
69
73
92
97
91
86
84
87
92
96
108
95
101
130
104
69
53
47
42
23
25
31
31
31
36
40
46
50
55
63
70
74
75
84
88
90
87
84
79
81
81
70
60
85
90
96
94
103
76
64
64
51
49
44
42
38
67
84
82
95
88
73
54
57
63
51
63
46
49
48
128
173
173
173
172
172
172
174
173
172
171
170
170
52
52
55
61
61
54
53
60
66
65
85
70
67
76
91
97
97
92
90
92
90
93
94
91
84
82
78
70
70
79
82
75
71
78
87
89
89
90
88
82
72
67
75
88
88
79
78
83
88
93
92
84
81
85
92
109
117
107
93
83
79
82
99
99
94
88
79
92
94
84
96
107
107
96
87
78
81
94
80
78
75
73
73
114
132
130
130
129
113
89
76
66
70
85
85
92
86
60
87
92
93
91
79
89
75
86
89
103
61
93
109
62
118
101
89
105
109
98
81
107
89
86
89
88
86
95
91
75
83
95
95
98
90
77
77
83
76
67
62
61
89
66
74
115
82
77
70
79
71
81
80
65
82
85
75
103
96
113
109
101
101
96
97
99
94
93
89
80
76
79
93
93
108
122
130
139
143
139
91
75
69
74
84
95
117
147
149
131
121
123
113
110
113
123
111
125
114
127
98
101
125
141
140
75
108
80
72
109
116
134
96
101
121
111
82
78
96
101
121
136
122
92
56
71
69
98
101
69
75
68
94
97
61
88
69
109
106
73
77
82
57
84
58
77
59
65
74
68
61
56
50
74
92
88
64
63
96
143
80
98
77
72
70
68
73
74
72
71
71
73
75
73
66
61
60
91
69
78
99
78
83
84
72
65
75
100
105
94
97
116
152
131
110
102
99
80
60
52
71
70
68
65
106
144
161
160
167
166
167
167
165
164
163
162
162
161
160
158
160
158
156
155
154
153
147
142
145
158
163
158
169
171
173
176
180
182
181
179
177
176
176
177
186
175
175
183
182
178
175
173
171
170
171
171
170
169
169
170
169
169
171
171
171
171
172
172
171
171
171
171
169
169
171
171
172
172
173
173
164
169
173
164
155
177
184
152
149
123
90
60
52
50
37
23
41
46
42
34
28
37
40
32
28
31
44
58
39
29
54
98
120
107
119
147
174
171
168
166
143
137
135
140
121
120
118
122
123
123
123
123
121
116
109
105
107
111
111
110
125
135
145
146
144
141
139
136
129
117
104
101
102
102
100
100
104
111
116
119
122
122
124
127
129
131
134
134
136
139
143
147
151
151
149
148
150
152
152
152
146
132
119
113
106
101
96
94
96
97
96
96
95
95
94
93
92
92
94
96
96
93
88
88
95
107
121
132
135
129
119
113
109
106
100
99
101
102
101
101
112
127
141
150
156
152
142
132
124
120
116
117
117
116
117
116
115
113
113
113
117
72
41
42
56
57
56
64
74
66
73
93
97
92
86
83
114
104
108
138
122
129
145
132
51
42
46
43
26
26
30
31
35
37
41
44
48
51
59
67
74
78
89
96
90
77
74
74
89
90
83
74
74
78
84
82
99
75
56
54
52
63
80
90
73
71
61
47
56
68
78
75
65
72
49
51
35
48
59
148
177
177
176
175
176
176
178
177
175
174
175
176
59
54
54
51
51
57
65
75
69
50
68
64
76
93
91
85
86
90
92
91
92
93
94
91
84
81
74
67
67
74
76
71
73
81
84
84
85
84
80
75
70
70
80
93
93
81
75
78
83
88
88
81
85
94
98
102
104
102
87
83
85
83
92
92
82
87
71
84
87
77
90
101
101
90
68
63
72
91
72
74
78
80
74
114
145
154
162
156
132
103
90
76
74
82
78
89
76
57
82
91
86
91
79
89
75
86
96
87
78
86
85
76
116
84
91
107
97
83
102
110
86
94
98
84
89
88
79
77
98
102
93
93
88
79
84
81
68
56
59
89
66
68
67
70
87
68
65
74
66
85
88
70
79
78
68
96
89
106
113
93
109
89
89
101
106
94
85
90
89
80
88
87
101
123
131
131
141
156
112
88
68
66
87
105
119
142
144
134
120
105
116
119
116
107
106
133
121
137
160
109
87
105
133
103
136
96
89
86
73
84
90
81
102
91
100
129
112
82
83
96
96
74
42
89
112
146
91
66
78
77
81
118
71
71
94
75
140
142
80
81
95
41
65
69
52
72
69
75
82
88
91
87
70
54
70
68
96
124
86
105
84
78
69
67
78
63
71
71
71
69
64
56
49
45
65
69
71
93
87
81
71
94
104
67
54
65
76
72
84
99
118
129
139
138
149
127
106
92
100
94
84
78
109
143
152
145
151
150
151
151
150
149
147
145
143
141
140
139
139
136
128
118
112
114
120
121
120
121
127
133
142
151
162
163
168
168
168
165
164
163
163
164
161
150
150
162
168
171
173
174
171
170
169
168
167
166
165
165
164
164
163
163
164
164
164
164
165
166
167
167
166
166
166
166
165
164
165
163
162
163
169
174
172
168
171
158
146
135
136
128
127
111
99
97
60
46
36
36
27
27
37
51
42
33
44
71
59
35
61
118
147
116
102
113
124
126
130
132
135
128
117
112
121
120
120
120
123
125
125
125
120
113
105
102
106
108
108
108
115
120
126
134
137
138
141
142
138
128
119
113
114
118
121
122
125
128
134
137
139
140
140
140
139
138
139
141
142
142
142
142
143
146
152
151
148
145
145
143
136
127
120
109
109
109
103
101
101
103
101
101
100
100
99
97
96
96
99
102
104
100
94
90
93
100
107
117
130
136
136
136
132
127
122
117
113
108
100
96
97
104
113
127
139
146
155
150
147
139
130
127
123
121
119
118
119
119
119
118
111
79
48
36
55
56
57
64
74
67
74
93
97
93
86
83
103
93
114
130
127
132
109
96
66
51
48
42
26
26
31
33
35
37
42
44
47
49
55
61
69
79
93
95
90
83
77
80
84
89
85
77
74
78
84
82
90
74
69
76
80
85
95
101
119
111
110
116
102
95
90
106
81
92
72
64
54
67
77
166
167
167
168
166
166
166
169
168
167
165
167
167
69
68
65
59
59
70
84
95
84
60
70
76
95
113
91
76
76
91
91
91
92
93
94
89
84
80
70
62
63
70
74
70
74
83
87
84
79
71
68
70
72
74
81
93
93
80
73
75
80
81
83
82
88
97
98
86
81
85
86
86
87
86
88
83
77
91
70
83
86
76
75
86
86
75
53
51
66
87
55
61
69
74
79
92
132
159
185
176
147
115
111
95
86
92
63
69
54
61
70
69
66
87
79
89
75
86
101
76
89
81
64
101
99
80
96
98
88
83
116
112
84
98
109
90
93
93
77
81
109
111
97
83
85
86
89
76
63
59
63
80
67
74
73
68
80
84
77
70
65
85
87
73
77
74
63
92
85
101
115
87
115
87
82
100
104
94
94
107
107
92
92
89
97
118
128
126
137
163
138
107
80
65
85
107
125
141
139
133
121
97
117
125
120
96
110
135
123
128
156
113
88
114
79
79
125
138
104
87
150
83
127
109
116
86
82
106
88
101
150
117
91
74
56
123
125
109
81
68
101
112
78
66
40
115
83
69
95
125
108
84
51
42
69
65
47
76
65
87
117
138
123
110
86
64
78
76
72
72
79
97
76
71
68
73
75
58
71
71
76
70
69
73
80
86
45
76
97
82
76
101
74
74
57
71
76
82
68
84
90
83
90
109
115
104
111
121
135
126
128
119
105
94
109
140
145
135
141
141
141
141
140
138
135
134
129
128
131
133
130
122
111
100
91
94
98
105
105
103
109
120
118
127
138
147
145
145
145
143
141
140
140
142
119
108
108
124
140
153
164
169
169
165
160
159
155
150
151
149
149
152
150
150
143
139
143
146
149
153
158
158
161
161
158
155
148
142
139
142
153
161
163
169
164
157
156
167
164
154
161
167
153
138
138
153
116
90
76
81
49
33
36
60
108
82
82
107
129
103
103
129
119
138
133
106
106
111
119
121
117
116
119
124
128
125
118
114
115
118
118
120
123
122
115
113
113
114
114
112
108
105
104
107
112
115
125
131
135
140
148
148
147
148
153
155
155
157
158
161
157
158
157
156
152
147
142
142
142
139
134
130
131
136
140
146
151
154
156
154
150
146
138
132
129
126
121
115
111
109
106
105
105
105
105
105
104
104
106
105
106
106
107
109
111
109
106
101
106
112
125
133
134
131
127
125
120
117
116
116
113
108
106
108
113
120
130
141
149
152
153
146
139
133
126
123
123
124
124
125
107
84
52
32
54
56
58
64
72
67
74
92
97
93
86
83
115
123
129
117
114
134
111
110
103
75
55
37
26
26
31
33
35
37
42
45
48
48
50
53
57
71
83
82
83
88
92
93
74
74
73
68
85
90
96
94
80
80
95
118
116
102
82
67
78
60
54
66
77
78
82
78
49
81
66
58
56
60
58
138
145
145
147
145
147
147
150
149
148
147
148
148
65
68
67
67
67
70
78
83
74
61
70
75
90
99
91
93
107
114
97
97
98
100
70
86
84
75
67
61
64
70
71
71
74
78
80
81
71
63
64
74
76
70
77
86
86
77
73
74
75
78
86
95
103
102
99
89
81
80
86
87
87
87
61
71
81
92
79
79
79
80
79
74
66
58
55
59
66
66
56
75
84
74
68
78
102
136
179
205
191
146
115
106
104
103
72
61
60
59
75
80
81
83
74
69
83
108
97
84
71
66
73
88
90
73
96
95
86
78
110
107
128
120
108
88
90
93
83
87
114
109
95
81
91
88
82
69
63
70
72
75
63
75
74
67
84
89
82
70
68
77
76
75
80
75
65
110
118
97
138
96
98
103
101
85
103
91
99
109
84
93
95
90
104
124
142
128
138
158
132
102
90
58
73
93
132
137
139
131
125
140
97
120
125
118
110
99
103
125
117
132
115
121
78
114
94
135
137
89
103
111
141
111
90
98
119
109
85
109
113
116
81
70
66
88
120
118
90
77
82
102
103
52
55
109
58
104
109
70
88
95
72
79
78
76
79
85
68
91
123
145
104
99
93
89
85
92
86
71
86
86
86
86
55
76
87
85
70
98
77
78
85
74
90
79
68
52
90
97
74
66
96
87
76
91
91
76
61
51
60
81
97
98
104
111
104
104
108
118
132
148
128
134
132
104
122
124
134
127
134
149
145
125
117
121
121
121
126
130
127
121
112
105
99
96
93
97
98
98
102
109
118
105
109
130
133
133
133
132
130
131
132
128
125
125
120
117
130
145
158
164
162
151
144
142
137
129
134
124
124
133
129
132
130
124
124
124
130
137
148
151
154
152
148
142
133
122
119
128
143
146
151
153
152
148
142
138
140
141
141
144
145
144
137
133
130
121
125
141
121
87
103
76
135
131
125
120
116
116
116
116
115
115
115
114
113
112
112
112
125
125
124
121
120
118
117
114
112
111
111
110
111
116
124
124
120
117
118
120
121
122
124
120
115
120
130
137
141
142
147
148
143
141
146
149
153
154
152
150
153
155
157
160
160
151
142
136
131
128
122
118
121
125
127
131
139
146
152
154
156
156
154
150
146
143
136
131
125
122
117
115
114
114
114
114
113
113
113
113
113
113
116
117
119
118
114
114
109
113
121
125
131
133
134
134
132
132
132
132
129
123
116
116
113
113
116
128
140
149
157
156
150
144
137
133
132
132
131
130
128
90
39
49
52
57
58
66
71
69
76
90
87
88
86
81
104
118
118
103
94
94
94
94
111
60
33
36
31
13
12
26
35
36
39
45
49
49
47
49
55
64
75
72
74
81
90
96
87
81
82
83
82
82
84
85
105
120
94
83
84
94
106
62
57
62
68
69
66
67
74
78
44
69
34
58
32
46
72
123
129
129
130
132
131
134
138
140
140
140
142
143
42
47
53
60
60
54
58
60
57
55
81
88
83
81
96
101
102
100
86
87
88
85
76
86
83
69
62
62
68
69
70
70
72
72
71
73
64
59
68
83
84
76
74
82
82
75
71
71
73
81
95
111
126
117
101
89
92
103
90
88
86
83
70
78
85
89
90
90
91
91
79
76
73
71
79
70
64
65
73
82
86
82
69
71
85
106
133
172
196
191
144
118
108
99
100
91
83
78
74
71
76
80
81
76
72
77
56
60
66
74
80
83
80
68
91
84
80
83
100
90
111
106
97
89
91
83
80
91
111
102
88
83
95
86
74
63
67
75
77
77
61
70
69
63
84
82
78
70
70
73
70
76
82
76
73
123
118
75
153
125
116
88
68
78
97
93
94
97
81
84
95
90
98
115
135
132
139
149
152
94
74
61
94
96
124
129
140
128
126
140
108
112
125
119
114
116
129
144
158
150
111
114
147
120
99
110
108
79
73
88
87
72
75
93
126
116
78
83
137
127
90
83
95
103
123
109
91
91
102
116
49
57
61
55
43
93
116
101
94
101
78
85
85
89
86
80
80
86
94
99
84
89
94
99
100
85
79
86
71
71
71
71
55
76
87
85
67
85
69
74
85
74
90
79
72
60
80
94
77
74
87
83
76
82
82
76
73
71
74
82
85
94
99
98
101
101
104
104
111
131
141
157
124
113
121
121
112
127
134
127
123
139
135
123
123
123
118
119
125
127
125
122
120
114
108
102
100
99
94
91
94
93
100
110
132
132
132
133
135
138
142
141
139
139
146
147
148
150
154
154
149
143
140
139
132
120
127
115
112
124
117
130
133
125
116
109
114
125
137
147
145
138
134
130
124
118
120
133
135
135
132
138
140
137
131
128
128
129
129
130
132
130
123
120
119
115
124
141
138
124
158
133
113
118
124
129
143
142
139
138
135
134
132
130
124
123
124
126
128
129
129
128
127
126
124
124
124
124
122
122
110
113
117
115
125
125
128
129
130
134
140
142
146
147
148
146
137
129
123
116
110
109
112
116
126
133
139
139
137
139
143
149
153
150
142
133
125
121
116
111
111
112
112
109
107
112
122
134
148
158
164
163
161
153
146
142
139
136
131
126
122
121
121
120
119
117
118
119
119
119
121
121
123
123
125
125
126
126
127
127
129
131
134
135
140
145
146
149
149
145
141
137
130
123
118
119
127
137
144
152
156
153
152
147
145
141
135
133
135
93
38
45
51
57
59
65
70
69
76
89
96
99
100
98
100
106
105
101
101
102
102
102
117
75
47
43
38
28
27
32
33
35
36
43
46
46
47
51
57
59
67
70
69
71
78
85
112
113
109
109
89
87
84
82
106
57
68
102
98
83
85
81
77
73
67
62
94
74
45
24
58
75
51
67
38
45
88
135
127
127
128
128
129
130
137
140
143
146
150
150
42
40
41
49
48
41
44
48
51
52
84
84
76
75
90
96
99
102
87
88
84
79
84
89
80
62
60
65
72
70
71
72
74
71
71
73
64
56
64
81
87
80
77
82
82
74
73
63
71
89
100
107
120
106
89
81
89
104
99
92
82
75
87
88
90
89
89
91
91
91
77
79
82
85
98
75
70
84
101
92
88
93
76
72
79
88
100
130
171
205
180
144
112
96
105
110
104
94
79
66
64
69
77
77
68
55
45
53
64
74
80
68
65
72
84
68
71
92
89
65
86
88
84
99
101
72
74
101
103
89
79
84
90
75
65
61
69
79
81
84
62
69
75
72
87
82
77
70
70
73
70
77
82
76
80
117
113
82
154
125
116
88
65
99
102
97
105
95
97
86
95
86
89
101
124
133
139
137
143
91
77
68
108
97
124
143
140
129
128
140
134
109
121
119
128
126
113
98
97
104
109
156
183
110
116
121
94
95
73
91
83
91
104
103
95
99
62
53
103
83
68
85
98
94
98
71
76
95
112
117
59
81
84
64
79
118
150
154
117
124
101
108
145
157
146
120
91
87
80
75
77
83
89
94
108
92
85
92
65
65
65
65
55
76
87
85
81
85
69
87
85
74
90
79
78
73
67
88
83
87
74
77
77
71
71
75
77
80
77
68
66
87
93
81
85
92
101
102
94
102
126
134
116
127
119
119
98
113
119
112
110
141
145
116
103
108
123
135
142
145
148
148
141
130
120
115
114
112
108
104
105
113
115
117
121
123
124
125
129
133
135
137
140
141
147
151
153
152
150
150
151
151
149
148
148
138
145
132
131
142
134
148
150
143
132
125
125
131
138
148
145
137
132
131
132
129
132
141
144
136
124
124
139
134
128
126
125
126
125
126
128
125
119
115
119
119
133
157
134
138
177
146
120
124
131
134
135
135
135
136
135
137
137
135
132
129
129
129
150
150
150
150
131
132
132
133
133
134
134
137
141
142
143
143
145
145
147
147
148
148
149
156
169
170
163
157
153
149
147
141
140
142
144
144
146
149
155
154
149
149
154
158
161
160
158
154
147
140
136
131
125
123
122
121
120
119
118
123
123
126
134
142
151
155
158
151
146
143
138
138
142
146
143
139
136
133
130
129
128
127
127
127
128
128
131
131
132
132
133
132
134
134
135
134
134
136
138
139
141
138
132
131
134
134
130
125
125
125
125
133
141
149
156
156
156
153
147
142
152
105
42
45
50
57
60
65
70
70
77
88
95
96
98
99
95
87
87
93
95
95
95
95
96
66
38
22
17
20
19
17
25
35
35
38
41
44
48
53
56
56
58
70
73
71
81
85
92
102
104
98
99
92
83
76
85
87
98
88
101
85
70
90
83
78
73
69
69
73
76
78
62
67
60
64
47
47
113
152
142
142
142
142
141
142
143
142
140
137
136
135
51
39
39
46
46
41
43
44
48
54
69
76
81
78
69
83
104
118
100
96
91
88
90
91
77
60
60
67
69
73
74
75
75
72
73
77
71
60
59
69
78
77
77
81
81
77
74
61
70
93
97
89
85
78
74
77
80
79
104
94
80
69
93
94
92
89
79
79
79
78
77
82
89
95
96
74
80
111
119
99
90
100
85
80
80
82
92
100
133
179
193
176
133
101
97
103
108
102
90
76
62
61
59
72
70
54
58
59
59
59
75
61
61
75
79
58
65
97
81
48
69
89
67
101
103
61
85
92
80
75
74
89
80
61
56
58
67
76
77
88
69
76
88
84
96
84
78
74
74
74
73
76
77
72
81
95
103
113
138
96
98
103
93
135
114
99
123
105
118
100
97
84
82
93
117
134
140
129
112
95
98
77
107
96
135
171
140
129
128
140
150
115
113
113
132
143
138
119
138
122
107
149
160
121
130
128
97
129
118
107
93
109
104
84
92
116
92
83
73
55
87
108
109
103
102
88
52
84
106
106
80
62
66
85
96
121
144
151
99
106
82
89
177
194
178
138
96
92
89
88
87
84
78
75
101
108
101
85
72
72
72
72
55
76
87
85
103
98
82
110
85
77
91
79
81
84
59
85
87
96
66
74
75
61
61
75
66
75
67
47
53
86
91
68
70
77
85
92
85
75
97
87
108
138
118
117
98
91
97
113
112
132
140
120
109
108
123
134
145
154
163
170
169
156
142
130
126
128
127
128
119
121
109
97
105
105
105
104
105
111
119
121
116
126
139
142
142
145
149
154
157
155
151
152
154
145
155
143
142
153
143
154
155
151
150
152
152
149
151
159
155
149
145
142
141
137
137
144
150
143
134
125
141
137
131
126
125
126
125
126
126
124
117
114
120
122
143
169
127
133
166
120
151
146
141
137
136
136
136
135
133
132
132
131
128
128
128
128
129
129
129
128
127
127
128
129
130
131
133
134
151
151
154
155
157
159
162
162
163
164
164
165
171
168
167
167
168
167
164
163
164
168
170
174
179
179
173
168
166
168
171
173
173
173
173
174
171
168
164
158
152
150
149
146
139
128
119
117
118
119
121
125
131
138
146
149
150
149
146
142
142
143
146
146
146
146
146
143
140
138
136
136
136
135
134
134
135
136
138
140
141
142
145
147
147
148
149
150
152
151
146
143
141
140
137
133
126
121
116
115
120
128
140
149
153
153
153
148
170
119
52
52
49
57
60
65
70
70
77
88
83
83
84
86
89
74
74
90
80
80
80
80
103
81
53
28
23
34
33
22
25
32
31
31
34
41
48
54
56
55
54
58
64
69
81
83
90
96
107
107
119
109
95
84
52
109
84
49
91
97
73
85
73
77
83
88
71
67
61
55
51
49
54
50
51
49
129
164
163
163
163
161
160
160
158
157
155
152
149
148
55
48
44
47
48
47
49
46
50
58
74
87
101
103
99
96
111
135
104
104
104
104
84
76
68
61
61
69
70
74
75
77
75
70
69
74
73
65
61
63
71
76
76
77
77
80
78
71
74
89
89
82
75
71
72
72
72
74
87
85
83
72
100
99
96
95
66
67
68
69
90
92
95
89
80
85
103
110
118
112
105
99
99
81
71
81
89
90
99
123
165
194
181
137
114
110
103
99
94
85
71
61
55
58
58
55
70
65
60
55
62
48
48
62
54
59
64
69
55
69
81
74
67
88
85
62
83
84
61
67
73
83
70
54
55
61
65
66
74
87
73
80
90
88
96
79
73
77
77
74
74
76
73
68
79
52
114
138
134
115
123
110
112
117
115
120
137
95
122
109
102
98
92
91
93
94
93
92
99
104
82
87
105
79
142
154
108
148
164
146
123
121
118
130
130
130
135
137
186
165
127
138
116
125
132
138
112
125
138
111
84
135
112
78
69
110
124
101
96
70
93
108
122
121
89
82
120
116
147
151
111
88
104
105
123
99
114
97
111
96
113
95
113
131
131
109
78
82
89
94
79
89
87
75
92
98
106
112
100
96
87
82
68
67
70
76
87
101
101
88
78
80
101
72
89
84
78
73
105
81
65
67
74
73
73
74
72
68
62
58
58
87
92
73
71
72
77
86
80
82
103
81
85
115
102
108
108
93
87
94
83
97
118
127
117
114
120
125
132
139
148
157
163
160
150
137
134
132
125
123
127
124
116
104
101
119
126
114
115
121
124
124
126
127
128
128
134
140
148
156
161
158
157
158
156
148
159
151
152
161
147
154
156
155
157
160
160
154
155
165
165
159
157
154
152
148
149
151
152
152
153
153
150
145
137
132
135
120
117
124
115
117
122
125
111
128
146
153
125
134
154
120
140
136
130
125
138
146
139
124
135
135
135
135
134
134
134
134
122
128
135
140
141
141
143
144
145
147
149
151
152
153
153
153
156
159
163
165
168
172
181
183
172
169
169
170
172
172
171
171
171
172
171
177
182
182
176
174
173
174
175
176
176
176
177
177
177
177
175
171
167
164
164
163
156
146
134
128
125
124
120
120
126
131
136
142
149
153
154
150
146
145
145
146
149
151
152
150
149
148
148
148
147
143
140
139
141
144
145
145
147
150
154
156
157
159
160
160
159
156
153
152
150
149
149
145
138
134
129
124
121
123
131
141
142
142
142
141
153
137
54
42
48
57
43
53
58
58
65
77
90
96
88
71
83
68
68
84
91
91
91
91
98
94
63
31
20
23
28
24
25
31
29
28
30
38
47
50
50
51
51
54
59
66
73
74
75
75
74
73
75
80
87
90
80
80
85
95
91
89
91
96
75
74
71
69
77
70
61
54
55
41
58
43
47
46
142
168
173
173
172
170
169
168
168
167
167
165
164
162
56
48
48
51
48
48
50
46
51
63
83
93
102
102
109
101
97
110
91
91
91
91
65
56
48
51
63
73
73
72
74
77
74
70
67
67
67
69
69
71
70
68
70
73
73
77
80
84
84
85
84
85
84
81
79
73
73
82
76
73
71
79
82
85
87
89
66
70
81
92
117
107
91
80
96
115
122
113
113
110
108
106
102
95
94
96
85
81
86
98
135
183
196
168
113
110
103
99
96
93
85
71
58
54
54
58
77
72
67
66
67
63
63
70
49
54
59
64
54
72
69
67
68
69
57
63
77
82
56
64
70
70
63
58
65
70
70
67
72
86
73
77
84
84
90
70
63
71
71
68
73
76
74
73
96
63
89
97
88
95
98
87
117
110
114
108
150
115
120
96
81
85
91
92
89
86
86
85
87
94
77
86
114
98
146
122
131
148
145
124
130
129
132
135
124
139
143
123
142
129
122
173
114
127
144
156
135
98
110
96
100
134
112
97
92
110
119
103
144
109
109
103
111
123
96
83
115
77
151
152
61
83
160
106
83
113
129
96
110
94
124
128
94
99
92
79
106
101
95
89
96
79
70
74
94
96
99
102
106
94
79
69
80
74
68
65
63
85
99
96
70
76
106
97
68
73
80
85
77
67
70
85
74
73
73
74
75
73
67
63
63
85
91
78
73
71
71
78
86
90
96
75
99
111
96
87
96
104
97
82
73
85
101
113
117
115
110
112
116
118
115
115
124
136
142
140
135
127
114
105
117
130
146
151
151
145
127
107
135
138
138
142
142
141
141
141
142
148
156
162
165
168
172
170
161
150
163
156
159
168
150
154
153
157
157
152
152
152
157
165
167
165
164
163
161
162
160
161
161
161
160
160
159
157
154
151
160
150
154
168
163
161
157
152
149
150
154
153
144
146
148
137
128
132
139
143
152
160
153
138
142
142
143
143
143
143
144
145
149
156
162
164
165
165
165
164
164
163
163
163
162
163
163
164
164
160
157
158
157
158
162
164
165
164
163
162
163
163
164
165
162
156
147
142
144
150
154
160
166
167
168
169
172
173
174
173
171
170
170
169
168
167
167
169
170
168
165
156
149
143
139
139
142
141
136
135
141
148
153
157
157
151
141
137
140
144
145
146
148
149
152
152
153
153
152
149
149
151
151
151
154
157
159
161
162
162
162
163
164
162
158
157
159
162
162
162
159
156
154
152
147
140
135
134
133
131
129
130
138
121
39
26
47
57
43
53
58
58
65
77
73
82
79
66
72
66
66
70
70
67
67
68
90
89
70
40
11
11
15
17
23
28
29
28
31
38
46
46
42
44
55
62
62
63
66
64
81
83
87
88
105
101
95
90
116
107
102
102
114
95
92
107
94
83
69
60
63
64
66
67
62
50
48
36
35
65
157
180
169
170
169
169
168
168
168
168
169
169
169
170
77
71
63
53
45
41
41
41
51
67
96
100
103
99
107
91
81
79
71
71
71
71
61
62
63
67
71
72
73
73
75
77
75
70
66
58
58
73
83
87
72
56
60
68
68
73
84
93
93
86
79
80
85
86
85
78
78
87
80
78
76
73
73
81
90
97
85
87
95
103
110
103
91
85
115
122
113
106
106
108
111
112
111
112
109
101
86
80
82
91
104
137
164
162
113
110
103
99
96
96
94
86
65
47
47
65
72
66
61
57
62
70
70
63
43
48
53
58
53
78
51
57
64
64
46
68
80
83
56
64
65
58
55
61
68
70
70
67
70
86
74
73
74
75
90
72
63
71
71
67
73
80
82
84
76
58
63
69
76
75
70
84
122
99
113
89
146
135
123
100
88
91
98
99
95
93
94
93
86
98
86
100
123
102
142
114
140
138
127
115
137
130
129
133
100
118
154
159
126
132
132
175
116
123
134
141
141
121
101
78
108
113
89
94
122
120
135
142
156
116
106
90
95
125
106
85
103
75
140
123
77
99
177
123
87
142
141
107
109
92
134
165
117
108
94
89
106
101
95
89
101
88
86
95
96
94
90
90
90
85
77
70
88
75
61
67
70
92
106
103
78
69
100
104
61
66
73
78
61
56
67
87
75
74
73
77
80
79
73
68
70
78
85
82
79
73
71
74
75
92
81
74
95
96
99
77
96
105
97
82
75
82
90
91
91
95
110
120
121
114
107
99
98
105
115
129
134
128
118
109
115
120
129
141
131
112
94
88
127
127
134
143
127
128
128
127
129
135
143
147
151
156
164
162
154
143
156
150
157
167
149
151
152
161
160
148
147
155
163
162
163
162
162
162
162
162
161
161
161
161
160
158
158
160
164
166
167
153
150
159
161
163
166
169
168
164
157
155
165
163
146
159
159
164
170
174
167
175
168
153
154
154
155
156
157
158
159
162
166
170
172
172
162
162
162
162
162
162
163
163
164
166
167
168
169
167
164
163
163
163
160
156
151
149
148
147
148
148
149
151
147
141
132
125
122
124
129
138
152
158
159
159
159
159
160
160
158
158
160
160
160
160
160
160
160
160
160
161
169
171
166
162
157
154
149
147
147
146
143
149
151
147
136
129
126
126
130
131
135
137
143
145
146
148
154
156
157
157
159
159
158
160
162
162
162
162
163
163
164
164
166
163
166
167
167
166
166
163
164
163
162
159
156
148
143
143
143
144
139
123
40
28
47
57
43
53
58
58
65
77
65
79
83
74
72
79
79
72
67
67
67
68
78
83
77
48
30
23
27
27
24
26
32
33
34
38
46
46
42
44
55
60
59
55
59
62
59
66
75
82
97
92
87
82
87
107
102
71
102
90
80
78
81
82
84
85
67
57
43
32
50
55
43
48
41
101
171
175
165
165
166
166
167
167
168
168
169
169
169
171
108
119
64
55
44
39
36
38
52
71
105
106
106
98
91
82
69
58
57
57
57
57
74
74
74
78
86
88
81
75
74
76
74
73
69
60
58
74
87
87
66
51
54
64
64
69
84
101
101
87
78
77
79
86
86
80
80
89
93
89
80
68
78
88
102
109
106
103
101
95
92
95
101
108
110
101
94
96
100
109
113
118
116
128
125
107
87
85
85
88
78
90
104
120
114
110
103
98
97
95
96
94
69
43
43
69
55
51
45
41
48
62
62
48
39
45
49
55
51
82
40
49
63
77
50
63
74
82
62
60
58
48
49
61
63
61
61
63
68
86
73
66
62
72
95
77
73
81
81
73
74
81
88
93
72
82
91
109
124
89
76
146
125
91
111
78
130
143
132
117
119
114
107
105
106
109
109
109
96
111
105
121
124
87
135
134
130
124
122
125
141
127
120
126
127
111
131
161
148
174
151
144
125
114
106
99
120
174
113
86
145
125
93
114
99
84
109
144
130
91
93
78
84
124
115
87
92
108
123
81
105
81
97
98
126
171
142
131
118
113
136
152
114
97
89
89
85
89
93
95
89
104
128
125
103
92
88
81
71
75
80
82
83
67
60
72
99
117
118
105
91
68
82
93
74
64
60
64
68
57
63
77
77
74
73
72
81
80
78
77
75
76
80
82
82
79
77
74
67
86
74
81
83
88
111
95
106
94
89
93
88
90
94
93
90
91
100
108
114
114
112
107
101
100
102
117
129
130
127
120
116
106
97
94
98
87
94
113
96
103
111
116
94
93
93
94
95
101
109
115
120
127
136
141
136
127
140
136
144
155
137
140
147
165
167
147
145
160
165
157
153
153
153
153
151
151
153
153
152
152
154
153
153
158
167
172
153
127
108
104
108
122
143
157
176
171
162
158
175
172
157
162
171
166
160
156
166
174
167
152
157
157
157
156
168
168
168
167
167
165
166
168
169
169
169
168
165
164
163
163
166
167
168
168
170
171
171
167
188
182
175
172
172
174
172
171
172
172
173
173
172
171
171
170
165
159
154
150
149
149
148
146
145
142
142
142
143
144
148
149
153
154
156
158
160
163
166
166
165
162
157
151
146
147
153
158
158
154
148
144
141
140
143
145
150
152
152
149
145
142
139
138
135
139
146
154
160
162
162
162
162
162
162
162
162
162
163
163
164
163
164
163
162
161
161
156
152
155
160
158
158
159
164
160
161
163
163
164
151
134
51
38
48
56
44
53
58
58
63
77
71
87
96
90
84
99
99
84
91
91
91
91
65
75
72
56
26
15
14
15
19
25
34
36
36
38
47
48
49
48
50
51
52
54
60
62
63
74
88
97
97
101
107
112
92
80
85
107
102
118
104
68
98
92
82
76
76
74
71
69
28
51
46
70
60
132
174
156
161
161
162
163
165
166
168
168
169
169
169
168
84
105
68
57
44
41
53
54
53
52
89
92
96
105
96
83
82
92
93
72
62
74
70
74
74
81
90
92
84
77
72
75
73
72
75
70
66
73
80
76
65
64
76
72
66
62
89
89
89
89
75
72
75
80
86
95
100
90
92
94
85
71
79
89
102
107
106
106
102
92
90
92
105
120
106
106
106
106
99
114
126
120
109
125
126
114
104
93
79
70
83
79
72
69
120
112
104
100
95
94
95
95
94
72
47
44
52
52
52
54
59
57
51
47
57
45
47
56
42
57
64
57
60
50
43
55
67
76
63
48
81
66
59
55
55
45
50
66
74
74
74
74
58
81
92
82
63
91
100
90
98
73
73
98
68
71
79
82
79
66
86
124
101
125
90
115
147
133
117
109
99
79
86
119
108
110
126
103
86
124
167
146
124
96
113
120
116
144
122
125
93
125
135
110
125
127
110
144
156
149
138
131
135
138
129
103
170
148
101
105
129
113
93
105
110
118
97
139
116
96
91
103
125
118
124
144
86
165
165
85
83
109
114
106
135
167
136
144
128
116
120
127
109
94
91
90
85
90
94
88
85
102
134
125
102
88
92
84
74
74
78
79
80
67
64
74
97
110
112
100
91
70
80
94
84
60
57
67
73
62
68
76
77
75
72
68
72
72
74
75
78
76
73
74
78
85
84
85
81
89
76
78
78
91
120
115
108
91
88
90
89
91
95
96
82
85
92
97
114
112
108
106
108
107
99
94
103
111
121
122
121
125
120
107
87
95
107
115
128
99
100
128
117
103
82
68
84
103
109
98
106
112
105
87
126
115
99
88
91
90
104
125
89
104
111
103
112
112
129
151
162
148
121
87
110
143
166
160
151
158
152
136
113
145
147
119
123
130
124
109
63
68
81
93
137
177
207
171
164
174
146
171
179
175
167
158
170
169
169
167
167
166
166
164
158
151
144
143
157
161
169
177
181
179
171
164
162
146
153
136
150
161
159
147
159
155
148
145
157
157
157
157
158
161
164
167
165
164
168
168
167
170
178
182
178
171
166
160
154
147
139
133
122
125
133
136
148
150
152
153
151
137
122
105
104
106
109
109
136
146
161
170
162
158
155
159
153
143
136
132
144
141
140
140
138
133
125
121
121
127
133
139
143
144
145
145
146
146
146
146
149
153
156
157
153
151
152
152
152
152
150
151
155
154
149
146
147
149
152
153
154
155
158
158
168
169
172
172
164
147
48
11
51
51
48
55
58
58
62
62
70
63
76
88
71
90
92
87
96
121
109
83
75
77
77
79
35
17
19
21
21
26
36
37
38
42
47
49
50
49
50
51
54
57
61
62
83
67
58
64
101
108
103
86
98
117
114
134
96
83
93
79
111
90
76
77
88
77
63
54
55
51
44
41
65
91
115
156
152
153
171
150
159
165
144
148
136
143
152
154
57
106
58
47
42
40
53
57
62
63
70
75
91
102
98
88
91
105
105
82
72
74
70
74
74
81
86
89
82
76
72
73
73
72
75
75
72
75
78
75
80
94
88
85
78
73
73
73
73
73
73
72
75
79
83
87
93
90
88
87
81
75
80
89
97
100
99
105
105
98
94
94
105
122
106
106
106
106
101
115
119
109
88
101
111
111
98
91
82
75
71
68
62
57
99
103
99
93
90
92
91
92
86
84
72
57
52
52
52
54
59
57
51
47
57
46
46
57
54
69
76
68
54
47
49
59
56
54
48
38
54
57
68
71
81
70
65
67
74
74
74
74
67
82
84
83
84
91
88
82
97
95
82
68
70
66
61
56
52
81
115
132
108
139
103
89
98
98
92
81
79
72
88
116
116
117
132
110
78
99
139
135
153
116
113
115
126
120
111
129
124
123
130
141
152
155
118
133
129
131
134
136
138
138
130
117
137
152
122
113
140
117
90
93
132
119
129
95
88
118
147
153
117
114
117
126
86
116
116
85
89
95
105
109
116
129
121
129
120
108
107
105
98
92
94
93
92
92
92
89
86
92
98
91
85
82
93
95
89
81
74
71
77
72
71
68
68
72
81
85
83
77
94
105
88
64
64
74
71
69
76
81
78
75
72
68
67
65
59
61
70
72
67
66
74
87
87
84
92
95
86
75
78
93
115
119
107
94
87
81
82
89
97
98
96
96
103
108
111
108
101
100
96
94
91
88
82
89
98
101
109
106
89
68
82
94
112
125
104
92
93
104
111
100
84
73
84
95
100
98
97
105
103
89
89
95
103
109
62
57
67
85
99
108
101
85
65
67
87
112
128
121
100
80
71
103
124
131
115
108
113
130
132
146
149
138
134
126
133
149
112
103
116
141
141
142
164
151
173
180
154
157
178
176
169
163
159
158
159
159
159
159
160
158
156
154
154
154
150
149
153
155
181
178
175
173
165
144
143
122
130
135
126
108
131
134
141
146
151
153
153
153
168
164
158
153
150
148
147
147
164
167
170
172
172
168
161
161
166
168
164
160
159
162
169
172
168
158
144
132
100
90
86
84
84
85
89
90
96
103
114
120
128
144
164
166
154
152
148
148
134
135
139
140
138
135
132
130
132
138
145
145
141
138
139
139
140
140
140
141
144
149
153
152
155
155
155
153
152
156
163
167
163
163
168
170
169
167
168
168
169
171
172
173
176
173
170
171
152
146
63
37
51
49
54
58
60
62
65
66
65
67
86
114
109
133
104
105
71
101
72
66
73
72
68
67
48
28
21
21
22
27
36
38
40
45
49
50
51
51
54
56
58
61
62
62
74
69
77
96
81
96
103
96
108
119
104
114
110
101
120
112
97
78
69
74
77
71
62
55
55
51
44
41
34
45
31
74
128
118
141
134
143
160
152
166
171
164
157
156
43
95
46
36
33
37
54
63
74
81
70
65
75
87
83
78
89
107
101
86
82
82
70
74
74
79
83
84
77
72
71
72
72
70
71
72
76
80
83
80
86
99
88
85
78
72
69
68
68
70
72
72
75
80
80
79
88
86
81
73
69
77
87
91
95
96
100
109
109
101
96
94
105
122
106
106
106
106
103
113
109
95
96
93
95
103
90
87
85
82
71
67
62
57
85
105
109
93
84
84
84
84
83
90
91
76
52
52
52
54
59
57
51
47
57
46
46
57
54
69
76
68
50
43
55
61
61
41
40
40
53
66
82
87
81
83
77
67
59
59
59
59
77
84
78
85
93
82
80
95
91
101
88
62
70
66
61
56
61
81
84
70
84
103
84
57
75
98
105
92
87
88
98
108
111
111
125
104
112
96
122
132
141
107
116
138
124
104
113
120
131
116
123
147
121
140
119
133
168
156
141
129
137
136
131
138
171
166
108
78
130
113
93
103
130
121
159
97
101
125
131
122
108
111
108
100
86
79
78
85
81
91
108
108
98
95
134
132
114
104
100
94
91
92
92
92
89
88
88
85
86
92
83
84
86
91
88
94
94
87
78
75
79
75
76
75
76
72
74
86
93
93
98
99
86
74
74
74
70
73
81
81
79
75
72
68
67
65
59
62
74
78
72
69
75
87
87
82
88
93
90
83
78
86
101
103
97
91
90
89
89
90
94
95
94
96
103
107
107
101
100
103
104
106
109
111
100
107
116
117
100
108
107
98
94
91
86
82
85
98
98
85
103
97
87
82
84
82
88
99
89
102
106
98
89
82
74
69
56
47
51
64
88
95
90
73
58
51
56
72
87
93
89
81
64
74
72
76
77
70
77
92
113
103
105
120
122
115
120
137
113
117
130
144
161
138
147
138
150
162
158
142
169
174
168
164
158
157
157
157
139
139
139
139
154
157
162
162
162
160
157
155
172
175
178
181
193
176
182
165
160
169
166
153
149
152
160
161
160
157
157
157
147
154
163
169
182
175
167
161
149
147
143
141
120
116
109
104
103
105
107
110
142
146
152
157
147
132
109
94
69
70
73
83
82
84
88
87
87
89
92
94
105
116
125
125
98
98
103
106
123
131
140
147
137
139
142
145
146
148
153
154
156
158
160
160
162
162
162
159
155
151
149
147
145
143
141
139
139
144
152
159
141
146
152
157
163
164
164
163
163
162
162
163
165
165
163
161
166
153
60
29
50
49
56
61
64
65
67
67
58
64
80
114
102
114
101
91
108
114
102
97
88
81
72
65
63
38
24
21
22
27
36
38
42
48
51
52
55
56
58
60
61
62
62
63
50
50
67
89
101
117
124
117
103
113
98
108
118
105
117
104
77
63
61
70
63
62
58
57
55
51
44
41
42
47
26
44
45
42
72
86
125
151
154
171
147
147
149
155
41
68
36
30
29
46
65
78
93
104
82
76
65
61
62
61
75
96
88
79
81
86
70
74
72
77
82
82
76
71
70
70
71
69
68
70
78
85
87
79
76
82
79
72
66
62
75
75
75
75
75
72
75
81
80
73
79
78
74
67
68
83
94
95
94
96
101
110
109
100
94
93
105
124
106
106
106
104
101
110
102
85
129
103
89
94
86
85
87
88
84
79
72
69
87
119
127
107
81
82
82
81
93
94
90
80
52
52
52
54
59
57
51
47
57
46
46
60
42
57
64
57
46
49
59
52
69
49
46
56
39
48
52
52
55
74
81
70
81
81
81
81
79
77
80
85
81
70
84
119
84
87
87
84
68
71
79
83
86
86
79
70
85
82
87
83
94
132
148
133
119
117
108
100
95
96
110
88
74
58
106
149
143
101
106
118
109
107
128
100
110
114
118
127
167
159
133
133
141
138
135
133
132
130
136
152
130
131
117
144
108
103
103
126
117
128
162
126
114
110
103
111
100
109
101
81
86
75
75
85
63
101
122
119
115
101
139
116
100
106
99
93
91
90
84
88
87
84
82
78
81
90
81
91
100
104
78
81
88
90
86
84
82
80
78
78
75
70
67
70
73
74
73
73
75
75
80
84
79
73
74
77
76
74
71
66
64
67
73
81
88
88
83
79
80
87
87
82
85
88
89
83
77
82
94
87
80
83
95
104
108
103
96
89
83
84
91
97
100
100
104
111
87
93
101
107
102
109
119
120
112
112
99
82
96
98
99
100
84
113
113
84
98
98
91
87
83
73
79
99
83
100
108
103
96
90
81
75
79
66
64
74
54
71
77
70
82
59
44
44
55
73
81
75
59
66
59
43
66
73
67
51
74
45
47
79
94
101
95
80
68
103
116
99
141
127
126
96
63
87
111
92
146
165
166
164
169
169
169
169
156
156
155
153
152
151
150
151
152
148
140
134
124
130
138
144
146
141
165
160
140
161
176
174
185
182
175
169
164
162
162
161
158
156
153
150
143
132
120
112
113
108
100
94
93
90
84
78
74
79
88
91
92
94
101
105
95
84
70
59
82
82
82
82
82
84
88
90
92
93
93
90
74
78
80
97
89
94
102
111
88
98
113
123
136
142
150
152
153
150
151
151
153
153
154
154
156
155
157
158
159
161
162
161
159
158
158
160
164
163
156
156
158
156
150
147
143
143
142
141
139
137
136
136
129
138
147
145
140
138
62
41
48
52
57
66
66
66
68
69
61
56
61
80
93
85
125
94
142
110
138
114
109
98
84
75
62
51
35
24
21
25
35
38
42
47
50
51
55
56
58
58
60
60
61
61
70
64
72
90
110
117
111
96
83
103
100
119
115
91
85
61
62
53
54
67
54
55
55
55
55
51
44
41
40
46
32
52
21
27
47
54
68
89
82
100
127
141
155
145
26
25
35
29
36
57
80
83
103
128
107
83
75
82
84
74
74
84
67
70
77
83
65
62
70
77
82
83
79
73
70
70
70
70
70
72
73
79
82
76
73
81
73
58
58
73
87
83
76
76
76
72
66
65
79
72
64
64
70
67
73
88
96
94
94
94
97
101
102
101
101
99
104
118
121
116
107
103
97
96
95
82
116
107
93
82
91
106
106
95
83
88
81
109
111
165
158
137
86
84
82
80
93
97
89
79
77
63
57
57
45
46
48
47
66
66
66
64
56
57
59
60
45
36
64
56
66
36
54
54
30
42
50
56
54
73
80
77
95
90
84
83
83
81
74
69
67
74
102
124
91
90
89
88
88
88
88
88
83
86
111
144
174
144
118
140
137
126
140
130
136
137
123
102
93
93
93
92
109
59
96
144
128
123
133
98
71
124
123
117
138
120
162
123
140
164
130
105
115
95
101
130
82
87
125
130
115
102
91
123
146
91
82
118
116
144
132
114
109
95
123
124
137
97
79
86
82
69
77
103
75
97
112
119
119
97
128
109
104
120
109
91
91
84
79
88
90
88
83
81
81
84
79
84
92
98
74
79
84
87
87
85
83
82
80
74
72
72
75
76
79
80
77
76
77
73
80
94
86
68
65
69
73
72
71
66
61
66
78
87
92
89
85
81
80
82
82
80
80
81
82
76
75
85
93
79
73
81
93
102
108
106
101
97
99
102
109
114
103
98
90
85
83
102
109
99
112
114
114
116
117
102
98
106
110
109
106
104
99
97
108
108
95
101
96
76
87
102
102
87
99
96
99
104
88
90
94
96
100
90
76
66
55
55
55
55
75
70
64
59
58
48
54
74
69
67
66
64
56
79
75
45
43
36
48
72
83
84
68
36
52
84
99
86
84
87
111
91
48
63
83
53
83
102
138
157
149
144
138
133
154
154
154
153
150
150
153
154
141
141
141
141
138
133
142
158
144
152
174
153
141
167
166
141
138
144
154
161
161
160
160
160
171
150
127
108
91
88
85
82
114
108
100
95
92
92
93
93
93
93
94
94
92
90
89
87
85
86
86
88
91
91
85
82
83
86
87
87
87
87
88
88
89
89
89
89
79
75
74
83
86
84
81
79
83
90
100
107
145
146
145
146
165
170
175
177
172
168
165
162
158
156
155
156
159
160
158
157
156
155
149
145
139
132
126
123
107
98
84
73
81
77
72
67
65
67
74
78
89
104
89
51
59
55
49
45
57
64
72
73
75
73
66
64
75
93
87
106
116
132
106
91
112
95
76
60
50
44
39
34
27
29
36
41
43
48
50
51
53
55
58
58
58
58
59
59
51
46
54
71
81
75
65
58
61
65
63
97
82
40
47
56
60
55
49
47
49
50
53
53
42
50
48
34
26
40
37
65
80
70
85
75
77
81
59
64
57
64
73
80
25
25
29
36
49
62
79
89
106
120
107
83
75
82
91
81
81
91
67
70
77
79
74
70
73
79
82
84
83
77
74
73
73
76
81
76
66
66
73
72
72
81
73
68
68
73
87
83
76
72
80
81
75
65
78
75
71
72
75
71
74
83
87
89
89
86
85
90
100
115
124
117
104
105
111
109
105
102
98
98
98
91
88
90
93
95
98
110
110
99
93
95
84
109
136
179
167
151
90
85
84
87
91
94
89
82
84
77
64
57
47
46
45
46
62
62
63
63
61
59
57
54
48
45
56
53
54
45
55
57
53
52
48
50
54
61
61
64
70
76
82
84
81
73
66
61
75
79
102
121
109
103
93
86
92
92
92
92
94
84
111
159
179
142
125
168
151
132
134
116
132
137
128
109
108
108
108
108
125
79
89
124
108
119
141
139
80
119
113
113
135
130
156
125
91
126
105
88
126
102
103
130
117
118
152
153
180
131
107
82
136
108
103
131
128
159
125
119
101
91
111
124
123
90
73
80
90
70
77
105
92
88
98
113
109
92
119
117
122
130
135
114
99
85
81
91
96
95
92
89
87
84
81
76
75
79
77
84
86
83
80
77
79
82
83
80
75
79
88
97
103
104
101
98
92
77
77
88
80
62
68
74
73
71
70
67
64
67
75
81
86
84
79
75
73
73
74
74
74
74
75
71
73
87
95
81
80
84
84
84
87
88
90
88
85
87
94
97
99
89
72
61
97
108
114
113
113
110
107
106
100
97
107
127
121
112
98
87
105
103
101
111
99
102
100
90
96
102
102
96
104
85
83
98
93
95
97
98
98
91
82
76
58
58
59
58
70
65
59
55
42
41
47
57
63
56
46
39
51
71
75
60
45
47
60
74
79
52
42
51
69
76
85
92
100
79
80
82
59
54
78
74
74
98
97
92
85
90
96
100
88
96
109
117
126
133
143
149
152
152
152
152
156
152
160
176
135
135
156
143
117
135
135
117
123
133
145
154
152
144
132
123
105
97
89
86
84
90
97
103
108
108
104
102
89
88
87
86
83
82
81
82
87
88
87
84
87
89
89
87
85
88
94
96
94
92
92
90
89
88
88
88
87
87
87
87
95
103
120
140
128
127
126
125
95
91
84
79
76
77
76
77
109
113
120
124
160
167
178
186
181
174
165
158
176
169
159
152
150
152
155
161
165
161
155
152
131
114
93
78
94
94
91
90
87
83
77
72
46
70
77
65
53
56
63
67
71
74
75
74
88
87
84
80
89
78
93
89
111
108
116
99
85
70
57
41
39
39
39
37
36
38
43
47
49
52
55
56
58
60
62
62
62
62
63
63
62
56
64
82
100
101
104
105
92
106
104
128
117
84
91
92
75
71
65
60
55
54
54
54
36
30
39
56
77
110
102
102
90
80
95
85
88
97
79
87
87
76
62
52
25
24
22
45
65
71
72
96
109
108
106
83
75
82
85
74
74
85
67
70
77
80
80
80
80
82
82
83
84
81
77
77
77
80
82
76
66
65
69
67
67
76
73
80
80
73
87
83
76
72
81
94
88
65
75
78
81
85
83
74
71
77
82
94
94
86
87
84
95
121
133
122
99
91
97
99
103
104
103
104
106
105
87
94
103
110
106
117
117
105
108
106
87
107
157
182
165
156
100
84
81
90
90
90
90
84
87
85
78
64
51
50
47
49
53
56
56
56
70
63
53
46
53
56
45
48
36
55
56
63
48
45
41
54
53
49
40
45
59
63
70
74
91
88
83
77
72
69
87
101
113
112
109
105
101
99
99
99
103
84
82
97
116
101
97
137
151
133
135
117
96
106
103
91
99
99
99
99
77
62
66
106
109
107
98
109
111
129
116
125
132
140
147
128
137
158
118
89
119
103
116
148
117
112
139
135
90
70
90
100
110
118
104
112
129
136
124
117
94
89
84
104
98
88
81
85
92
92
90
86
101
92
95
106
105
99
98
84
92
93
144
165
109
92
84
87
90
92
94
94
92
90
91
90
84
78
79
77
78
75
70
70
75
77
80
78
73
72
79
81
85
86
84
83
84
84
83
86
78
64
71
75
73
69
69
69
68
69
72
76
80
79
74
71
72
73
74
74
74
74
75
70
72
87
95
83
81
81
73
69
72
74
74
74
77
81
87
92
103
96
88
81
74
72
78
89
100
93
84
77
86
75
76
88
107
109
111
111
111
112
110
108
103
100
103
110
110
102
102
109
113
101
92
90
119
109
95
85
97
94
92
89
66
65
65
65
64
60
54
49
37
47
54
52
48
47
44
42
66
69
65
57
36
50
63
65
54
27
30
64
77
79
82
84
84
74
60
73
56
58
89
88
92
103
88
66
64
68
75
78
67
75
88
96
101
102
106
109
112
113
113
113
111
105
113
131
122
110
131
131
128
132
132
128
127
128
127
127
119
111
98
89
71
69
69
76
79
76
68
63
76
78
82
83
83
84
86
86
86
87
88
89
87
82
80
81
83
84
86
86
73
78
84
87
85
84
84
83
83
82
82
83
81
81
82
82
64
77
100
125
149
160
174
184
165
156
142
133
91
92
92
91
79
84
89
94
89
108
135
153
173
172
168
170
174
174
172
169
168
167
163
162
133
129
123
119
120
108
94
83
80
84
88
90
89
85
79
74
81
81
73
62
61
64
71
74
74
74
76
77
78
79
81
80
91
76
87
77
94
89
95
63
65
56
47
35
39
41
42
42
43
48
51
52
55
58
60
62
64
65
68
68
68
68
69
69
75
69
77
94
105
94
81
71
68
94
91
105
100
78
85
74
82
77
71
66
62
61
61
61
69
52
43
49
99
115
84
68
82
72
87
77
63
77
65
78
72
73
75
75
19
18
21
59
77
80
73
99
109
97
107
83
75
82
70
59
59
70
67
70
77
80
82
86
86
86
88
90
88
80
79
83
82
79
74
70
72
76
77
66
61
67
70
89
89
70
87
83
76
72
85
102
96
66
73
80
88
94
94
77
71
71
81
103
103
96
96
89
91
111
117
104
91
85
88
92
99
105
106
108
105
109
111
113
114
116
108
120
121
110
119
112
89
106
160
173
150
148
111
83
74
88
93
87
84
84
87
87
85
77
61
56
51
51
51
52
52
52
75
65
51
40
56
64
36
45
24
62
57
67
60
66
78
100
91
82
74
71
66
61
55
50
62
67
70
67
56
52
65
75
102
112
126
135
102
102
102
102
91
105
105
90
76
98
105
120
137
127
141
130
93
106
108
97
114
114
114
114
91
81
57
88
119
117
94
121
143
149
130
145
129
146
141
130
141
170
143
123
162
124
104
116
128
119
140
132
97
107
103
128
84
116
95
75
97
76
121
95
77
84
69
91
85
90
93
91
80
115
107
60
96
106
104
85
83
90
89
90
93
80
112
122
111
94
86
84
82
83
88
94
92
91
93
92
84
78
90
83
74
71
70
72
72
74
74
80
84
83
81
79
80
81
79
75
74
83
88
86
81
77
74
69
69
69
70
70
70
70
70
72
75
75
71
71
75
78
79
79
75
75
76
73
73
85
91
79
74
75
73
72
73
73
73
75
82
88
94
99
114
120
128
134
110
100
107
126
123
113
99
90
68
69
87
109
113
107
96
90
117
113
115
114
107
98
106
126
117
102
102
118
119
134
120
85
95
101
111
117
95
96
98
99
69
69
69
69
59
55
49
46
43
62
69
58
35
46
60
69
91
72
52
42
23
47
60
54
26
22
37
64
71
93
91
67
47
77
64
70
44
71
106
88
99
92
84
71
91
86
80
75
98
98
98
97
126
117
103
92
94
94
94
93
76
70
78
96
84
63
84
92
113
109
109
113
134
117
95
80
65
64
64
65
81
77
71
68
72
76
80
79
76
79
87
91
80
78
78
77
77
76
76
76
78
79
78
77
75
74
73
74
75
71
65
64
67
69
70
70
71
72
73
75
74
74
76
76
87
95
109
129
157
150
141
134
121
116
110
106
93
93
93
92
93
95
102
106
95
88
79
71
85
95
110
120
108
118
132
143
147
133
112
100
86
81
76
74
78
82
84
85
90
97
105
106
103
103
110
115
108
98
90
85
86
82
75
71
72
73
72
70
69
66
66
66
60
74
65
71
70
96
85
91
60
52
46
42
42
42
42
44
55
60
62
62
64
65
64
65
69
71
72
72
73
73
74
74
83
77
85
103
79
77
75
73
54
89
87
91
91
77
84
64
75
70
64
61
62
64
64
65
64
78
80
72
75
82
69
90
80
70
84
73
65
82
75
91
75
78
81
82
17
16
32
59
80
85
76
82
92
102
121
99
76
66
83
77
70
64
62
76
76
62
74
93
98
90
91
100
91
74
75
83
81
72
68
68
77
91
91
74
61
62
66
78
78
66
75
81
89
94
87
73
65
70
73
79
86
99
95
76
75
73
83
106
98
96
96
94
96
105
106
96
90
87
94
94
95
94
82
95
102
89
113
114
110
107
107
105
101
98
148
121
105
113
153
173
166
134
118
85
73
75
76
77
79
82
86
89
93
91
80
64
48
40
22
52
59
36
39
43
46
49
69
48
34
35
47
35
35
47
48
57
73
82
76
81
87
91
98
78
73
83
73
61
79
111
77
69
56
47
75
89
112
127
125
119
111
104
101
104
110
115
101
90
89
101
127
124
107
129
121
116
110
105
95
95
95
95
79
61
55
60
110
109
124
133
150
114
128
124
134
86
108
127
137
128
124
128
123
110
109
102
128
128
144
121
118
116
117
102
82
88
95
99
117
105
90
78
85
85
86
86
97
102
111
117
106
101
94
87
86
86
86
86
81
86
86
90
92
85
96
98
99
90
87
85
82
83
86
86
91
90
92
88
84
79
86
81
76
73
72
73
73
73
75
76
82
83
80
78
78
79
78
74
74
82
87
80
77
79
74
71
69
72
72
72
72
72
70
70
72
72
70
72
73
73
72
70
74
73
74
72
74
78
81
75
72
72
74
73
73
74
74
73
106
111
117
121
100
112
128
140
134
134
120
109
127
126
124
127
125
125
131
135
145
133
114
104
110
110
109
109
115
110
97
86
102
103
105
107
130
132
137
140
121
121
121
121
131
130
146
157
125
94
71
77
81
63
54
60
61
59
55
51
51
51
68
88
39
33
24
20
35
43
50
51
29
38
52
63
86
86
86
88
92
94
96
91
92
95
96
94
92
92
92
92
98
109
109
98
101
101
101
104
106
104
98
97
98
100
99
98
97
96
95
95
94
93
91
88
105
105
105
104
104
103
103
102
97
91
85
82
76
78
85
87
82
74
66
61
77
77
76
74
73
73
72
74
73
74
74
75
75
75
74
74
76
76
76
75
75
73
73
73
75
75
76
77
78
79
81
81
83
83
85
85
102
103
103
103
125
115
101
91
99
88
74
64
76
76
77
77
77
77
78
78
108
117
125
123
99
88
74
64
81
81
81
79
77
81
86
91
67
78
92
106
115
112
108
104
119
119
118
116
114
113
111
111
111
111
110
110
110
110
110
110
108
98
84
74
55
55
56
59
61
60
52
49
61
62
61
60
59
58
56
56
67
67
67
68
69
73
75
75
73
71
68
67
71
75
76
76
76
76
77
78
85
92
100
106
89
83
76
70
82
86
92
97
72
72
72
72
70
69
70
69
69
70
73
74
73
73
73
73
72
71
72
72
72
72
74
74
75
76
77
77
79
79
79
77
17
18
38
61
77
78
76
89
109
130
115
96
79
71
77
75
73
70
52
66
78
81
63
77
81
76
86
98
89
72
70
77
70
62
68
73
83
102
102
83
70
72
66
73
73
66
65
76
93
103
85
71
68
78
76
73
79
87
82
66
81
85
95
110
92
88
89
94
98
103
107
109
105
96
94
94
94
94
88
101
100
88
97
105
109
107
106
103
97
97
124
115
120
130
152
167
163
143
123
91
78
80
76
77
77
79
82
85
87
89
91
76
57
45
55
46
41
42
53
47
40
35
49
40
42
56
50
39
39
50
63
61
59
56
56
61
67
71
96
85
80
82
80
82
108
138
91
104
89
56
48
61
78
100
107
104
101
100
104
111
117
122
93
105
104
93
136
151
126
119
128
123
117
112
110
101
89
80
60
46
43
52
88
90
106
135
141
124
126
122
122
102
111
118
122
134
129
110
90
72
71
81
99
100
117
93
86
100
112
111
99
93
88
83
106
99
88
81
80
80
80
79
78
79
83
86
89
88
84
83
85
86
86
86
87
87
87
87
90
93
98
98
92
87
87
87
86
85
85
83
86
86
86
86
84
80
79
77
77
76
73
73
73
76
76
76
77
78
78
79
79
79
79
76
77
82
83
75
73
74
74
74
74
74
74
73
73
72
72
72
72
72
72
72
70
72
72
73
74
75
74
73
72
69
69
69
71
72
74
73
73
73
73
71
70
73
79
84
74
81
93
102
106
119
122
111
118
128
138
148
169
165
159
155
156
159
157
158
135
135
135
135
113
106
97
95
77
84
95
100
115
112
108
106
108
110
110
110
96
91
96
105
116
119
142
148
151
134
126
133
141
124
100
85
54
53
57
70
73
71
67
65
76
83
90
92
84
91
100
107
109
109
109
109
107
100
93
87
84
83
81
77
80
82
82
82
83
93
93
83
85
85
85
84
86
88
95
98
99
100
99
98
97
96
95
95
92
88
84
84
85
86
88
88
88
88
89
88
87
84
83
83
86
90
97
99
95
92
89
89
95
97
97
97
96
97
99
100
101
102
104
105
105
105
105
105
93
93
95
96
97
97
98
97
97
96
96
96
96
97
96
97
108
108
109
109
109
109
111
111
104
97
87
80
93
86
76
69
71
71
72
72
73
73
74
74
78
88
100
105
97
91
82
75
72
72
71
70
68
70
76
81
91
103
117
125
129
126
123
118
114
113
113
113
115
115
113
113
113
113
113
115
116
118
119
119
114
106
97
91
85
84
85
83
77
72
65
61
61
64
63
63
79
78
78
79
78
77
77
76
76
78
79
78
76
74
71
71
74
76
77
77
77
77
78
77
77
78
82
84
83
81
78
77
76
73
67
63
62
62
62
63
68
70
71
70
69
69
67
67
71
73
73
73
72
71
72
72
72
72
72
70
69
66
67
66
68
69
70
69
20
17
46
65
74
71
76
89
109
129
106
92
82
78
70
73
76
78
57
60
73
88
79
76
72
66
76
87
82
77
79
80
67
56
62
68
79
96
96
81
74
77
73
66
66
73
73
80
89
95
76
68
71
85
82
76
73
78
73
59
78
87
99
116
98
91
87
88
94
98
108
120
115
96
94
94
94
94
97
111
102
86
85
93
107
116
103
99
95
94
97
106
127
148
149
157
161
157
129
97
84
87
78
76
78
78
81
82
82
84
91
87
69
53
53
32
25
39
34
40
48
53
42
37
46
65
58
46
46
58
51
44
35
28
45
49
56
59
78
80
74
64
48
59
77
89
56
89
104
91
78
75
77
89
83
86
89
91
101
105
111
117
100
112
112
100
128
148
130
127
122
117
111
107
110
100
89
79
78
70
73
87
101
87
88
111
132
140
124
119
104
124
115
108
136
103
81
82
111
115
89
50
94
95
111
87
67
90
98
107
100
94
88
85
88
88
84
82
101
101
101
99
94
91
87
84
83
85
88
89
88
87
88
87
87
89
89
89
91
95
98
98
92
87
87
87
86
86
86
85
86
85
84
84
82
81
79
78
77
77
76
75
75
76
76
77
77
78
78
80
80
78
78
77
77
82
82
76
75
74
74
74
74
75
75
74
74
72
72
72
72
72
72
72
71
72
72
73
75
76
75
74
72
70
70
70
71
72
74
73
75
74
73
73
77
82
88
93
95
99
104
108
130
136
126
108
109
131
157
168
159
154
148
143
146
151
156
163
169
170
170
170
141
128
117
114
117
118
121
125
123
117
112
113
115
115
115
115
105
96
89
93
96
101
118
129
113
106
115
133
129
127
126
126
100
85
86
87
89
91
95
97
103
110
117
117
115
117
119
119
116
114
114
114
119
112
102
97
81
75
72
73
74
74
77
77
87
99
99
87
74
74
74
74
76
79
86
90
92
93
93
91
90
89
89
87
86
84
81
80
80
79
80
81
82
82
82
83
84
84
84
84
88
91
98
100
101
101
105
107
107
107
108
110
111
111
110
109
107
106
104
103
102
103
104
105
107
108
110
110
111
112
115
116
119
120
121
121
119
118
116
114
112
110
108
107
106
105
104
104
89
87
85
84
83
82
80
78
78
78
78
78
78
78
77
76
74
70
68
73
77
77
73
72
74
74
74
74
76
81
87
89
90
91
96
98
97
93
90
86
85
85
85
84
82
81
80
80
80
80
80
80
94
94
94
96
95
94
92
88
84
83
83
82
78
73
66
64
64
65
64
64
64
64
65
65
64
64
63
62
62
65
66
66
68
70
73
75
77
76
78
78
78
78
79
79
79
76
73
72
75
79
82
84
83
80
73
73
77
80
80
82
87
88
89
88
92
85
75
69
73
73
73
73
71
72
73
72
72
72
73
70
69
67
67
67
68
69
70
69
21
17
52
68
70
65
79
84
92
103
101
90
84
82
64
70
78
83
76
62
62
76
101
97
76
61
62
74
75
81
88
88
73
58
55
59
68
81
80
70
67
72
78
63
63
78
94
86
82
75
72
68
75
88
88
80
76
76
78
67
80
76
89
116
105
96
87
87
90
91
97
114
113
90
94
92
94
94
103
114
103
83
76
85
99
114
107
100
91
92
80
101
128
149
148
150
158
168
131
99
89
91
78
76
77
78
79
81
82
83
88
88
80
67
58
59
65
73
48
45
43
40
51
40
43
56
61
51
51
61
59
58
57
53
50
52
58
63
54
64
58
39
39
46
48
40
47
56
69
77
77
72
66
56
62
68
76
82
86
89
96
100
115
105
105
115
108
117
116
147
106
102
95
92
93
94
94
95
84
78
86
102
130
102
83
84
124
151
123
117
92
140
118
101
112
121
125
120
141
134
129
134
124
124
140
117
72
79
81
78
82
85
89
99
78
85
86
87
91
95
95
97
94
90
84
77
88
93
101
107
87
87
88
88
87
89
89
90
91
95
98
98
93
91
90
90
88
86
86
85
86
85
84
83
82
81
79
78
77
77
76
75
74
75
75
76
77
78
78
78
77
77
77
76
76
80
80
76
76
75
74
74
74
74
74
72
72
71
71
71
71
71
71
71
70
70
69
69
70
70
70
71
73
74
77
75
75
77
77
75
76
74
74
74
85
90
96
100
114
114
114
115
114
139
156
157
152
147
136
130
140
144
151
155
158
159
157
159
161
162
162
162
165
163
165
156
148
137
124
114
96
102
113
119
134
134
134
135
106
104
90
84
104
94
94
119
131
108
93
93
96
99
104
106
119
102
90
88
78
83
91
95
99
106
112
113
101
100
99
99
100
101
101
99
93
86
80
78
79
82
82
82
81
81
82
82
73
85
85
73
76
76
76
75
87
84
77
76
81
83
84
83
83
82
82
82
82
81
83
83
84
84
85
85
84
84
84
84
84
84
84
82
78
79
86
89
93
96
105
107
107
105
107
109
111
112
113
113
112
113
112
112
111
111
112
112
114
115
115
114
111
109
107
105
106
105
104
100
97
95
93
92
89
88
87
87
89
89
89
87
87
87
90
91
79
81
82
82
82
82
82
82
81
81
80
80
85
77
68
62
68
69
73
72
72
73
73
73
84
89
96
98
95
90
89
86
83
78
75
72
61
62
64
65
67
69
72
73
74
75
75
74
72
70
70
70
76
78
79
81
62
62
63
64
65
63
56
54
57
59
60
61
61
62
64
64
74
74
74
75
80
83
83
80
75
74
78
78
74
72
73
74
75
75
78
77
91
86
77
72
70
76
84
90
95
99
106
111
115
116
116
116
114
112
114
114
119
109
95
85
73
74
74
73
72
72
73
73
73
73
75
75
76
76
78
76
76
76
74
74
22
38
67
72
66
65
77
83
91
101
88
83
87
84
75
71
85
110
96
64
58
77
109
107
93
71
57
61
67
77
90
93
78
63
57
61
67
72
72
70
74
77
95
75
66
76
82
85
81
79
74
73
80
88
90
80
78
90
91
88
95
78
87
116
102
91
89
96
96
88
88
101
110
95
91
92
91
87
94
104
111
104
69
81
86
78
92
94
91
80
112
117
131
154
147
162
163
148
128
95
77
78
79
77
78
74
76
78
81
81
84
88
87
81
58
77
87
83
54
65
65
53
54
53
52
56
73
69
62
59
75
75
75
75
70
61
52
54
72
61
47
39
46
80
89
70
83
70
53
42
47
40
31
25
45
55
69
80
93
91
92
92
88
104
110
103
123
123
108
119
137
123
110
109
117
109
97
92
103
77
77
103
140
117
87
85
98
103
112
118
95
107
122
134
80
117
128
107
101
79
88
123
133
121
137
126
76
76
76
82
87
82
84
87
88
92
93
83
76
81
90
96
83
83
84
84
88
91
98
101
101
98
90
88
89
90
90
91
92
95
97
97
96
95
95
92
91
89
88
87
86
86
85
83
82
80
79
79
78
77
77
76
75
74
75
76
77
77
77
77
75
75
75
74
76
78
79
77
78
78
75
72
74
74
74
72
72
71
71
71
71
71
71
71
70
70
70
70
69
69
70
70
72
72
74
75
77
78
79
79
77
76
77
76
72
72
79
85
90
89
89
90
61
78
102
119
137
120
111
116
132
138
147
154
153
157
161
166
142
144
146
147
159
156
152
149
148
149
149
151
154
151
145
141
129
128
128
130
131
130
123
118
113
114
117
119
138
131
122
115
99
96
89
86
85
84
80
79
82
88
95
95
96
95
95
93
92
92
92
93
80
80
80
80
83
88
94
98
99
100
100
98
96
95
94
93
94
92
92
92
89
85
82
81
81
83
86
85
85
86
85
86
87
88
87
86
72
76
82
92
98
103
109
114
102
102
101
99
96
93
90
89
90
88
88
85
83
83
86
91
96
99
102
100
101
102
104
105
106
107
108
112
112
107
100
96
96
97
97
97
96
91
87
84
82
82
80
79
79
79
79
79
80
80
80
80
80
82
82
83
82
83
83
84
83
82
83
82
80
79
79
78
77
75
75
74
75
78
84
89
87
81
75
78
77
75
74
72
73
77
85
92
95
90
82
78
79
80
80
78
80
85
92
93
93
95
102
107
74
74
74
74
63
63
63
63
67
67
61
57
57
62
70
73
70
67
68
66
65
64
65
65
67
68
72
73
75
78
80
81
83
86
86
82
78
76
77
77
76
73
76
77
79
81
83
81
79
78
81
81
83
88
96
103
109
113
120
125
129
130
130
132
136
137
138
139
139
134
127
121
92
76
77
87
84
83
83
81
81
80
80
78
73
72
72
71
70
69
70
68
23
38
72
73
67
70
76
84
91
101
95
92
94
89
66
66
76
89
87
67
63
79
98
102
99
83
68
58
61
77
95
100
86
71
62
65
70
74
77
82
90
96
101
83
68
63
82
82
82
79
75
75
82
86
89
78
78
93
103
101
111
94
91
110
91
88
97
111
110
94
85
92
107
107
98
95
98
104
107
106
110
115
72
87
96
92
85
86
85
88
113
130
138
144
147
153
153
148
120
90
79
83
79
77
78
73
72
73
75
75
73
73
76
76
48
92
105
80
57
69
69
57
34
38
43
50
61
58
52
47
59
59
59
59
44
46
48
52
49
49
53
56
89
101
96
73
102
85
60
44
36
32
26
20
31
39
50
55
75
74
75
74
73
88
94
87
122
156
129
110
124
119
126
132
127
114
102
96
103
85
85
104
129
120
106
117
91
94
97
96
93
96
107
115
117
125
110
78
102
85
89
111
98
86
102
91
92
92
92
94
94
84
85
92
93
100
100
87
86
89
92
92
89
87
87
87
87
91
98
101
101
98
90
88
89
90
91
92
94
95
97
96
96
95
94
92
91
89
87
87
86
86
86
83
83
82
82
82
80
79
79
79
79
78
77
77
77
77
76
74
74
74
75
74
76
77
78
77
78
78
74
71
72
74
74
72
72
71
71
71
71
71
71
71
70
70
71
71
71
71
71
70
68
67
68
69
71
72
76
77
77
78
80
79
75
71
71
73
75
76
76
76
93
89
86
82
113
112
126
146
137
132
128
135
138
142
146
150
143
150
160
167
161
154
146
145
146
149
149
153
155
155
149
144
149
140
128
119
109
113
119
121
117
110
101
96
86
96
110
121
83
88
94
96
94
98
106
111
112
112
113
113
111
109
109
106
106
104
102
103
120
120
120
121
125
130
136
140
140
139
139
139
120
120
120
119
118
117
117
117
100
88
77
74
84
84
85
86
106
100
91
84
80
80
80
78
94
104
116
125
128
124
118
112
109
109
108
107
106
104
102
102
101
101
100
100
90
88
86
87
75
81
87
91
91
92
92
93
93
94
94
97
96
92
87
86
86
86
86
85
86
84
81
80
81
80
80
79
79
79
80
80
79
80
80
80
80
82
82
83
82
83
83
84
83
83
83
83
82
82
82
82
82
82
82
83
84
80
75
72
75
76
75
69
68
71
74
76
80
83
87
90
93
88
80
76
76
77
78
78
99
102
109
114
126
121
115
111
90
90
90
90
77
77
78
77
73
69
65
59
55
58
61
64
75
83
96
106
102
93
81
72
74
74
75
75
77
78
78
77
77
77
76
76
78
81
85
87
88
90
93
94
95
96
99
99
87
85
82
81
83
86
89
94
97
96
90
86
99
100
99
102
105
107
108
109
109
104
97
90
86
77
79
93
113
113
112
112
112
111
112
112
97
97
97
96
81
76
71
70
25
38
76
71
70
78
76
84
91
101
91
91
89
89
68
76
78
75
72
69
73
81
93
102
95
82
76
71
63
75
93
100
86
71
62
67
70
72
77
85
98
107
87
86
78
64
82
82
82
79
75
75
82
86
89
78
78
93
101
94
109
103
97
101
83
99
118
129
120
96
83
86
103
114
109
98
108
132
122
101
93
94
76
96
113
113
108
95
80
82
127
163
176
165
148
141
142
148
112
87
82
91
80
77
77
73
71
72
72
71
70
71
73
77
86
120
119
85
49
60
60
49
48
56
62
62
62
58
53
48
39
39
39
39
56
63
70
70
57
59
66
73
88
79
69
56
59
58
57
55
49
46
44
41
25
27
29
31
46
45
46
45
66
83
88
81
117
150
127
107
126
110
104
118
118
118
119
111
103
99
99
103
107
102
95
114
100
97
94
92
96
99
103
103
104
109
111
108
103
96
92
96
100
86
103
92
83
83
83
83
104
92
92
99
100
107
107
94
100
98
95
92
93
94
94
92
89
91
98
102
102
98
91
88
90
92
93
94
95
96
96
95
92
91
90
90
91
91
89
89
87
87
87
87
87
87
87
87
86
86
86
86
86
86
88
87
86
86
87
87
87
87
89
89
91
91
92
92
92
89
84
81
81
82
82
81
81
79
79
79
79
79
79
79
78
78
78
78
79
79
78
76
74
72
70
67
65
63
64
66
69
71
73
73
72
73
74
73
76
76
76
76
63
67
72
74
92
79
78
87
132
140
146
144
149
156
161
164
148
151
153
156
161
165
171
175
149
149
149
151
152
149
143
139
132
124
112
102
108
111
118
117
113
116
124
130
105
104
103
103
110
115
121
125
124
119
111
105
120
123
125
125
125
125
125
123
122
121
121
121
146
146
146
142
136
137
143
145
142
139
139
138
136
135
134
133
133
132
132
131
118
109
100
88
94
92
91
91
114
113
110
109
93
86
87
85
106
115
125
129
128
123
117
112
109
109
110
110
111
111
113
113
113
113
114
114
111
104
96
94
84
83
81
85
85
82
82
83
81
82
82
81
80
79
78
78
79
80
79
80
81
81
80
80
80
80
80
80
80
80
80
80
80
80
79
80
80
81
81
82
82
83
83
84
84
84
82
80
77
75
75
76
78
80
81
83
87
84
78
73
71
75
78
76
81
87
98
103
105
102
99
99
99
95
87
84
83
84
84
84
108
112
118
122
120
115
109
106
118
118
118
118
107
107
107
106
102
98
94
89
84
81
78
76
75
83
96
106
102
93
81
72
75
75
77
77
77
79
81
82
84
85
86
89
94
101
109
116
119
120
122
122
123
123
124
124
102
95
86
79
85
83
80
80
80
78
72
70
72
74
74
76
79
80
81
82
82
78
71
64
78
73
83
102
121
122
122
123
125
126
125
124
121
118
118
118
111
100
88
83
25
38
76
74
73
82
76
84
91
101
85
76
71
80
77
91
91
77
65
70
79
81
91
106
98
77
72
83
75
75
84
90
76
63
60
68
71
71
69
77
95
107
62
82
90
81
82
82
82
78
75
75
83
89
89
77
77
91
93
77
97
102
96
88
75
111
136
138
121
97
85
83
97
110
116
99
114
151
135
102
74
65
80
102
123
127
130
117
102
89
155
207
230
205
147
132
132
147
109
84
87
94
80
79
78
73
68
70
71
72
76
80
84
85
100
104
93
70
80
86
85
75
87
89
89
89
79
75
70
67
69
70
70
69
82
83
83
83
95
92
90
91
92
84
81
81
81
79
73
67
77
77
78
79
63
61
68
66
66
66
66
65
75
88
93
89
101
117
106
102
121
105
99
104
101
108
119
120
106
107
108
107
123
116
107
117
117
113
107
103
116
116
117
115
110
108
110
111
109
104
98
91
91
83
96
89
100
100
101
104
108
102
102
107
107
112
112
103
108
105
100
98
98
99
99
97
94
94
98
100
100
97
92
90
90
91
92
92
93
93
93
91
86
84
86
87
89
89
89
89
87
87
87
87
87
88
89
89
88
88
90
90
91
93
96
97
96
96
100
101
103
104
109
109
111
110
112
112
109
105
99
95
91
90
90
90
90
89
90
90
91
92
93
93
93
93
93
93
91
90
86
84
84
84
85
87
89
91
95
95
94
93
93
94
84
80
77
78
79
81
83
83
77
72
73
78
94
84
88
98
81
93
106
113
127
132
135
140
148
138
124
114
141
143
140
127
149
152
152
148
145
144
138
131
127
127
127
129
127
122
115
111
111
111
110
108
129
121
121
121
119
120
116
113
110
110
112
113
117
118
119
121
122
123
125
125
125
125
126
125
136
137
139
138
137
139
145
150
152
152
152
153
144
143
142
140
140
138
138
136
137
133
126
116
116
109
101
99
110
115
126
133
122
109
106
106
101
105
108
108
105
105
109
110
108
106
108
109
111
112
114
115
117
118
120
122
123
119
115
111
109
103
96
94
85
83
82
82
80
78
79
78
76
76
74
73
75
75
78
77
77
77
78
78
78
77
78
77
77
76
78
78
80
80
79
79
80
82
82
84
82
82
83
84
83
84
85
84
94
95
98
100
111
113
113
112
93
95
98
99
98
93
87
89
92
97
109
117
116
113
105
103
102
98
92
87
86
86
91
93
109
119
130
132
137
139
139
137
122
117
111
109
101
102
102
102
103
102
98
96
81
75
68
64
66
69
70
70
70
68
69
69
72
72
74
73
74
77
83
86
88
88
86
83
82
85
93
98
100
101
101
101
102
102
100
100
102
94
83
76
82
77
71
68
68
69
73
73
72
71
72
73
77
78
79
80
80
76
71
66
74
72
82
99
100
100
101
101
104
106
108
110
113
113
113
115
119
112
108
102
31
73
75
75
75
80
80
81
89
101
89
71
64
72
77
90
91
78
68
70
72
71
81
102
104
86
81
66
62
62
81
87
80
62
73
70
71
73
78
75
69
68
72
77
79
80
93
90
84
79
63
73
86
93
83
82
82
83
96
93
93
96
76
78
87
95
110
105
98
90
94
87
94
113
119
103
95
101
137
117
83
99
87
89
95
103
118
135
113
107
165
236
249
201
136
110
126
140
112
106
92
88
94
83
71
65
70
72
71
71
76
80
84
87
97
96
97
98
104
102
100
101
108
110
108
106
97
95
92
92
94
94
94
94
98
97
99
100
108
106
104
105
95
99
100
103
102
98
93
91
96
98
102
107
112
112
99
96
91
92
92
88
88
93
97
99
100
104
102
105
117
111
109
108
107
114
119
122
115
116
117
116
127
126
123
122
124
123
121
118
125
128
130
130
125
121
122
122
120
117
114
111
106
105
110
109
120
123
125
126
124
122
122
122
122
123
122
119
116
114
111
111
112
113
113
111
109
108
108
107
107
105
103
103
101
101
101
100
99
99
98
95
89
87
91
94
97
98
97
97
95
95
95
95
95
96
98
98
97
97
99
100
101
102
105
105
104
104
107
108
109
110
114
115
116
116
118
118
114
111
107
101
97
95
95
95
96
96
97
98
99
99
101
102
104
105
106
107
104
101
96
95
95
96
100
103
109
113
116
115
111
104
99
98
94
92
89
88
90
93
101
104
99
82
76
82
90
87
81
81
102
109
115
121
142
141
136
135
123
125
130
133
146
158
162
147
143
150
150
141
135
136
132
123
116
118
123
126
124
118
108
107
111
110
109
109
117
126
128
129
126
124
119
115
111
113
119
122
123
122
123
123
125
125
127
127
128
128
128
127
128
131
135
136
136
138
143
148
153
154
155
155
148
145
143
140
137
136
135
135
138
136
133
127
126
123
120
117
116
120
128
132
131
124
122
123
116
115
113
109
108
109
113
114
113
113
112
113
113
115
115
114
117
118
122
122
122
121
120
117
113
104
95
91
83
82
80
78
78
78
78
78
76
75
74
73
74
77
80
84
83
82
82
81
83
83
81
80
79
79
78
80
83
81
78
77
79
83
83
83
81
82
82
82
83
82
83
85
92
95
100
105
115
115
114
112
100
101
103
104
103
94
87
89
89
94
102
109
112
112
109
104
105
101
96
94
90
87
94
106
116
128
137
138
142
148
143
132
114
102
90
86
84
85
85
84
86
86
84
84
76
71
64
63
67
70
69
65
63
65
70
73
74
74
76
76
76
82
94
105
104
102
97
93
87
84
83
83
86
86
86
86
86
84
83
82
89
87
81
77
78
74
71
67
66
68
71
72
71
71
72
73
75
75
78
77
77
76
75
71
73
73
77
85
82
84
83
84
91
94
98
101
107
108
108
110
113
109
108
112
42
77
75
75
75
74
70
70
74
86
88
73
67
70
74
77
75
73
75
71
58
54
66
92
101
96
86
62
61
73
76
85
82
68
73
71
72
73
99
86
67
54
70
67
65
63
88
89
84
79
72
79
90
95
75
74
74
76
79
85
85
81
70
78
91
102
107
100
91
83
104
97
104
120
128
106
91
91
99
105
84
91
96
74
68
81
129
149
131
129
174
234
243
198
177
146
132
124
116
106
94
84
77
80
85
89
89
83
72
65
64
67
71
77
86
94
102
107
108
108
111
112
112
112
111
110
109
108
108
108
108
108
109
109
109
109
108
108
108
108
108
108
98
109
112
113
112
110
106
105
104
105
109
111
113
113
110
108
106
106
106
102
99
101
105
108
111
117
120
125
130
130
127
124
123
122
123
123
125
126
127
126
126
127
127
123
125
126
126
125
125
129
133
138
139
139
140
137
136
134
134
134
134
134
137
139
142
144
146
145
144
143
142
141
139
136
133
132
128
127
124
124
128
130
130
129
128
127
127
126
126
123
123
123
122
121
120
117
114
114
112
110
107
108
114
116
118
116
115
115
114
114
113
113
111
112
112
112
112
112
113
113
113
113
115
115
114
114
114
114
112
109
107
109
110
110
113
113
113
112
109
106
102
102
102
102
103
103
102
101
100
99
99
99
100
103
107
109
110
111
111
113
114
116
118
119
122
123
124
123
118
109
100
95
96
97
97
96
100
108
118
129
128
109
98
98
100
99
100
101
120
126
132
131
154
156
156
157
153
152
157
160
160
151
133
125
131
142
142
131
125
131
130
123
120
119
113
112
116
119
120
119
118
118
120
122
124
126
131
131
130
130
128
127
127
129
133
134
137
137
137
137
137
137
137
136
134
134
134
132
134
136
140
140
139
139
142
143
145
146
148
146
142
137
134
130
125
124
126
126
126
126
129
130
134
136
139
136
134
130
127
125
125
126
126
129
133
132
127
125
127
129
129
129
127
127
128
128
126
126
126
125
121
117
114
114
110
108
107
103
99
90
83
81
78
80
80
81
81
81
78
76
73
74
76
79
84
87
93
97
103
104
103
103
102
102
99
97
93
90
88
88
84
81
77
75
75
77
79
79
80
80
81
80
80
78
80
80
81
83
86
89
90
89
89
88
88
87
87
84
80
71
64
71
80
87
93
100
108
113
116
117
118
116
113
110
102
92
95
113
122
119
115
113
115
122
115
98
84
75
68
66
64
63
63
64
64
66
67
69
71
71
69
71
80
85
85
82
76
76
82
81
78
78
87
89
87
93
107
114
113
108
106
104
103
100
94
89
85
84
84
82
79
80
83
86
86
85
84
82
80
77
76
75
74
73
74
73
73
73
73
73
74
74
74
74
72
72
72
72
72
73
74
75
76
78
82
87
96
103
107
110
111
110
110
112
111
104
104
116
51
76
76
75
75
73
69
70
70
77
80
75
75
73
71
69
72
83
89
80
61
51
59
82
87
83
83
69
62
78
68
81
85
76
73
72
72
73
106
93
74
61
78
71
61
54
77
85
82
82
85
90
92
95
82
82
82
82
75
93
93
75
76
86
101
110
113
103
92
84
112
101
99
109
120
103
94
99
99
130
109
91
102
92
87
88
128
151
141
142
128
171
174
136
147
139
137
131
115
106
94
84
76
84
94
101
101
93
82
75
74
78
81
87
98
101
109
111
114
117
123
121
121
120
119
117
116
114
114
116
118
119
121
120
121
118
117
114
112
110
109
109
103
112
121
124
121
117
114
112
110
110
112
110
109
110
112
114
114
113
113
111
109
111
117
120
124
131
137
142
145
143
137
131
128
126
128
128
129
129
130
129
128
127
126
124
124
126
126
126
126
129
134
140
143
144
144
144
145
145
147
147
148
147
150
151
154
155
155
154
151
150
149
147
146
143
142
141
138
137
137
136
136
136
140
140
138
138
141
141
141
140
141
139
137
136
135
131
129
127
126
125
123
126
131
133
133
131
130
130
128
128
127
126
126
126
125
125
124
124
124
123
122
121
121
121
120
120
120
121
120
116
113
111
112
113
113
113
113
114
113
110
110
111
111
111
112
112
111
109
105
103
102
102
102
102
102
105
112
118
120
124
127
128
128
128
129
130
130
129
125
120
118
110
108
108
107
107
111
118
127
139
144
133
127
125
126
128
129
131
132
133
132
129
135
144
151
157
159
160
165
168
166
147
133
123
123
133
133
123
125
136
136
130
130
128
123
123
128
135
138
135
135
134
135
135
137
139
142
143
141
140
139
139
138
141
144
147
149
149
150
150
150
150
150
149
148
147
145
143
142
142
143
143
143
140
139
137
137
137
137
136
135
131
127
122
119
121
128
131
131
129
133
140
148
151
151
151
148
143
134
131
133
135
136
137
140
137
133
130
133
134
134
134
133
133
134
134
135
135
137
136
133
126
119
114
109
108
107
102
98
94
92
92
92
91
91
95
103
102
94
85
79
82
91
98
108
113
120
124
127
128
127
127
126
125
122
120
116
114
112
111
105
99
95
90
84
82
83
83
81
81
83
83
83
82
81
78
74
72
73
75
79
80
83
83
85
85
86
88
88
83
76
80
83
87
92
97
103
110
118
126
133
133
130
131
125
109
102
111
112
96
77
79
86
95
94
84
80
84
86
86
84
81
80
78
76
73
72
71
71
74
77
79
79
79
79
78
78
80
86
85
82
80
82
82
81
84
91
98
103
107
109
112
112
110
104
98
93
90
90
89
90
93
101
106
109
107
106
104
102
99
98
98
96
95
95
93
92
91
90
90
88
88
85
84
83
82
82
82
83
84
85
85
89
95
103
109
117
123
127
129
127
126
125
126
124
116
116
127
57
73
76
75
75
75
76
81
82
81
80
77
80
74
70
68
83
101
99
86
76
69
69
72
73
70
69
72
75
81
62
79
87
81
73
73
72
73
95
90
85
80
95
85
71
60
70
73
78
79
98
97
95
95
97
97
97
97
82
108
108
82
84
92
105
114
126
116
105
95
106
89
82
88
101
95
103
119
137
176
143
99
103
133
139
118
115
142
136
141
137
169
167
134
121
107
102
113
116
106
94
84
91
92
94
95
95
97
97
99
103
108
111
115
118
119
121
124
127
129
132
132
132
132
131
130
126
123
122
122
128
131
132
132
132
127
124
119
116
112
110
109
109
117
129
131
127
122
117
116
114
113
110
108
106
108
114
119
121
122
123
123
125
128
131
132
131
134
141
146
145
139
133
127
127
129
130
129
129
129
129
128
128
127
126
127
126
128
126
126
126
129
132
134
136
136
139
140
141
143
146
148
148
150
154
154
155
155
155
155
152
150
149
148
147
145
147
147
148
148
149
146
144
142
142
142
141
143
146
147
148
148
148
147
146
145
143
139
137
134
133
130
127
127
130
133
134
134
134
134
134
134
134
134
132
132
131
131
130
130
130
129
127
126
125
125
124
124
124
125
125
124
123
121
121
122
121
119
118
116
117
116
117
117
118
118
120
120
121
118
117
116
116
115
114
112
112
111
113
116
121
123
123
123
125
126
128
131
134
136
136
135
133
128
125
123
122
121
121
125
133
140
142
135
132
136
139
140
142
142
139
134
128
125
112
121
133
144
147
150
154
159
156
137
131
130
129
133
132
125
128
136
137
131
131
134
137
140
141
144
145
145
143
142
142
144
143
144
145
144
141
140
139
135
131
130
132
137
142
145
147
149
151
153
155
154
154
153
153
152
148
146
143
143
143
143
140
137
136
136
137
137
137
136
133
131
127
131
138
144
147
148
150
153
153
151
153
155
153
148
140
134
136
139
140
142
143
143
140
136
132
128
127
126
124
125
128
132
134
135
140
141
139
136
133
128
128
128
128
123
119
116
119
120
121
121
121
124
129
125
110
98
91
94
102
115
129
135
140
143
141
139
138
139
137
137
136
136
135
134
133
134
133
128
123
116
104
99
95
92
92
88
86
88
95
100
100
100
99
98
98
100
102
106
107
107
106
106
106
106
103
96
87
87
87
88
93
92
94
100
111
122
130
131
128
131
130
121
116
112
99
82
65
68
75
86
88
79
69
70
76
77
76
73
72
71
73
73
72
69
70
74
78
83
87
88
89
92
101
108
114
117
118
110
101
94
90
92
95
99
105
108
114
116
114
112
106
101
97
94
94
94
102
111
121
130
133
133
132
131
129
125
124
122
120
118
117
115
114
111
109
108
109
108
106
103
100
97
98
98
100
101
105
106
111
117
126
130
132
134
140
140
138
137
137
137
135
129
129
136
67
58
68
85
90
83
91
95
97
91
79
78
77
73
69
69
82
101
95
85
82
79
76
74
74
73
68
76
89
88
72
62
83
68
86
76
72
70
73
73
73
73
84
90
85
73
73
55
68
101
100
87
86
97
101
101
101
101
82
88
96
102
101
100
110
131
164
134
109
105
105
72
79
114
92
106
128
151
173
216
166
104
108
128
152
120
87
118
119
128
146
166
168
154
149
126
111
110
138
113
95
92
81
83
84
89
96
102
108
114
119
122
126
127
126
125
127
127
130
130
132
132
132
132
131
130
129
126
121
121
128
132
132
134
136
134
130
124
117
115
113
110
114
123
131
130
127
123
121
121
122
120
117
113
113
117
121
127
132
134
135
136
136
137
138
136
134
135
142
145
143
138
132
129
129
130
130
130
131
131
131
131
131
133
135
136
135
135
135
134
134
134
136
136
137
138
139
140
141
143
145
147
149
150
152
154
155
155
155
152
150
148
147
146
146
146
149
150
151
152
152
152
150
149
146
145
144
144
148
148
150
151
152
151
149
148
147
143
141
138
136
134
131
130
131
132
133
135
136
136
135
137
136
136
135
135
134
134
132
132
132
132
131
131
131
131
129
129
129
129
130
130
129
127
129
129
128
126
125
124
123
122
123
123
125
125
126
126
127
127
128
126
128
126
124
122
122
123
121
121
125
126
124
123
125
126
129
133
135
137
140
137
135
134
133
131
132
130
128
129
132
134
134
132
133
135
139
140
140
139
140
139
138
137
125
128
135
139
140
139
139
138
138
137
136
135
131
131
131
129
130
133
134
132
134
137
143
146
147
148
148
147
144
144
148
151
149
149
149
148
141
136
131
122
116
117
122
132
141
145
147
148
152
154
157
156
156
157
157
156
154
149
143
141
143
143
142
142
143
144
144
144
144
143
141
140
139
140
142
146
150
152
153
152
149
149
153
154
150
145
142
140
140
142
142
143
144
146
144
142
136
130
127
123
119
122
126
130
131
133
138
139
139
139
139
137
138
137
135
131
129
128
130
132
135
136
139
141
140
135
124
115
108
106
107
117
124
129
134
137
138
138
139
140
140
142
143
143
142
142
143
144
144
142
139
133
127
123
120
117
110
105
100
101
109
113
114
115
116
116
119
121
123
126
129
129
129
129
127
129
126
115
104
103
101
100
101
101
101
104
112
118
126
126
125
127
128
125
123
118
109
100
90
80
83
85
85
81
80
79
81
81
81
79
75
75
76
76
73
71
71
73
75
78
82
84
84
88
97
106
111
115
115
109
100
91
93
98
103
114
116
116
120
122
121
118
116
113
110
108
105
108
115
124
133
141
146
147
147
147
146
144
141
137
132
131
130
129
128
127
126
126
125
125
125
123
119
117
116
116
114
118
122
127
133
136
139
141
143
142
144
144
144
143
143
144
143
142
141
142
78
69
62
78
84
76
77
81
81
75
70
69
69
69
68
68
75
89
87
81
81
81
80
80
80
80
82
88
90
89
83
70
75
73
74
70
68
61
76
76
76
73
68
72
79
73
87
76
84
105
107
94
93
104
97
97
96
96
78
81
84
87
94
93
103
121
137
122
118
128
136
103
98
129
92
90
104
118
148
175
126
83
95
82
99
97
91
99
100
131
130
164
172
154
160
145
137
144
172
138
106
96
100
102
104
106
106
108
112
115
119
123
126
126
123
119
118
117
118
119
121
121
121
121
122
121
121
119
117
115
118
120
120
122
127
125
121
117
117
118
118
112
115
122
127
123
123
124
125
127
128
130
131
128
128
133
137
137
138
139
140
140
140
140
140
137
136
138
145
148
143
137
133
130
129
130
130
130
131
132
133
133
137
141
144
148
148
148
148
148
147
147
147
147
147
147
147
147
145
147
147
148
149
150
151
152
154
154
152
149
144
141
139
139
139
141
142
143
144
145
146
147
148
149
147
144
144
141
139
138
139
140
143
143
143
143
142
141
140
139
136
135
134
133
132
132
132
132
131
131
131
131
131
131
132
132
134
134
132
132
135
136
138
138
138
137
135
133
131
129
129
128
128
128
127
127
128
128
130
130
130
130
130
130
128
128
130
130
131
131
131
131
133
130
129
127
128
128
128
128
130
130
129
130
129
129
132
136
137
136
134
132
131
131
129
129
129
128
128
126
127
127
125
126
127
128
130
132
132
132
131
132
131
128
127
128
136
139
127
126
125
125
125
127
129
130
131
133
134
134
134
132
135
133
134
138
140
140
141
142
144
143
142
144
149
154
156
158
158
156
149
136
122
109
105
114
130
141
146
146
147
148
150
152
154
154
154
154
155
154
151
148
145
143
143
143
144
147
148
150
152
151
150
149
148
147
146
145
144
144
142
142
142
142
144
148
153
154
149
145
145
144
143
143
143
144
144
145
145
146
144
142
138
132
130
131
133
135
133
132
129
131
134
135
138
137
134
130
126
124
124
125
128
129
131
132
135
135
136
137
139
139
130
120
113
109
110
110
110
116
120
124
126
128
132
135
137
139
141
142
142
142
141
138
137
139
142
142
137
133
131
128
121
118
118
118
119
119
121
122
127
129
134
137
142
143
145
147
148
150
150
141
130
129
126
123
121
120
120
121
122
125
125
126
128
129
130
132
135
135
135
134
137
129
116
110
110
114
118
115
107
104
104
103
98
93
88
84
78
76
78
78
75
74
72
71
68
68
72
76
83
85
85
82
78
75
84
101
117
123
125
123
126
127
128
128
128
125
124
123
123
124
129
137
143
147
151
152
152
155
156
155
150
146
143
142
141
139
138
138
137
138
138
140
138
138
136
135
134
133
132
133
136
139
143
144
144
143
143
141
141
141
142
143
144
144
146
146
144
143
78
69
69
84
91
82
74
76
74
68
68
69
69
69
69
69
71
82
83
81
82
82
83
84
86
86
86
88
77
80
101
82
65
81
80
80
69
55
83
83
83
83
67
65
72
79
114
110
111
116
125
112
110
120
113
114
114
111
106
103
100
97
99
99
108
116
101
91
96
109
131
112
108
114
100
96
91
96
124
140
111
108
109
78
90
95
95
103
104
135
177
206
193
146
144
137
144
161
181
148
117
106
116
118
119
121
120
117
115
113
116
121
124
128
127
122
115
111
111
115
116
117
119
120
121
121
120
121
124
126
126
126
126
128
128
126
121
118
122
124
124
121
119
126
125
122
125
130
130
131
137
142
145
146
145
144
140
137
135
135
135
135
135
135
135
133
132
134
141
144
142
137
134
131
132
131
131
131
129
129
129
130
136
140
144
148
152
153
153
152
152
151
151
148
147
146
147
147
148
148
150
150
151
151
152
152
153
153
152
149
144
141
140
140
140
139
141
140
141
142
143
143
144
145
147
147
144
138
131
129
129
133
135
136
136
137
138
139
138
138
138
138
137
137
137
137
137
136
135
133
133
132
132
131
132
132
133
133
133
133
134
136
138
138
138
137
134
133
130
127
125
124
123
123
123
123
124
124
124
124
125
125
124
124
125
125
125
125
127
128
129
129
130
129
128
127
128
128
129
129
131
132
135
135
137
137
139
139
138
136
134
132
131
132
131
131
130
129
128
127
127
128
127
126
129
129
129
129
129
129
128
129
128
125
124
125
132
132
128
124
125
125
126
127
129
130
131
131
131
133
131
132
132
132
134
134
134
133
132
133
134
135
139
143
149
154
156
157
158
156
150
137
122
111
113
125
141
149
149
146
148
147
147
147
149
147
147
146
146
145
144
144
146
147
147
147
147
148
150
151
152
151
150
149
148
147
146
145
144
144
142
142
142
142
144
148
153
155
152
150
150
149
147
146
146
146
146
146
147
147
148
147
149
147
147
146
144
141
139
135
133
130
126
128
130
128
124
119
118
118
118
118
120
121
122
123
124
123
122
127
135
141
141
134
126
112
105
106
108
113
115
117
120
121
124
125
129
132
134
135
137
137
138
140
141
142
146
147
142
140
140
138
134
129
125
124
126
128
131
133
137
140
142
143
144
143
140
139
138
139
140
138
134
138
138
137
137
137
137
135
133
131
130
130
132
133
136
137
142
144
147
148
149
148
145
144
143
144
145
141
133
129
129
128
122
117
112
108
102
99
98
98
97
97
97
97
96
96
96
100
106
108
107
107
109
109
117
125
132
132
131
131
134
135
136
136
137
137
137
137
137
139
142
147
149
149
149
149
150
154
155
156
153
150
149
150
149
148
146
146
145
146
146
147
147
149
147
147
147
147
146
144
144
140
141
141
139
139
138
136
136
137
140
142
145
144
146
146
144
143
66
58
84
99
106
99
82
82
78
77
80
80
79
77
72
74
75
79
80
77
76
77
81
84
87
88
77
70
60
66
112
89
56
86
100
93
75
63
87
87
87
87
84
79
77
84
133
133
131
123
136
124
122
132
137
137
137
140
143
141
134
128
116
115
121
117
112
97
93
102
135
128
126
127
107
110
104
94
115
132
130
163
142
122
129
117
98
129
129
138
160
203
197
146
111
110
126
149
163
137
119
117
120
122
123
126
125
124
119
117
118
122
124
130
136
133
124
119
120
123
125
126
128
129
131
131
131
133
138
143
145
147
147
145
142
137
131
128
128
130
130
130
132
138
136
132
133
136
135
136
141
146
151
153
149
144
138
135
132
131
130
130
130
130
130
129
130
132
138
141
140
138
134
132
132
131
131
129
128
127
128
128
130
132
137
141
144
146
146
146
146
146
145
143
141
139
141
144
147
150
152
152
153
153
151
151
153
153
154
153
151
150
149
148
148
146
145
145
146
146
144
143
141
140
141
142
144
141
131
129
129
133
133
134
134
136
137
138
137
137
138
137
138
138
138
140
141
142
140
140
141
140
140
138
135
134
134
134
134
134
133
134
133
132
133
132
131
130
128
126
124
121
118
117
118
119
118
116
115
115
115
115
114
115
117
118
118
119
121
120
123
123
124
123
124
124
125
126
127
129
131
133
136
137
139
139
140
140
140
141
142
140
139
138
140
138
138
137
137
137
138
136
136
135
135
133
133
130
130
129
129
129
129
125
123
124
132
134
136
136
136
136
135
132
132
132
130
127
124
121
123
126
131
133
132
130
130
127
126
126
127
130
135
140
145
147
148
146
148
145
140
135
131
127
132
138
142
146
144
144
144
142
141
141
143
142
141
140
142
140
141
144
149
150
146
144
146
148
150
151
154
153
153
150
149
148
147
147
147
148
149
149
149
149
148
150
154
155
153
152
153
151
151
150
148
148
147
147
147
147
151
152
154
156
157
155
150
146
144
142
140
135
130
126
125
123
118
116
115
115
116
116
117
117
118
118
118
117
118
117
120
123
128
131
129
120
111
110
113
117
118
118
118
117
117
116
118
119
123
127
133
135
141
144
147
148
147
145
143
141
144
143
139
137
136
137
140
143
148
150
154
155
155
154
152
151
150
149
149
150
152
152
152
156
153
150
150
150
148
142
137
134
130
130
131
131
133
133
135
135
135
139
143
139
138
137
137
137
138
138
139
142
143
142
138
135
132
131
128
123
122
120
117
116
117
116
114
113
115
120
126
128
129
132
135
140
145
149
150
150
149
149
150
150
149
148
147
147
147
145
146
146
147
147
147
147
147
147
147
149
152
154
151
150
152
152
152
151
151
150
151
151
152
154
155
155
154
154
154
155
154
150
146
142
139
138
136
135
134
133
133
134
137
140
144
146
146
144
142
140
105
104
122
127
130
131
116
112
105
100
90
88
88
86
83
83
83
84
83
79
75
74
77
78
78
75
70
68
68
68
92
82
68
59
82
96
96
91
84
89
96
104
115
115
114
114
138
140
143
142
141
141
141
141
143
149
155
157
155
154
154
152
151
151
151
151
139
135
128
124
125
127
134
138
134
122
119
126
123
138
145
138
141
153
153
141
140
156
164
160
145
139
134
129
118
123
132
134
132
128
127
127
123
123
124
127
128
128
125
124
125
127
128
133
140
138
131
127
129
131
132
134
136
137
138
140
140
141
144
147
149
150
151
151
149
148
143
140
140
141
141
142
147
150
149
146
145
144
143
144
146
147
149
149
146
140
137
133
130
127
124
122
121
122
123
123
125
129
131
135
135
134
133
133
132
132
131
129
128
127
128
129
129
131
133
134
137
138
139
140
141
141
141
139
138
136
137
139
142
144
146
146
146
146
146
146
146
148
150
151
151
151
151
150
150
149
148
148
146
146
144
143
142
141
138
138
140
138
133
130
131
134
135
136
135
136
138
138
138
138
138
136
136
133
133
136
141
144
145
145
144
144
143
142
140
138
137
137
135
135
135
135
135
134
133
132
132
132
132
131
130
126
121
119
119
120
120
119
117
116
116
116
116
116
117
117
117
117
118
119
120
121
122
121
124
126
129
131
132
132
134
135
137
138
141
141
141
141
142
143
145
146
147
147
145
145
145
143
143
142
142
143
143
142
140
137
137
136
137
137
137
137
137
137
137
137
135
137
138
138
138
137
137
136
136
137
135
129
120
114
113
123
136
142
142
140
140
138
137
136
135
138
139
142
143
143
141
141
143
142
140
139
140
141
144
144
143
142
142
140
139
139
136
136
137
137
138
139
140
141
142
143
146
147
146
144
147
149
151
153
154
154
154
151
150
148
148
147
148
148
149
150
150
149
148
148
148
148
147
146
144
143
143
142
142
142
140
140
140
143
147
150
155
157
158
158
154
152
150
146
145
143
137
134
131
128
125
123
122
122
124
124
124
124
123
123
124
123
122
122
124
125
128
131
132
127
123
122
123
124
126
125
125
124
123
122
122
122
126
130
135
137
140
143
147
148
148
149
149
149
148
148
147
148
148
148
151
153
155
158
160
160
160
158
154
151
148
149
150
150
152
153
154
155
154
151
151
149
144
137
133
128
124
124
123
124
127
130
132
131
132
134
136
138
135
134
134
135
135
137
141
143
144
143
143
143
143
142
143
142
140
139
139
138
136
134
133
132
135
139
143
146
147
148
151
152
156
157
157
158
158
158
157
155
153
151
149
149
147
146
146
146
144
144
143
143
143
143
143
145
150
150
151
149
151
151
153
154
154
156
157
158
158
158
159
159
158
157
158
157
156
155
150
148
145
142
141
139
136
135
136
136
139
140
143
143
141
137
134
132
