P2
348 195
255
255 255 255 255 255 255 255 255 255 255 255 255 255 255 255 255 255 255 255 255 255 255 255 255 255 255 255 255 255 255 255 255 255 255 255 255 255 255 255 255 255 255 255 255 255 255 255 255 255 255 255 255 255 255 255 255 255 255 255 255 255 255 255 255 255 255 255 255 255 255 255 255 255 255 255 255 255 255 255 255 255 255 255 255 255 255 255 255 255 255 255 255 255 255 255 255 255 255 255 255 255 255 255 255 255 255 255 255 255 255 255 255 255 255 255 255 255 255 255 255 255 255 255 255 255 255 255 255 255 255 255 255 255 255 255 255 255 255 255 255 255 255 255 255 255 255 255 255 255 255 255 255 255 255 255 255 255 255 255 255 255 255 255 255 255 255 255 255 255 255 255 255 255 255 255 255 255 255 255 255 255 255 255 255 255 255 255 255 255 255 255 255 255 255 255 255 255 255 255 255 255 255 255 255 255 255 255 255 255 255 255 255 255 255 255 255 255 255 255 255 255 255 255 255 255 255 255 255 255 255 255 255 255 255 255 255 255 255 255 255 255 255 255 255 255 255 255 255 255 255 255 255 255 255 255 255 255 255 255 255 255 255 255 255 255 255 255 255 255 255 255 255 255 255 255 255 255 255 255 255 255 255 80 80 80 80 80 80 80 80 80 80 80 80 80 80 80 80 80 80 80 80 80 80 80 80 80 80 80 80 80 80 80 80 80 80 80 80 80 80 80 80 80 80 80 80 80 80 80 80 80 80 80 80 80 80 80 80 80 80 80 80 80 80 80 80 80 80 
255 255 255 255 255 255 255 255 255 255 255 255 255 255 255 255 255 255 255 255 255 255 255 255 255 255 255 255 255 255 255 255 255 255 255 255 255 255 255 255 255 255 255 255 255 255 255 255 255 255 255 255 255 255 255 255 255 255 255 255 255 255 255 255 255 255 255 255 255 255 255 255 255 255 255 255 255 255 255 255 255 255 255 255 255 255 255 255 255 255 255 255 255 255 255 255 255 255 255 255 255 255 255 255 255 255 255 255 255 255 255 255 255 255 255 255 255 255 255 255 255 255 255 255 255 255 255 255 255 255 255 255 255 255 255 255 255 255 255 255 255 255 255 255 255 255 255 255 255 255 255 255 255 255 255 255 255 255 255 255 255 255 255 255 255 255 255 255 255 255 255 255 255 255 255 255 255 255 255 255 255 255 255 255 255 255 255 255 255 255 255 255 255 255 255 255 255 255 255 255 255 255 255 255 255 255 255 255 255 255 255 255 255 255 255 255 255 255 255 255 255 255 255 255 255 255 255 255 255 255 255 255 255 255 255 255 255 255 255 255 255 255 255 255 255 255 255 255 255 255 255 255 255 255 255 255 255 255 255 255 255 255 255 255 255 255 255 255 255 255 255 255 255 255 255 255 255 255 255 255 255 255 80 80 80 80 80 80 80 80 80 80 80 80 80 80 80 80 80 80 80 80 80 80 80 80 80 80 80 80 80 80 80 80 80 80 80 80 80 80 80 80 80 80 80 80 80 80 80 80 80 80 80 80 80 80 80 80 80 80 80 80 80 80 80 80 80 80 
255 255 255 255 255 255 255 255 255 255 255 255 255 255 255 255 255 255 255 255 255 255 255 255 255 255 255 255 255 255 255 255 255 255 255 255 255 255 255 255 255 255 255 255 255 255 255 255 255 255 255 255 255 255 255 255 255 255 255 255 255 255 255 255 255 255 255 255 255 255 255 255 255 255 255 255 255 255 255 255 255 255 255 255 255 255 255 255 255 255 255 255 255 255 255 255 255 255 255 255 255 255 255 255 255 255 255 255 255 255 255 255 255 255 255 255 255 255 255 255 255 255 255 255 255 255 255 255 255 255 255 255 255 255 255 255 255 255 255 255 255 255 255 255 255 255 255 255 255 255 255 255 255 255 255 255 255 255 255 255 255 255 255 255 255 255 255 255 255 255 255 255 255 255 255 255 255 255 255 255 255 255 255 255 255 255 255 255 255 255 255 255 255 255 255 255 255 255 255 255 255 255 255 255 255 255 255 255 255 255 255 255 255 255 255 255 255 255 255 255 255 255 255 255 255 255 255 255 255 255 255 255 255 255 255 255 255 255 255 255 255 255 255 255 255 255 255 255 255 255 255 255 255 255 255 255 255 255 255 255 255 255 255 255 255 255 255 255 255 255 255 255 255 255 255 255 255 255 255 255 255 255 80 80 80 80 80 80 80 80 80 80 80 80 80 80 80 80 80 80 80 80 80 80 80 80 80 80 80 80 80 80 80 80 80 80 80 80 80 80 80 80 80 80 80 80 80 80 80 80 80 80 80 80 80 80 80 80 80 80 80 80 80 80 80 80 80 80 
255 255 255 255 255 255 255 255 255 255 255 255 255 255 255 255 255 255 255 255 255 255 255 255 255 255 255 255 255 255 255 255 255 255 255 255 255 255 255 255 255 255 255 255 255 255 255 255 255 255 255 255 255 255 255 255 255 255 255 255 255 255 255 255 255 255 255 255 255 255 255 255 255 255 255 255 255 255 255 255 255 255 255 255 255 255 255 255 255 255 255 255 255 255 255 255 255 255 255 255 255 255 255 255 255 255 255 255 255 255 255 255 255 255 255 255 255 255 255 255 255 255 255 255 255 255 255 255 255 255 255 255 255 255 255 255 255 255 255 255 255 255 255 255 255 255 255 255 255 255 255 255 255 255 255 255 255 255 255 255 255 255 255 255 255 255 255 255 255 255 255 255 255 255 255 255 255 255 255 255 255 255 255 255 255 255 255 255 255 255 255 255 255 255 255 255 255 255 255 255 255 255 255 255 255 255 255 255 255 255 255 255 255 255 255 255 255 255 255 255 255 255 255 255 255 255 255 255 255 255 255 255 255 255 255 255 255 255 255 255 255 255 255 255 255 255 255 255 255 255 255 255 255 255 255 255 255 255 255 255 255 255 255 255 255 255 255 255 255 255 255 255 255 255 255 255 255 255 255 255 255 255 80 80 80 80 80 80 80 80 80 80 80 80 80 80 80 80 80 80 80 80 80 80 80 80 80 80 80 80 80 80 80 80 80 80 80 80 80 80 80 80 80 80 80 80 80 80 80 80 80 80 80 80 80 80 80 80 80 80 80 80 80 80 80 80 80 80 
255 255 255 255 255 255 255 255 255 255 255 255 255 255 255 255 255 255 255 255 255 255 255 255 255 255 255 255 255 255 255 255 255 255 255 255 255 255 255 255 255 255 255 255 255 255 255 255 255 255 255 255 255 255 255 255 255 255 255 255 255 255 255 255 255 255 255 255 255 255 255 255 255 255 255 255 255 255 255 255 255 255 255 255 255 255 255 255 255 255 255 255 255 255 255 255 255 255 255 255 255 255 255 255 255 255 255 255 255 255 255 255 255 255 255 255 255 255 255 255 255 255 255 255 255 255 255 255 255 255 255 255 255 255 255 255 255 255 255 255 255 255 255 255 255 255 255 255 255 255 255 255 255 255 255 255 255 255 255 255 255 255 255 255 255 255 255 255 255 255 255 255 255 255 255 255 255 255 255 255 255 255 255 255 255 255 255 255 255 255 255 255 255 255 255 255 255 255 255 255 255 255 255 255 255 255 255 255 255 255 255 255 255 255 255 255 255 255 255 255 255 255 255 255 255 255 255 255 255 255 255 255 255 255 255 255 255 255 255 255 255 255 255 255 255 255 255 255 255 255 255 255 255 255 255 255 255 255 255 255 255 255 255 255 255 255 255 255 255 255 255 255 255 255 255 255 255 255 255 255 255 255 80 80 80 80 80 80 80 80 80 80 80 80 80 80 80 80 80 80 80 80 80 80 80 80 80 80 80 80 80 80 80 80 80 80 80 80 80 80 80 80 80 80 80 80 80 80 80 80 80 80 80 80 80 80 80 80 80 80 80 80 80 80 80 80 80 80 
255 255 255 255 255 255 255 255 255 255 255 255 255 255 255 255 255 255 255 255 255 255 255 255 255 255 255 255 255 255 255 255 255 255 255 255 255 255 255 255 255 255 255 255 255 255 255 255 255 255 255 255 255 255 255 255 255 255 255 255 255 255 255 255 255 255 255 255 255 255 255 255 255 255 255 255 255 255 255 255 255 255 255 255 255 255 255 255 255 255 255 255 255 255 255 255 255 255 255 255 255 255 255 255 255 255 255 255 255 255 255 255 255 255 255 255 255 255 255 255 255 255 255 255 255 255 255 255 255 255 255 255 255 255 255 255 255 255 255 255 255 255 255 255 255 255 255 255 255 255 255 255 255 255 255 255 255 255 255 255 255 255 255 255 255 255 255 255 255 255 255 255 255 255 255 255 255 255 255 255 255 255 255 255 255 255 255 255 255 255 255 255 255 255 255 255 255 255 255 255 255 255 255 255 255 255 255 255 255 255 255 255 255 255 255 255 255 255 255 255 255 255 255 255 255 255 255 255 255 255 255 255 255 255 255 255 255 255 255 255 255 255 255 255 255 255 255 255 255 255 255 255 255 255 255 255 255 255 255 255 255 255 255 255 255 255 255 255 255 255 255 255 255 255 255 255 255 255 255 255 255 255 80 80 80 80 80 80 80 80 80 80 80 80 80 80 80 80 80 80 80 80 80 80 80 80 80 80 80 80 80 80 80 80 80 80 80 80 80 80 80 80 80 80 80 80 80 80 80 80 80 80 80 80 80 80 80 80 80 80 80 80 80 80 80 80 80 80 
255 255 255 255 255 255 255 255 255 255 255 255 255 255 255 255 255 255 255 255 255 255 255 255 255 255 255 255 255 255 255 255 255 255 255 255 255 255 255 255 255 255 255 255 255 255 255 255 255 255 255 255 255 255 255 255 255 255 255 255 255 255 255 255 255 255 255 255 255 255 255 255 255 255 255 255 255 255 255 255 255 255 255 255 255 255 255 255 255 255 255 255 255 255 255 255 255 255 255 255 255 255 255 255 255 255 255 255 255 255 255 255 255 255 255 255 255 255 255 255 255 255 255 255 255 255 255 255 255 255 255 255 255 255 255 255 255 255 255 255 255 255 255 255 255 255 255 255 255 255 255 255 255 255 255 255 255 255 255 255 255 255 255 255 255 255 255 255 255 255 255 255 255 255 255 255 255 255 255 255 255 255 255 255 255 255 255 255 255 255 255 255 255 255 255 255 255 255 255 255 255 255 255 255 255 255 255 255 255 255 255 255 255 255 255 255 255 255 255 255 255 255 255 255 255 255 255 255 255 255 255 255 255 255 255 255 255 255 255 255 255 255 255 255 255 255 255 255 255 255 255 255 255 255 255 255 255 255 255 255 255 255 255 255 255 255 255 255 255 255 255 255 255 255 255 255 255 255 255 255 255 255 80 80 80 80 80 80 80 80 80 80 80 80 80 80 80 80 80 80 80 80 80 80 80 80 80 80 80 80 80 80 80 80 80 80 80 80 80 80 80 80 80 80 80 80 80 80 80 80 80 80 80 80 80 80 80 80 80 80 80 80 80 80 80 80 80 80 
255 255 255 255 255 255 255 255 255 255 255 255 255 255 255 255 255 255 255 255 255 255 255 255 255 255 255 255 255 255 255 255 255 255 255 255 255 255 255 255 255 255 255 255 255 255 255 255 255 255 255 255 255 255 255 255 255 255 255 255 255 255 255 255 255 255 255 255 255 255 255 255 255 255 255 255 255 255 255 255 255 255 255 255 255 255 255 255 255 255 255 255 255 255 255 255 255 255 255 255 255 255 255 255 255 255 255 255 255 255 255 255 255 255 255 255 255 255 255 255 255 255 255 255 255 255 255 255 255 255 255 255 255 255 255 255 255 255 255 255 255 255 255 255 255 255 255 255 255 255 255 255 255 255 255 255 255 255 255 255 255 255 255 255 255 255 255 255 255 255 255 255 255 255 255 255 255 255 255 255 255 255 255 255 255 255 255 255 255 255 255 255 255 255 255 255 255 255 255 255 255 255 255 255 255 255 255 255 255 255 255 255 255 255 255 255 255 255 255 255 255 255 255 255 255 255 255 255 255 255 255 255 255 255 255 255 255 255 255 255 255 255 255 255 255 255 255 255 255 255 255 255 255 255 255 255 255 255 255 255 255 255 255 255 255 255 255 255 255 255 255 255 255 255 255 255 255 255 255 255 255 255 80 80 80 80 80 80 80 80 80 80 80 80 80 80 80 80 80 80 80 80 80 80 80 80 80 80 80 80 80 80 80 80 80 80 80 80 80 80 80 80 80 80 80 80 80 80 80 80 80 80 80 80 80 80 80 80 80 80 80 80 80 80 80 80 80 80 
255 255 255 255 255 255 255 255 255 255 255 255 255 255 255 255 255 255 255 255 255 255 255 255 255 255 255 255 255 255 255 255 255 255 255 255 255 255 255 255 255 255 255 255 255 255 255 255 255 255 255 255 255 255 255 255 255 255 255 255 255 255 255 255 255 255 255 255 255 255 255 255 255 255 255 255 255 255 255 255 255 255 255 255 255 255 255 255 255 255 255 255 255 255 255 255 255 255 255 255 255 255 255 255 255 255 255 255 255 255 255 255 255 255 255 255 255 255 255 255 255 255 255 255 255 255 255 255 255 255 255 255 255 255 255 255 255 255 255 255 255 255 255 255 255 255 255 255 255 255 255 255 255 255 255 255 255 255 255 255 255 255 255 255 255 255 255 255 255 255 255 255 255 255 255 255 255 255 255 255 255 255 255 255 255 255 255 255 255 255 255 255 255 255 255 255 255 255 255 255 255 255 255 255 255 255 255 255 255 255 255 255 255 255 255 255 255 255 255 255 255 255 255 255 255 255 255 255 255 255 255 255 255 255 255 255 255 255 255 255 255 255 255 255 255 255 255 255 255 255 255 255 255 255 255 255 255 255 255 255 255 255 255 255 255 255 255 255 255 255 255 255 255 255 255 255 255 255 255 255 255 255 80 80 80 80 80 80 80 80 80 80 80 80 80 80 80 80 80 80 80 80 80 80 80 80 80 80 80 80 80 80 80 80 80 80 80 80 80 80 80 80 80 80 80 80 80 80 80 80 80 80 80 80 80 80 80 80 80 80 80 80 80 80 80 80 80 80 
255 255 255 255 255 255 255 255 255 255 255 255 255 255 255 255 255 255 255 255 255 255 255 255 255 255 255 255 255 255 255 255 255 255 255 255 255 255 255 255 255 255 255 255 255 255 255 255 255 255 255 255 255 255 255 255 255 255 255 255 255 255 255 255 255 255 255 255 255 255 255 255 255 255 255 255 255 255 255 255 255 255 255 255 255 255 255 255 255 255 255 255 255 255 255 255 255 255 255 255 255 255 255 255 255 255 255 255 255 255 255 255 255 255 255 255 255 255 255 255 255 255 255 255 255 255 255 255 255 255 255 255 255 255 255 255 255 255 255 255 255 255 255 255 255 255 255 255 255 255 255 255 255 255 255 255 255 255 255 255 255 255 255 255 255 255 255 255 255 255 255 255 255 255 255 255 255 255 255 255 255 255 255 255 255 255 255 255 255 255 255 255 255 255 255 255 255 255 255 255 255 255 255 255 255 255 255 255 255 255 255 255 255 255 255 255 255 255 255 255 255 255 255 255 255 255 255 255 255 255 255 255 255 255 255 255 255 255 255 255 255 255 255 255 255 255 255 255 255 255 255 255 255 255 255 255 255 255 255 255 255 255 255 255 255 255 255 255 255 255 255 255 255 255 255 255 255 255 255 255 255 255 80 80 80 80 80 80 80 80 80 80 80 80 80 80 80 80 80 80 80 80 80 80 80 80 80 80 80 80 80 80 80 80 80 80 80 80 80 80 80 80 80 80 80 80 80 80 80 80 80 80 80 80 80 80 80 80 80 80 80 80 80 80 80 80 80 80 
255 255 255 255 255 255 255 255 255 255 255 255 255 255 255 255 255 255 255 255 255 255 255 255 255 255 255 255 255 255 255 255 255 255 255 255 255 255 255 255 255 255 255 255 255 255 255 255 255 255 255 255 255 255 255 255 255 255 255 255 255 255 255 255 255 255 255 255 255 255 255 255 255 255 255 255 255 255 255 255 255 255 255 255 255 255 255 255 255 255 255 255 255 255 255 255 255 255 255 255 255 255 255 255 255 255 255 255 255 255 255 255 255 255 255 255 255 255 255 255 255 255 255 255 255 255 255 255 255 255 255 255 255 255 255 255 255 255 255 255 255 255 255 255 255 255 255 255 255 255 255 255 255 255 255 255 255 255 255 255 255 255 255 255 255 255 255 255 255 255 255 255 255 255 255 255 255 255 255 255 255 255 255 255 255 255 255 255 255 255 255 255 255 255 255 255 255 255 255 255 255 255 255 255 255 255 255 255 255 255 255 255 255 255 255 255 255 255 255 255 255 255 255 255 255 255 255 255 255 255 255 255 255 255 255 255 255 255 255 255 255 255 255 255 255 255 255 255 255 255 255 255 255 255 255 255 255 255 255 255 255 255 255 255 255 255 255 255 255 255 255 255 255 255 255 255 255 255 255 255 255 255 80 80 80 80 80 80 80 80 80 80 80 80 80 80 80 80 80 80 80 80 80 80 80 80 80 80 80 80 80 80 80 80 80 80 80 80 80 80 80 80 80 80 80 80 80 80 80 80 80 80 80 80 80 80 80 80 80 80 80 80 80 80 80 80 80 80 
255 255 255 255 255 255 255 255 255 255 255 255 255 255 255 255 255 255 255 255 255 255 255 255 255 255 255 255 255 255 255 255 255 255 255 255 255 255 255 255 255 255 255 255 255 255 255 255 255 255 255 255 255 255 255 255 255 255 255 255 255 255 255 255 255 255 255 255 255 255 255 255 255 255 255 255 255 255 255 255 255 255 255 255 255 255 255 255 255 255 255 255 255 255 255 255 255 255 255 255 255 255 255 255 255 255 255 255 255 255 255 255 255 255 255 255 255 255 255 255 255 255 255 255 255 255 255 255 255 255 255 255 255 255 255 255 255 255 255 255 255 255 255 255 255 255 255 255 255 255 255 255 255 255 255 255 255 255 255 255 255 255 255 255 255 255 255 255 255 255 255 255 255 255 255 255 255 255 255 255 255 255 255 255 255 255 255 255 255 255 255 255 255 255 255 255 255 255 255 255 255 255 255 255 255 255 255 255 255 255 255 255 255 255 255 255 255 255 255 255 255 255 255 255 255 255 255 255 255 255 255 255 255 255 255 255 255 255 255 255 255 255 255 255 255 255 255 255 255 255 255 255 255 255 255 255 255 255 255 255 255 255 255 255 255 255 255 255 255 255 255 255 255 255 255 255 255 255 255 255 255 255 80 80 80 80 80 80 80 80 80 80 80 80 80 80 80 80 80 80 80 80 80 80 80 80 80 80 80 80 80 80 80 80 80 80 80 80 80 80 80 80 80 80 80 80 80 80 80 80 80 80 80 80 80 80 80 80 80 80 80 80 80 80 80 80 80 80 
255 255 255 255 255 255 255 255 255 255 255 255 255 255 255 255 255 255 255 255 255 255 255 255 255 255 255 255 255 255 255 255 255 255 255 255 255 255 255 255 255 255 255 255 255 255 255 255 255 255 255 255 255 255 255 255 255 255 255 255 255 255 255 255 255 255 255 255 255 255 255 255 255 255 255 255 255 255 255 255 255 255 255 255 255 255 255 255 255 255 255 255 255 255 255 255 255 255 255 255 255 255 255 255 255 255 255 255 255 255 255 255 255 255 255 255 255 255 255 255 255 255 255 255 255 255 255 255 255 255 255 255 255 255 255 255 255 255 255 255 255 255 255 255 255 255 255 255 255 255 255 255 255 255 255 255 255 255 255 255 255 255 255 255 255 255 255 255 255 255 255 255 255 255 255 255 255 255 255 255 255 255 255 255 255 255 255 255 255 255 255 255 255 255 255 255 255 255 255 255 255 255 255 255 255 255 255 255 255 255 255 255 255 255 255 255 255 255 255 255 255 255 255 255 255 255 255 255 255 255 255 255 255 255 255 255 255 255 255 255 255 255 255 255 255 255 255 255 255 255 255 255 255 255 255 255 255 255 255 255 255 255 255 255 255 255 255 255 255 255 255 255 255 255 255 255 255 255 255 255 255 255 80 80 80 80 80 80 80 80 80 80 80 80 80 80 80 80 80 80 80 80 80 80 80 80 80 80 80 80 80 80 80 80 80 80 80 80 80 80 80 80 80 80 80 80 80 80 80 80 80 80 80 80 80 80 80 80 80 80 80 80 80 80 80 80 80 80 
255 255 255 255 255 255 255 255 255 255 255 255 255 255 255 255 255 255 255 255 255 255 255 255 255 255 255 255 255 255 255 255 255 255 255 255 255 255 255 255 255 255 255 255 255 255 255 255 255 255 255 255 255 255 255 255 255 255 255 255 255 255 255 255 255 255 255 255 255 255 255 255 255 255 255 255 255 255 255 255 255 255 255 255 255 255 255 255 255 255 255 255 255 255 255 255 255 255 255 255 255 255 255 255 255 255 255 255 255 255 255 255 255 255 255 255 255 255 255 255 255 255 255 255 255 255 255 255 255 255 255 255 255 255 255 255 255 255 255 255 255 255 255 255 255 255 255 255 255 255 255 255 255 255 255 255 255 255 255 255 255 255 255 255 255 255 255 255 255 255 255 255 255 255 255 255 255 255 255 255 255 255 255 255 255 255 255 255 255 255 255 255 255 255 255 255 255 255 255 255 255 255 255 255 255 255 255 255 255 255 255 255 255 255 255 255 255 255 255 255 255 255 255 255 255 255 255 255 255 255 255 255 255 255 255 255 255 255 255 255 255 255 255 255 255 255 255 255 255 255 255 255 255 255 255 255 255 255 255 255 255 255 255 255 255 255 255 255 255 255 255 255 255 255 255 255 255 255 255 255 255 255 80 80 80 80 80 80 80 80 80 80 80 80 80 80 80 80 80 80 80 80 80 80 80 80 80 80 80 80 80 80 80 80 80 80 80 80 80 80 80 80 80 80 80 80 80 80 80 80 80 80 80 80 80 80 80 80 80 80 80 80 80 80 80 80 80 80 
255 255 255 255 255 255 255 255 255 255 255 255 255 255 255 255 255 255 255 255 255 255 255 255 255 255 255 255 255 255 255 255 255 255 255 255 255 255 255 255 255 255 255 255 255 255 255 255 255 255 255 255 255 255 255 255 255 255 255 255 255 255 255 255 255 255 255 255 255 255 255 255 255 255 255 255 255 255 255 255 255 255 255 255 255 255 255 255 255 255 255 255 255 255 255 255 255 255 255 255 255 255 255 255 255 255 255 255 255 255 255 255 255 255 255 255 255 255 255 255 255 255 255 255 255 255 255 255 255 255 255 255 255 255 255 255 255 255 255 255 255 255 255 255 255 255 255 255 255 255 255 255 255 255 255 255 255 255 255 255 255 255 255 255 255 255 255 255 255 255 255 255 255 255 255 255 255 255 255 255 255 255 255 255 255 255 255 255 255 255 255 255 255 255 255 255 255 255 255 255 255 255 255 255 255 255 255 255 255 255 255 255 255 255 255 255 255 255 255 255 255 255 254 254 254 254 255 255 255 255 255 255 255 255 255 255 255 255 255 255 255 255 255 255 255 255 255 255 255 255 255 255 255 255 255 255 255 255 255 255 255 255 255 255 255 255 255 255 255 255 255 255 255 255 255 255 255 255 255 255 255 255 80 80 80 80 80 80 80 80 80 80 80 80 80 80 80 80 80 80 80 80 80 80 80 80 80 80 80 80 80 80 80 80 80 80 80 80 80 80 80 80 80 80 80 80 80 80 80 80 80 80 80 80 80 80 80 80 80 80 80 80 80 80 80 80 80 80 
255 255 255 255 255 255 255 255 255 255 255 255 255 255 255 255 255 255 255 255 255 255 255 255 255 255 255 255 255 255 255 255 255 255 255 255 255 255 255 255 255 255 255 255 255 255 255 255 255 255 255 255 255 255 255 255 255 255 255 255 255 255 255 255 255 255 255 255 255 255 255 255 255 255 255 255 255 255 255 255 255 255 255 255 255 255 255 255 255 255 255 255 255 255 255 255 255 255 255 255 255 255 255 255 255 255 255 255 255 255 255 255 255 255 255 255 255 255 255 255 255 255 255 255 255 255 255 255 255 255 255 255 255 255 255 255 255 255 255 255 255 255 255 255 255 255 255 255 255 255 255 255 255 255 255 255 255 255 255 255 255 255 255 255 255 255 255 255 255 255 255 255 255 255 255 255 255 255 255 255 255 255 255 255 255 255 255 255 255 255 255 255 255 255 255 255 255 255 255 255 255 255 255 255 255 255 255 255 255 255 255 255 255 255 255 255 255 255 255 255 255 255 254 254 254 254 255 255 255 255 255 255 255 255 255 255 255 255 255 255 255 255 255 255 255 255 255 255 255 255 255 255 255 255 255 255 255 255 255 255 255 255 255 255 255 255 255 255 255 255 255 255 255 255 255 255 255 255 255 255 255 255 80 80 80 80 80 80 80 80 80 80 80 80 80 80 80 80 80 80 80 80 80 80 80 80 80 80 80 80 80 80 80 80 80 80 80 80 80 80 80 80 80 80 80 80 80 80 80 80 80 80 80 80 80 80 80 80 80 80 80 80 80 80 80 80 80 80 
255 255 255 255 255 255 255 255 255 255 255 255 255 255 255 255 255 255 255 255 255 255 255 255 255 255 255 255 255 255 255 255 255 255 255 255 255 255 255 255 255 255 255 255 255 255 255 255 255 255 255 255 255 255 255 255 255 255 255 255 255 255 255 255 255 255 255 255 255 255 255 255 255 255 255 255 255 255 255 255 255 255 255 255 255 255 255 255 255 255 255 255 255 255 255 255 255 255 255 255 255 255 255 255 255 255 255 255 255 255 255 255 255 255 255 255 255 255 255 255 255 255 255 255 255 255 255 255 255 255 255 255 255 255 255 255 255 255 255 255 255 255 255 255 255 255 255 255 255 255 255 255 255 255 255 255 255 255 255 255 255 255 255 255 255 255 255 255 255 255 255 255 255 255 255 255 255 255 255 255 255 255 255 255 255 255 255 255 255 255 255 255 255 255 255 255 255 255 255 255 255 255 255 255 255 255 255 255 255 255 255 255 255 255 255 255 255 255 255 255 255 255 254 254 254 254 255 255 255 255 255 255 255 255 255 255 255 255 255 255 255 255 255 255 255 255 255 255 255 255 255 255 255 255 255 255 255 255 255 255 255 255 255 255 255 255 255 255 255 255 255 255 255 255 255 255 255 255 255 255 255 255 80 80 80 80 80 80 80 80 80 80 80 80 80 80 80 80 80 80 80 80 80 80 80 80 80 80 80 80 80 80 80 80 80 80 80 80 80 80 80 80 80 80 80 80 80 80 80 80 80 80 80 80 80 80 80 80 80 80 80 80 80 80 80 80 80 80 
255 255 255 255 255 255 255 255 255 255 255 255 255 255 255 255 255 255 255 255 255 255 255 255 255 255 255 255 255 255 255 255 255 255 255 255 255 255 255 255 255 255 255 255 255 255 255 255 255 255 255 255 255 255 255 255 255 255 255 255 255 255 255 255 255 255 255 255 255 255 255 255 255 255 255 255 255 255 255 255 255 255 255 255 255 255 255 255 255 255 255 255 255 255 255 255 255 255 255 255 255 255 255 255 255 255 255 255 255 255 255 255 255 255 255 255 255 255 255 255 255 255 255 255 255 255 255 255 255 255 255 255 255 255 255 255 255 255 255 255 255 255 255 255 255 255 255 255 255 255 255 255 255 255 255 255 255 255 255 255 255 255 255 255 255 255 255 255 255 255 255 255 255 255 255 255 255 255 255 255 255 255 255 255 255 255 255 255 255 255 255 255 255 255 255 255 255 255 255 255 255 255 255 255 255 255 255 255 255 255 255 255 255 255 255 255 255 255 255 255 255 255 253 255 255 255 255 254 254 252 253 253 254 255 254 253 255 255 255 255 254 254 254 253 253 254 254 255 254 253 255 255 255 255 255 255 255 255 255 255 255 255 255 255 255 255 255 255 255 255 255 255 255 255 255 255 255 255 255 255 255 255 80 80 80 80 80 80 80 80 80 80 80 80 80 80 80 80 80 80 80 80 80 80 80 80 80 80 80 80 80 80 80 80 80 80 80 80 80 80 80 80 80 80 80 80 80 80 80 80 80 80 80 80 80 80 80 80 80 80 80 80 80 80 80 80 80 80 
255 255 255 255 255 255 255 255 255 255 255 255 255 255 255 255 255 255 255 255 255 255 255 255 255 255 255 255 255 255 255 255 255 255 255 255 255 255 255 255 255 255 255 255 255 255 255 255 255 255 255 255 255 255 255 255 255 255 255 255 255 255 255 255 255 255 255 255 255 255 255 255 255 255 255 255 255 255 255 255 255 255 255 255 255 255 255 255 255 255 255 255 255 255 255 255 255 255 255 255 255 255 255 255 255 255 255 255 255 255 255 255 255 255 255 255 255 255 255 255 255 255 255 255 255 255 255 255 255 255 255 255 255 255 255 255 255 255 255 255 255 255 255 255 255 255 255 255 255 255 255 255 255 255 255 255 255 255 255 255 255 255 255 255 255 255 255 255 255 255 255 255 255 255 255 255 255 255 255 255 255 255 255 255 255 255 255 255 255 255 255 255 255 255 255 255 255 255 255 255 255 255 255 255 255 255 255 255 255 255 255 255 255 255 255 255 255 255 255 255 255 255 254 254 254 253 253 253 253 253 253 253 253 250 252 253 255 255 255 255 253 254 254 254 254 255 255 254 255 255 255 255 255 255 255 255 255 255 255 255 255 255 255 255 255 255 255 255 255 255 255 255 255 255 255 255 255 255 255 255 255 255 80 80 80 80 80 80 80 80 80 80 80 80 80 80 80 80 80 80 80 80 80 80 80 80 80 80 80 80 80 80 80 80 80 80 80 80 80 80 80 80 80 80 80 80 80 80 80 80 80 80 80 80 80 80 80 80 80 80 80 80 80 80 80 80 80 80 
255 255 255 255 255 255 255 255 255 255 255 255 255 255 255 255 255 255 255 255 255 255 255 255 255 255 255 255 255 255 255 255 255 255 255 255 255 255 255 255 255 255 255 255 255 255 255 255 255 255 255 255 255 255 255 255 255 255 255 255 255 255 255 255 255 255 255 255 255 255 255 255 255 255 255 255 255 255 255 255 255 255 255 255 255 255 255 255 255 255 255 255 255 255 255 255 255 255 255 255 255 255 255 255 255 255 255 255 255 255 255 255 255 255 255 255 255 255 255 255 255 255 255 255 255 255 255 255 255 255 255 255 255 255 255 255 255 255 255 255 255 255 255 255 255 255 255 255 255 255 255 255 255 255 255 255 255 255 255 255 255 255 255 255 255 255 255 255 255 255 255 255 255 255 255 255 255 255 255 255 255 255 255 255 255 255 255 255 255 255 255 255 255 255 255 255 255 255 255 255 255 255 255 255 255 255 255 255 255 255 255 255 255 255 255 255 255 255 255 255 255 255 254 252 250 251 253 253 254 252 252 251 251 248 246 244 249 251 255 255 250 253 255 255 254 251 250 251 252 255 254 254 254 254 255 255 255 255 255 255 255 255 255 255 255 255 255 255 255 255 255 255 255 255 255 255 255 255 255 255 255 255 80 80 80 80 80 80 80 80 80 80 80 80 80 80 80 80 80 80 80 80 80 80 80 80 80 80 80 80 80 80 80 80 80 80 80 80 80 80 80 80 80 80 80 80 80 80 80 80 80 80 80 80 80 80 80 80 80 80 80 80 80 80 80 80 80 80 
255 255 255 255 255 255 255 255 255 255 255 255 255 255 255 255 255 255 255 255 255 255 255 255 255 255 255 255 255 255 255 255 255 255 255 255 255 255 255 255 255 255 255 255 255 255 255 255 255 255 255 255 255 255 255 255 255 255 255 255 255 255 255 255 255 255 255 255 255 255 255 255 255 255 255 255 255 255 255 255 255 255 255 255 255 255 255 255 255 255 255 255 255 255 255 255 255 255 255 255 255 255 255 255 255 255 255 255 255 255 255 255 255 255 255 255 255 255 255 255 255 255 255 255 255 255 255 255 255 255 255 255 255 255 255 255 255 255 255 255 255 255 255 255 255 255 255 255 255 255 255 255 255 255 255 255 255 255 255 255 255 255 255 255 255 255 255 255 255 255 255 255 255 255 255 255 255 255 255 255 255 255 255 255 255 255 255 255 255 255 255 255 255 255 255 255 255 255 255 255 255 255 255 255 255 255 255 255 255 255 255 255 255 255 255 255 255 255 255 255 255 255 253 248 235 227 213 217 219 224 225 225 226 228 227 227 228 227 223 222 219 212 208 204 207 214 217 231 249 254 253 253 253 253 255 255 255 255 255 255 255 255 255 255 255 255 255 255 255 255 255 255 255 255 255 255 255 255 255 255 255 255 80 80 80 80 80 80 80 80 80 80 80 80 80 80 80 80 80 80 80 80 80 80 80 80 80 80 80 80 80 80 80 80 80 80 80 80 80 80 80 80 80 80 80 80 80 80 80 80 80 80 80 80 80 80 80 80 80 80 80 80 80 80 80 80 80 80 
255 255 255 255 255 255 255 255 255 255 255 255 255 255 255 255 255 255 255 255 255 255 255 255 255 255 255 255 255 255 255 255 255 255 255 255 255 255 255 255 255 255 255 255 255 255 255 255 255 255 255 255 255 255 255 255 255 255 255 255 255 255 255 255 255 255 255 255 255 255 255 255 255 255 255 255 255 255 255 255 255 255 255 255 255 255 255 255 255 255 255 255 255 255 255 255 255 255 255 255 255 255 255 255 255 255 255 255 255 255 255 255 255 255 255 255 255 255 255 255 255 255 255 255 255 255 255 255 255 255 255 255 255 255 255 255 255 255 255 255 255 255 255 255 255 255 255 255 255 255 255 255 255 255 255 255 255 255 255 255 255 255 255 255 255 255 255 255 255 255 255 255 255 255 255 255 255 255 255 255 255 255 255 255 255 255 255 255 255 255 255 255 255 255 255 255 255 254 254 254 254 255 255 255 254 254 254 254 255 255 254 253 253 254 255 255 252 253 254 250 239 233 218 221 224 225 225 227 229 229 231 232 233 234 234 234 229 229 228 228 226 228 225 222 220 214 212 205 203 211 220 233 247 254 254 250 253 249 250 254 253 254 254 254 255 255 255 255 255 255 255 255 255 255 255 255 255 255 255 255 255 255 80 80 80 80 80 80 80 80 80 80 80 80 80 80 80 80 80 80 80 80 80 80 80 80 80 80 80 80 80 80 80 80 80 80 80 80 80 80 80 80 80 80 80 80 80 80 80 80 80 80 80 80 80 80 80 80 80 80 80 80 80 80 80 80 80 80 
255 255 255 255 255 255 255 255 255 255 255 255 255 255 255 255 255 255 255 255 255 255 255 255 255 255 255 255 255 255 255 255 255 255 255 255 255 255 255 255 255 255 255 255 255 255 255 255 255 255 255 255 255 255 255 255 255 255 255 255 255 255 255 255 255 255 255 255 255 255 255 255 255 255 255 255 255 255 255 255 255 255 255 255 255 255 255 255 255 255 255 255 255 255 255 255 255 255 255 255 255 255 255 255 255 255 255 255 255 255 255 255 255 255 255 255 255 255 255 255 255 255 255 255 255 255 255 255 255 255 255 255 255 255 255 255 255 255 255 255 255 255 255 255 255 255 255 255 255 255 255 255 255 255 255 255 255 255 255 255 255 255 255 255 255 255 255 255 255 255 255 255 255 255 255 255 255 255 255 255 255 255 255 255 255 255 255 255 255 255 255 255 255 255 255 255 255 254 254 254 254 255 255 255 255 255 255 254 254 253 252 254 252 252 252 253 253 248 223 223 222 221 230 228 228 229 231 234 236 234 235 237 238 234 234 234 236 237 238 238 234 235 233 230 228 226 224 223 226 217 207 209 208 220 242 255 255 254 254 252 251 254 254 254 255 255 255 255 255 255 255 255 255 255 255 255 255 255 255 255 255 255 80 80 80 80 80 80 80 80 80 80 80 80 80 80 80 80 80 80 80 80 80 80 80 80 80 80 80 80 80 80 80 80 80 80 80 80 80 80 80 80 80 80 80 80 80 80 80 80 80 80 80 80 80 80 80 80 80 80 80 80 80 80 80 80 80 80 
255 255 255 255 255 255 255 255 255 255 255 255 255 255 255 255 255 255 255 255 255 255 255 255 255 255 255 255 255 255 255 255 255 255 255 255 255 255 255 255 255 255 255 255 255 255 255 255 255 255 255 255 255 255 255 255 255 255 255 255 255 255 255 255 255 255 255 255 255 255 255 255 255 255 255 255 255 255 255 255 255 255 255 255 255 255 255 255 255 255 255 255 255 255 255 255 255 255 255 255 255 255 255 255 255 255 255 255 255 255 255 255 255 255 255 255 255 255 255 255 255 255 255 255 255 255 255 255 255 255 255 255 255 255 255 255 255 255 255 255 255 255 255 255 255 255 255 255 255 255 255 255 255 255 255 255 255 255 255 255 255 255 255 255 255 255 255 255 255 255 255 255 255 255 255 255 255 255 255 255 255 255 255 255 255 255 255 255 255 255 255 255 255 255 255 255 255 254 254 254 254 255 255 255 254 254 254 254 254 254 254 250 251 250 239 221 217 225 232 228 228 232 237 239 236 232 239 240 240 241 242 245 246 242 242 242 243 243 243 242 243 241 242 238 237 234 232 230 229 224 230 220 228 215 211 200 207 236 251 253 251 253 254 254 255 255 255 255 255 255 255 255 255 255 255 255 255 255 255 255 255 255 80 80 80 80 80 80 80 80 80 80 80 80 80 80 80 80 80 80 80 80 80 80 80 80 80 80 80 80 80 80 80 80 80 80 80 80 80 80 80 80 80 80 80 80 80 80 80 80 80 80 80 80 80 80 80 80 80 80 80 80 80 80 80 80 80 80 
255 255 255 255 255 255 255 255 255 255 255 255 255 255 255 255 255 255 255 255 255 255 255 255 255 255 255 255 255 255 255 255 255 255 255 255 255 255 255 255 255 255 255 255 255 255 255 255 255 255 255 255 255 255 255 255 255 255 255 255 255 255 255 255 255 255 255 255 255 255 255 255 255 255 255 255 255 255 255 255 255 255 255 255 255 255 255 255 255 255 255 255 255 255 255 255 255 255 255 255 255 255 255 255 255 255 255 255 255 255 255 255 255 255 255 255 255 255 255 255 255 255 255 255 255 255 255 255 255 255 255 255 255 255 255 255 255 255 255 255 255 255 255 255 255 255 255 255 255 255 255 255 255 255 255 255 255 255 255 255 255 255 255 255 255 255 255 255 255 255 255 255 255 255 255 255 255 255 255 255 255 255 255 255 255 255 255 255 255 255 255 255 255 255 255 255 255 253 253 253 253 255 255 254 255 255 255 252 255 253 249 255 234 218 221 224 224 229 236 239 238 240 239 241 243 244 243 244 246 245 246 247 247 249 249 249 250 249 249 250 247 246 246 242 241 242 243 235 237 237 239 231 227 228 215 211 210 205 203 237 251 249 255 254 253 255 255 254 254 255 255 255 255 255 255 255 255 255 255 255 255 255 80 80 80 80 80 80 80 80 80 80 80 80 80 80 80 80 80 80 80 80 80 80 80 80 80 80 80 80 80 80 80 80 80 80 80 80 80 80 80 80 80 80 80 80 80 80 80 80 80 80 80 80 80 80 80 80 80 80 80 80 80 80 80 80 80 80 
255 255 255 255 255 255 255 255 255 255 255 255 255 255 255 255 255 255 255 255 255 255 255 255 255 255 255 255 255 255 255 255 255 255 255 255 255 255 255 255 255 255 255 255 255 255 255 255 255 255 255 255 255 255 255 255 255 255 255 255 255 255 255 255 255 255 255 255 255 255 255 255 255 255 255 255 255 255 255 255 255 255 255 255 255 255 255 255 255 255 255 255 255 255 255 255 255 255 255 255 255 255 255 255 255 255 255 255 255 255 255 255 255 255 255 255 255 255 255 255 255 255 255 255 255 255 255 255 255 255 255 255 255 255 255 255 255 255 255 255 255 255 255 255 255 255 255 255 255 255 255 255 255 255 255 255 255 255 255 255 255 255 255 255 255 255 255 255 255 255 255 255 255 255 255 255 255 255 255 255 255 255 255 255 255 255 255 255 255 255 255 255 255 255 255 255 255 253 253 253 253 255 255 254 252 253 253 254 255 255 249 214 220 231 225 226 231 237 237 239 240 243 243 244 244 245 246 246 246 247 247 248 248 246 246 246 247 246 246 247 247 247 246 248 246 243 242 243 244 240 240 235 233 230 226 219 214 211 205 198 215 245 253 249 253 253 253 254 254 255 255 255 255 255 255 255 255 255 255 255 255 255 80 80 80 80 80 80 80 80 80 80 80 80 80 80 80 80 80 80 80 80 80 80 80 80 80 80 80 80 80 80 80 80 80 80 80 80 80 80 80 80 80 80 80 80 80 80 80 80 80 80 80 80 80 80 80 80 80 80 80 80 80 80 80 80 80 80 
255 255 255 255 255 255 255 255 255 255 255 255 255 255 255 255 255 255 255 255 255 255 255 255 255 255 255 255 255 255 255 255 255 255 255 255 255 255 255 255 255 255 255 255 255 255 255 255 255 255 255 255 255 255 255 255 255 255 255 255 255 255 255 255 255 255 255 255 255 255 255 255 255 255 255 255 255 255 255 255 255 255 255 255 255 255 255 255 255 255 255 255 255 255 255 255 255 255 255 255 255 255 255 255 255 255 255 255 255 255 255 255 255 255 255 255 255 255 255 255 255 255 255 255 255 255 255 255 255 255 255 255 255 255 255 255 255 255 255 255 255 255 255 255 255 255 255 255 255 255 255 255 255 255 255 255 255 255 255 255 255 255 255 255 255 255 255 255 255 255 255 255 255 255 255 255 255 255 255 255 255 255 255 255 255 255 255 255 255 255 255 255 255 255 255 255 255 253 253 253 253 254 255 253 254 254 252 249 248 237 227 229 229 233 229 232 238 249 246 247 245 247 243 245 249 251 248 249 247 249 249 250 250 249 249 249 249 248 248 249 248 247 247 247 247 247 248 247 247 241 242 240 239 234 229 226 223 213 211 210 211 193 211 253 249 253 252 251 254 255 255 255 255 255 255 255 255 255 255 255 255 255 80 80 80 80 80 80 80 80 80 80 80 80 80 80 80 80 80 80 80 80 80 80 80 80 80 80 80 80 80 80 80 80 80 80 80 80 80 80 80 80 80 80 80 80 80 80 80 80 80 80 80 80 80 80 80 80 80 80 80 80 80 80 80 80 80 80 
255 255 255 255 255 255 255 255 255 255 255 255 255 255 255 255 255 255 255 255 255 255 255 255 255 255 255 255 255 255 255 255 255 255 255 255 255 255 255 255 255 255 255 255 255 255 255 255 255 255 255 255 255 255 255 255 255 255 255 255 255 255 255 255 255 255 255 255 255 255 255 255 255 255 255 255 255 255 255 255 255 255 255 255 255 255 255 255 255 255 255 255 255 255 255 255 255 255 255 255 255 255 255 255 255 255 255 255 255 255 255 255 255 255 255 255 255 255 255 255 255 255 255 255 255 255 255 255 255 255 255 255 255 255 255 255 255 255 255 255 255 255 255 255 255 255 255 255 255 255 255 255 255 255 255 255 255 255 255 255 255 255 255 255 255 255 255 255 255 255 255 255 255 255 255 255 255 255 255 255 255 255 255 255 255 255 255 255 255 255 255 255 255 255 255 255 255 253 254 253 253 253 254 252 251 252 244 222 212 189 128 65 62 66 65 134 220 237 242 245 246 251 248 247 247 247 250 252 251 251 251 252 252 251 251 251 251 250 250 251 249 248 248 249 247 245 245 246 246 242 245 241 240 238 237 238 235 226 221 215 218 209 204 198 212 241 254 250 254 255 255 255 255 255 255 255 255 255 255 255 255 255 80 80 80 80 80 80 80 80 80 80 80 80 80 80 80 80 80 80 80 80 80 80 80 80 80 80 80 80 80 80 80 80 80 80 80 80 80 80 80 80 80 80 80 80 80 80 80 80 80 80 80 80 80 80 80 80 80 80 80 80 80 80 80 80 80 80 
255 255 255 255 255 255 255 255 255 255 255 255 255 255 255 255 255 255 255 255 255 255 255 255 255 255 255 255 255 255 255 255 255 255 255 255 255 255 255 255 255 255 255 255 255 255 255 255 255 255 255 255 255 255 255 255 255 255 255 255 255 255 255 255 255 255 255 255 255 255 255 255 255 255 255 255 255 255 255 255 255 255 255 255 255 255 255 255 255 255 255 255 255 255 255 255 255 255 255 255 255 255 255 255 255 255 255 255 255 255 255 255 255 255 255 255 255 255 255 255 255 255 255 255 255 255 255 255 255 255 255 255 255 255 255 255 255 255 255 255 255 255 255 255 255 255 255 255 255 255 255 255 255 255 255 255 255 255 255 255 255 255 255 255 255 255 255 255 255 255 255 255 255 255 255 255 255 255 255 255 255 255 255 255 255 255 255 255 255 255 255 255 255 255 255 255 255 253 253 253 251 248 250 249 249 238 209 160 82 67 73 78 74 75 81 73 81 173 244 245 254 249 248 248 248 250 250 250 251 249 250 251 251 251 251 251 252 252 252 252 251 249 248 249 248 247 248 248 245 247 248 247 245 242 241 238 234 231 226 224 217 212 208 205 192 194 219 249 247 255 247 255 254 254 255 255 255 255 255 255 255 255 80 80 80 80 80 80 80 80 80 80 80 80 80 80 80 80 80 80 80 80 80 80 80 80 80 80 80 80 80 80 80 80 80 80 80 80 80 80 80 80 80 80 80 80 80 80 80 80 80 80 80 80 80 80 80 80 80 80 80 80 80 80 80 80 80 80 
255 255 255 255 255 255 255 255 255 255 255 255 255 255 255 255 255 255 255 255 255 255 255 255 255 255 255 255 255 255 255 255 255 255 255 255 255 255 255 255 255 255 255 255 255 255 255 255 255 255 255 255 255 255 255 255 255 255 255 255 255 255 255 255 255 255 255 255 255 255 255 255 255 255 255 255 255 255 255 255 255 255 255 255 255 255 255 255 255 255 255 255 255 255 255 255 255 255 255 255 255 255 255 255 255 255 255 255 255 255 255 255 255 255 255 255 255 255 255 255 255 255 255 255 255 255 255 255 255 255 255 255 255 255 255 255 255 255 255 255 255 255 255 255 255 255 255 255 255 255 255 255 255 255 255 255 255 255 255 255 255 255 255 255 255 255 255 255 255 255 255 255 255 255 255 255 255 255 255 255 255 255 255 255 255 255 255 255 255 255 255 255 255 255 255 255 255 253 254 253 252 254 248 242 214 186 99 70 74 79 84 76 78 79 79 74 80 75 231 248 250 248 250 253 251 250 251 252 252 251 251 252 252 252 252 252 252 252 252 252 252 250 250 250 249 248 249 245 246 251 248 247 246 245 238 239 239 234 230 229 225 220 214 208 208 191 189 196 249 246 252 248 253 254 254 255 255 255 255 255 255 255 80 80 80 80 80 80 80 80 80 80 80 80 80 80 80 80 80 80 80 80 80 80 80 80 80 80 80 80 80 80 80 80 80 80 80 80 80 80 80 80 80 80 80 80 80 80 80 80 80 80 80 80 80 80 80 80 80 80 80 80 80 80 80 80 80 80 
255 255 255 255 255 255 255 255 255 255 255 255 255 255 255 255 255 255 255 255 255 255 255 255 255 255 255 255 255 255 255 255 255 255 255 255 255 255 255 255 255 255 255 255 255 255 255 255 255 255 255 255 255 255 255 255 255 255 255 255 255 255 255 255 255 255 255 255 255 255 255 255 255 255 255 255 255 255 255 255 255 255 255 255 255 255 255 255 255 255 255 255 255 255 255 255 255 255 255 255 255 255 255 255 255 255 255 255 255 255 255 255 255 255 255 255 255 255 255 255 255 255 255 255 255 255 255 255 255 255 255 255 255 255 255 255 255 255 255 255 255 255 255 255 255 255 255 255 255 255 255 255 255 255 255 255 255 255 255 255 255 255 255 255 255 255 255 255 255 255 255 255 255 255 255 255 255 255 255 255 255 255 255 255 255 255 255 255 255 255 255 255 255 255 255 255 255 252 252 253 252 254 237 204 119 57 80 66 84 79 78 79 78 79 81 78 82 85 165 245 248 249 251 253 251 252 252 253 253 253 253 252 252 252 252 252 252 252 252 252 252 251 252 253 252 251 251 250 248 247 246 246 245 244 245 243 240 237 234 234 230 224 220 216 208 204 201 188 192 240 252 251 252 253 253 255 255 255 255 255 255 255 80 80 80 80 80 80 80 80 80 80 80 80 80 80 80 80 80 80 80 80 80 80 80 80 80 80 80 80 80 80 80 80 80 80 80 80 80 80 80 80 80 80 80 80 80 80 80 80 80 80 80 80 80 80 80 80 80 80 80 80 80 80 80 80 80 80 
255 255 255 255 255 255 255 255 255 255 255 255 255 255 255 255 255 255 255 255 255 255 255 255 255 255 255 255 255 255 255 255 255 255 255 255 255 255 255 255 255 255 255 255 255 255 255 255 255 255 255 255 255 255 255 255 255 255 255 255 255 255 255 255 255 255 255 255 255 255 255 255 255 255 255 255 255 255 255 255 255 255 255 255 255 255 255 255 255 255 255 255 255 255 255 255 255 255 255 255 255 255 255 255 255 255 255 255 255 255 255 255 255 255 255 255 255 255 255 255 255 255 255 255 255 255 255 255 255 255 255 255 255 255 255 255 255 255 255 255 255 255 255 255 255 255 255 255 255 255 255 255 255 255 255 255 255 255 255 255 255 255 255 255 255 255 255 255 255 255 255 255 255 255 255 255 255 255 255 255 255 255 255 255 255 255 255 255 255 255 254 255 255 255 254 254 254 255 255 248 246 221 171 71 80 78 78 79 78 77 78 81 81 80 79 79 77 78 86 163 245 255 250 249 250 252 252 252 252 253 253 254 254 252 253 253 251 251 251 251 253 254 254 253 252 251 252 248 250 251 249 248 247 249 247 245 245 242 240 236 232 230 226 222 218 210 206 204 193 191 173 246 254 253 251 254 253 253 253 255 255 255 80 80 80 80 80 80 80 80 80 80 80 80 80 80 80 80 80 80 80 80 80 80 80 80 80 80 80 80 80 80 80 80 80 80 80 80 80 80 80 80 80 80 80 80 80 80 80 80 80 80 80 80 80 80 80 80 80 80 80 80 80 80 80 80 80 80 
255 255 255 255 255 255 255 255 255 255 255 255 255 255 255 255 255 255 255 255 255 255 255 255 255 255 255 255 255 255 255 255 255 255 255 255 255 255 255 255 255 255 255 255 255 255 255 255 255 255 255 255 255 255 255 255 255 255 255 255 255 255 255 255 255 255 255 255 255 255 255 255 255 255 255 255 255 255 255 255 255 255 255 255 255 255 255 255 255 255 255 255 255 255 255 255 255 255 255 255 255 255 255 255 255 255 255 255 255 255 255 255 255 255 255 255 255 255 255 255 255 255 255 255 255 255 255 255 255 255 255 255 255 255 255 255 255 255 255 255 255 255 255 255 255 255 255 255 255 255 255 255 255 255 255 255 255 255 255 255 255 255 255 255 255 255 255 255 255 255 255 255 255 255 255 255 255 255 255 255 255 255 255 255 255 255 255 255 255 255 253 253 254 254 254 254 254 253 253 246 222 148 51 75 78 78 78 79 77 77 79 78 79 80 80 80 79 80 76 92 238 240 249 249 251 254 254 254 254 253 253 254 254 252 253 253 251 251 251 251 252 254 253 253 252 251 251 251 250 248 248 248 248 248 247 245 245 240 239 237 235 233 230 225 221 215 211 207 199 195 189 171 246 250 248 253 253 253 253 255 255 255 80 80 80 80 80 80 80 80 80 80 80 80 80 80 80 80 80 80 80 80 80 80 80 80 80 80 80 80 80 80 80 80 80 80 80 80 80 80 80 80 80 80 80 80 80 80 80 80 80 80 80 80 80 80 80 80 80 80 80 80 80 80 80 80 80 80 
255 255 255 255 255 255 255 255 255 255 255 255 255 255 255 255 255 255 255 255 255 255 255 255 255 255 255 255 255 255 255 255 255 255 255 255 255 255 255 255 255 255 255 255 255 255 255 255 255 255 255 255 255 255 255 255 255 255 255 255 255 255 255 255 255 255 255 255 255 255 255 255 255 255 255 255 255 255 255 255 255 255 255 255 255 255 255 255 255 255 255 255 255 255 255 255 255 255 255 255 255 255 255 255 255 255 255 255 255 255 255 255 255 255 255 255 255 255 255 255 255 255 255 255 255 255 255 255 255 255 255 255 255 255 255 255 255 255 255 255 255 255 255 255 255 255 255 255 255 255 255 255 255 255 255 255 255 255 255 255 255 255 255 255 255 255 255 255 255 255 255 255 255 255 255 255 255 255 255 255 255 255 255 255 255 255 255 255 255 255 251 252 252 253 253 253 253 252 252 218 121 63 84 80 78 78 78 78 78 78 79 80 79 79 78 78 78 79 78 71 213 250 253 252 251 251 252 252 252 253 253 254 254 252 253 253 252 252 252 252 251 253 253 252 251 250 251 250 250 249 247 248 249 247 247 245 245 240 239 238 237 233 230 227 225 220 217 212 205 195 193 193 170 240 250 251 252 253 253 254 254 254 80 80 80 80 80 80 80 80 80 80 80 80 80 80 80 80 80 80 80 80 80 80 80 80 80 80 80 80 80 80 80 80 80 80 80 80 80 80 80 80 80 80 80 80 80 80 80 80 80 80 80 80 80 80 80 80 80 80 80 80 80 80 80 80 80 80 
255 255 255 255 255 255 255 255 255 255 255 255 255 255 255 255 255 255 255 255 255 255 255 255 255 255 255 255 255 255 255 255 255 255 255 255 255 255 255 255 255 255 255 255 255 255 255 255 255 255 255 255 255 255 255 255 255 255 255 255 255 255 255 255 255 255 255 255 255 255 255 255 255 255 255 255 255 255 255 255 255 255 255 255 255 255 255 255 255 255 255 255 255 255 255 255 255 255 255 255 255 255 255 255 255 255 255 255 255 255 255 255 255 255 255 255 255 255 255 255 255 255 255 255 255 255 255 255 255 255 255 255 255 255 255 255 255 255 255 255 255 255 255 255 255 255 255 255 255 255 255 255 255 255 255 255 255 255 255 255 255 255 255 255 255 255 255 255 255 255 255 255 255 255 255 255 255 255 255 255 255 255 255 255 255 255 255 255 255 255 252 253 253 254 253 253 253 253 239 128 64 74 77 80 79 79 79 80 78 80 80 80 78 78 78 79 79 79 82 89 156 252 252 252 253 252 252 252 252 253 253 254 254 252 253 253 253 253 253 253 251 253 252 252 250 250 250 251 250 248 246 249 250 246 247 245 245 241 240 238 237 235 233 231 226 223 220 214 210 206 201 188 188 169 226 250 251 253 253 253 253 253 80 80 80 80 80 80 80 80 80 80 80 80 80 80 80 80 80 80 80 80 80 80 80 80 80 80 80 80 80 80 80 80 80 80 80 80 80 80 80 80 80 80 80 80 80 80 80 80 80 80 80 80 80 80 80 80 80 80 80 80 80 80 80 80 80 80 
255 255 255 255 255 255 255 255 255 255 255 255 255 255 255 255 255 255 255 255 255 255 255 255 255 255 255 255 255 255 255 255 255 255 255 255 255 255 255 255 255 255 255 255 255 255 255 255 255 255 255 255 255 255 255 255 255 255 255 255 255 255 255 255 255 255 255 255 255 255 255 255 255 255 255 255 255 255 255 255 255 255 255 255 255 255 255 255 255 255 255 255 255 255 255 255 255 255 255 255 255 255 255 255 255 255 255 255 255 255 255 255 255 255 255 255 255 255 255 255 255 255 255 255 255 255 255 255 255 255 255 255 255 255 255 255 255 255 255 255 255 255 255 255 255 255 255 255 255 255 255 255 255 255 255 255 255 255 255 255 255 255 255 255 255 255 255 255 255 255 255 255 255 255 255 255 255 255 255 255 255 255 255 255 255 255 255 255 255 255 253 253 253 253 253 249 251 225 137 75 78 77 77 79 78 80 80 82 80 78 78 80 80 80 80 80 80 80 82 77 89 233 252 252 252 253 254 254 254 255 254 252 252 253 253 253 252 252 252 252 253 253 252 252 252 251 251 248 251 250 247 248 248 246 248 245 243 242 237 244 234 242 234 232 221 222 224 216 212 211 205 195 185 172 181 170 242 254 251 251 255 253 80 80 80 80 80 80 80 80 80 80 80 80 80 80 80 80 80 80 80 80 80 80 80 80 80 80 80 80 80 80 80 80 80 80 80 80 80 80 80 80 80 80 80 80 80 80 80 80 80 80 80 80 80 80 80 80 80 80 80 80 80 80 80 80 80 80 
255 255 255 255 255 255 255 255 255 255 255 255 255 255 255 255 255 255 255 255 255 255 255 255 255 255 255 255 255 255 255 255 255 255 255 255 255 255 255 255 255 255 255 255 255 255 255 255 255 255 255 255 255 255 255 255 255 255 255 255 255 255 255 255 255 255 255 255 255 255 255 255 255 255 255 255 255 255 255 255 255 255 255 255 255 255 255 255 255 255 255 255 255 255 255 255 255 255 255 255 255 255 255 255 255 255 255 255 255 255 255 255 255 255 255 255 255 255 255 255 255 255 255 255 255 255 255 255 255 255 255 255 255 255 255 255 255 255 255 255 255 255 255 255 255 255 255 255 255 255 255 255 255 255 255 255 255 255 255 255 255 255 255 255 255 255 255 255 255 255 255 255 255 255 255 255 255 255 255 255 255 255 255 255 255 255 255 255 255 255 254 253 254 254 251 249 233 175 55 74 81 75 77 80 77 79 80 82 81 79 79 80 80 80 80 80 80 80 78 75 74 232 254 253 252 253 254 254 254 255 254 252 252 253 253 253 252 252 252 252 253 253 252 252 252 251 251 249 250 249 247 248 248 246 246 246 244 237 251 239 236 229 225 212 172 156 153 164 192 216 218 194 195 200 172 182 244 241 254 251 253 252 80 80 80 80 80 80 80 80 80 80 80 80 80 80 80 80 80 80 80 80 80 80 80 80 80 80 80 80 80 80 80 80 80 80 80 80 80 80 80 80 80 80 80 80 80 80 80 80 80 80 80 80 80 80 80 80 80 80 80 80 80 80 80 80 80 80 
255 255 255 255 255 255 255 255 255 255 255 255 255 255 255 255 255 255 255 255 255 255 255 255 255 255 255 255 255 255 255 255 255 255 255 255 255 255 255 255 255 255 255 255 255 255 255 255 255 255 255 255 255 255 255 255 255 255 255 255 255 255 255 255 255 255 255 255 255 255 255 255 255 255 255 255 255 255 255 255 255 255 255 255 255 255 255 255 255 255 255 255 255 255 255 255 255 255 255 255 255 255 255 255 255 255 255 255 255 255 255 255 255 255 255 255 255 255 255 255 255 255 255 255 255 255 255 255 255 255 255 255 255 255 255 255 255 255 255 255 255 255 255 255 255 255 255 255 255 255 255 255 255 255 255 255 255 255 255 255 255 255 255 255 255 255 255 255 255 255 255 255 255 255 255 255 255 255 255 255 255 255 255 255 255 255 255 255 255 255 254 254 253 254 254 237 195 77 78 71 72 77 79 81 77 78 79 80 79 80 81 79 79 79 79 80 80 80 77 77 74 211 253 253 252 253 254 254 254 255 254 252 252 253 253 253 253 253 253 253 253 253 252 252 252 251 251 251 249 249 247 248 248 246 246 246 245 250 236 231 195 147 72 61 80 80 83 79 69 54 82 132 205 190 182 167 157 229 247 251 252 253 80 80 80 80 80 80 80 80 80 80 80 80 80 80 80 80 80 80 80 80 80 80 80 80 80 80 80 80 80 80 80 80 80 80 80 80 80 80 80 80 80 80 80 80 80 80 80 80 80 80 80 80 80 80 80 80 80 80 80 80 80 80 80 80 80 80 
255 255 255 255 255 255 255 255 255 255 255 255 255 255 255 255 255 255 255 255 255 255 255 255 255 255 255 255 255 255 255 255 255 255 255 255 255 255 255 255 255 255 255 255 255 255 255 255 255 255 255 255 255 255 255 255 255 255 255 255 255 255 255 255 255 255 255 255 255 255 255 255 255 255 255 255 255 255 255 255 255 255 255 255 255 255 255 255 255 255 255 255 255 255 255 255 255 255 255 255 255 255 255 255 255 255 255 255 255 255 255 255 255 255 255 255 255 255 255 255 255 255 255 255 255 255 255 255 255 255 255 255 255 255 255 255 255 255 255 255 255 255 255 255 255 255 255 255 255 255 255 255 255 255 255 255 255 255 255 255 255 255 255 255 255 255 255 255 255 255 255 255 255 255 255 255 255 255 255 255 255 255 255 255 255 255 255 255 255 255 253 253 252 253 241 223 99 75 72 76 80 78 79 78 79 79 78 78 82 82 80 79 79 79 79 80 80 80 80 80 77 177 250 251 251 253 254 254 254 255 254 252 252 253 253 253 253 253 253 253 253 253 252 252 252 251 251 251 249 249 247 248 248 245 247 244 244 228 224 179 68 75 78 75 75 77 81 73 67 76 81 72 92 167 204 175 172 162 251 252 251 254 80 80 80 80 80 80 80 80 80 80 80 80 80 80 80 80 80 80 80 80 80 80 80 80 80 80 80 80 80 80 80 80 80 80 80 80 80 80 80 80 80 80 80 80 80 80 80 80 80 80 80 80 80 80 80 80 80 80 80 80 80 80 80 80 80 80 
255 255 255 255 255 255 255 255 255 255 255 255 255 255 255 255 255 255 255 255 255 255 255 255 255 255 255 255 255 255 255 255 255 255 255 255 255 255 255 255 255 255 255 255 255 255 255 255 255 255 255 255 255 255 255 255 255 255 255 255 255 255 255 255 255 255 255 255 255 255 255 255 255 255 255 255 255 255 255 255 255 255 255 255 255 255 255 255 255 255 255 255 255 255 255 255 255 255 255 255 255 255 255 255 255 255 255 255 255 255 255 255 255 255 255 255 255 255 255 255 255 255 255 255 255 255 255 255 255 255 255 255 255 255 255 255 255 255 255 255 255 255 255 255 255 255 255 255 255 255 255 255 255 255 255 255 255 255 255 255 255 255 255 255 255 255 255 255 255 255 255 255 255 255 255 255 255 255 255 255 255 255 255 255 255 255 255 255 255 255 253 251 251 249 239 103 77 77 77 78 80 78 78 79 79 78 78 79 79 80 80 81 81 81 81 81 81 81 80 77 82 127 249 252 252 252 255 255 255 254 253 253 253 253 253 254 254 254 254 254 253 252 252 251 251 251 251 250 247 248 246 247 248 247 253 236 229 146 55 76 84 78 77 77 78 77 77 78 73 73 75 77 77 66 62 109 178 178 163 210 253 244 80 80 80 80 80 80 80 80 80 80 80 80 80 80 80 80 80 80 80 80 80 80 80 80 80 80 80 80 80 80 80 80 80 80 80 80 80 80 80 80 80 80 80 80 80 80 80 80 80 80 80 80 80 80 80 80 80 80 80 80 80 80 80 80 80 80 
255 255 255 255 255 255 255 255 255 255 255 255 255 255 255 255 255 255 255 255 255 255 255 255 255 255 255 255 255 255 255 255 255 255 255 255 255 255 255 255 255 255 255 255 255 255 255 255 255 255 255 255 255 255 255 255 255 255 255 255 255 255 255 255 255 255 255 255 255 255 255 255 255 255 255 255 255 255 255 255 255 255 255 255 255 255 255 255 255 255 255 255 255 255 255 255 255 255 255 255 255 255 255 255 255 255 255 255 255 255 255 255 255 255 255 255 255 255 255 255 255 255 255 255 255 255 255 255 255 255 255 255 255 255 255 255 255 255 255 255 255 255 255 255 255 255 255 255 255 255 255 255 255 255 255 255 255 255 255 255 255 255 255 255 255 255 255 255 255 255 255 255 255 255 255 255 255 255 255 255 255 255 255 255 255 255 255 255 255 255 255 253 254 248 215 65 70 77 76 79 80 78 78 79 79 78 79 81 80 80 80 81 81 81 81 81 81 81 80 79 82 107 249 253 251 251 254 254 254 254 253 253 253 253 253 254 253 253 253 253 253 252 252 251 251 251 251 249 247 248 245 247 248 245 232 236 186 74 80 74 74 76 77 79 77 76 76 77 73 74 76 72 69 71 71 75 148 175 175 145 249 255 80 80 80 80 80 80 80 80 80 80 80 80 80 80 80 80 80 80 80 80 80 80 80 80 80 80 80 80 80 80 80 80 80 80 80 80 80 80 80 80 80 80 80 80 80 80 80 80 80 80 80 80 80 80 80 80 80 80 80 80 80 80 80 80 80 80 
255 255 255 255 255 255 255 255 255 255 255 255 255 255 255 255 255 255 255 255 255 255 255 255 255 255 255 255 255 255 255 255 255 255 255 255 255 255 255 255 255 255 255 255 255 255 255 255 255 255 255 255 255 255 255 255 255 255 255 255 255 255 255 255 255 255 255 255 255 255 255 255 255 255 255 255 255 255 255 255 255 255 255 255 255 255 255 255 255 255 255 255 255 255 255 255 255 255 255 255 255 255 255 255 255 255 255 255 255 255 255 255 255 255 255 255 255 255 255 255 255 255 255 255 255 255 255 255 255 255 255 255 255 255 255 255 255 255 255 255 255 255 255 255 255 255 255 255 255 255 255 255 255 255 255 255 255 255 255 255 255 255 255 255 255 255 255 255 255 255 255 255 255 255 255 255 255 255 255 255 255 255 255 255 255 255 255 255 255 255 251 253 251 239 154 78 77 77 77 78 80 78 79 81 79 78 79 82 80 80 80 81 81 81 81 81 81 81 80 78 80 95 248 253 251 249 255 255 255 254 253 253 253 253 253 254 253 253 253 253 253 252 252 251 251 251 251 248 246 247 246 248 249 246 242 184 72 73 75 84 85 78 78 78 78 77 77 78 76 74 75 70 71 78 72 49 51 123 167 179 212 250 80 80 80 80 80 80 80 80 80 80 80 80 80 80 80 80 80 80 80 80 80 80 80 80 80 80 80 80 80 80 80 80 80 80 80 80 80 80 80 80 80 80 80 80 80 80 80 80 80 80 80 80 80 80 80 80 80 80 80 80 80 80 80 80 80 80 
255 255 255 255 255 255 255 255 255 255 255 255 255 255 255 255 255 255 255 255 255 255 255 255 255 255 255 255 255 255 255 255 255 255 255 255 255 255 255 255 255 255 255 255 255 255 255 255 255 255 255 255 255 255 255 255 255 255 255 255 255 255 255 255 255 255 255 255 255 255 255 255 255 255 255 255 255 255 255 255 255 255 255 255 255 255 255 255 255 255 255 255 255 255 255 255 255 255 255 255 255 255 255 255 255 255 255 255 255 255 255 255 255 255 255 255 255 255 255 255 255 255 255 255 255 255 255 255 255 255 255 255 255 255 255 255 255 255 255 255 255 255 255 255 255 255 255 255 255 255 255 255 255 255 255 255 255 255 255 255 255 255 255 255 255 255 255 255 255 255 255 255 255 255 255 255 255 255 255 255 255 255 255 255 255 255 255 255 255 255 252 253 249 220 69 71 71 81 78 79 79 78 78 79 76 78 79 81 80 81 80 80 80 80 79 79 80 80 83 80 76 99 249 255 254 255 255 255 254 254 253 253 252 253 253 253 253 253 253 253 254 253 253 251 251 250 250 248 249 248 245 242 252 240 208 68 72 77 78 78 78 77 77 78 77 77 75 76 75 76 77 73 72 72 72 67 70 69 95 192 167 244 80 80 80 80 80 80 80 80 80 80 80 80 80 80 80 80 80 80 80 80 80 80 80 80 80 80 80 80 80 80 80 80 80 80 80 80 80 80 80 80 80 80 80 80 80 80 80 80 80 80 80 80 80 80 80 80 80 80 80 80 80 80 80 80 80 80 
255 255 255 255 255 255 255 255 255 255 255 255 255 255 255 255 255 255 255 255 255 255 255 255 255 255 255 255 255 255 255 255 255 255 255 255 255 255 255 255 255 255 255 255 255 255 255 255 255 255 255 255 255 255 255 255 255 255 255 255 255 255 255 255 255 255 255 255 255 255 255 255 255 255 255 255 255 255 255 255 255 255 255 255 255 255 255 255 255 255 255 255 255 255 255 255 255 255 255 255 255 255 255 255 255 255 255 255 255 255 255 255 255 255 255 255 255 255 255 255 255 255 255 255 255 255 255 255 255 255 255 255 255 255 255 255 255 255 255 255 255 255 255 255 255 255 255 255 255 255 255 255 255 255 255 255 255 255 255 255 255 255 255 255 255 255 255 255 255 255 255 255 255 255 255 255 255 255 255 255 255 255 255 255 255 255 255 255 255 255 254 251 239 118 71 74 76 76 77 79 80 78 78 79 79 79 80 81 80 81 81 80 80 80 79 79 80 80 79 80 76 102 249 254 253 254 255 255 254 254 253 253 253 253 253 253 253 253 253 253 253 253 252 251 251 250 250 248 251 247 253 249 242 196 77 81 82 78 78 79 78 77 77 78 77 77 76 77 76 74 77 75 75 73 71 71 68 73 73 66 175 160 80 80 80 80 80 80 80 80 80 80 80 80 80 80 80 80 80 80 80 80 80 80 80 80 80 80 80 80 80 80 80 80 80 80 80 80 80 80 80 80 80 80 80 80 80 80 80 80 80 80 80 80 80 80 80 80 80 80 80 80 80 80 80 80 80 80 
255 255 255 255 255 255 255 255 255 255 255 255 255 255 255 255 255 255 255 255 255 255 255 255 255 255 255 255 255 255 255 255 255 255 255 255 255 255 255 255 255 255 255 255 255 255 255 255 255 255 255 255 255 255 255 255 255 255 255 255 255 255 255 255 255 255 255 255 255 255 255 255 255 255 255 255 255 255 255 255 255 255 255 255 255 255 255 255 255 255 255 255 255 255 255 255 255 255 255 255 255 255 255 255 255 255 255 255 255 255 255 255 255 255 255 255 255 255 255 255 255 255 255 255 255 255 255 255 255 255 255 255 255 255 255 255 255 255 255 255 255 255 255 255 255 255 255 255 255 255 255 255 255 255 255 255 255 255 255 255 255 255 255 255 255 255 255 255 255 255 255 255 255 255 255 255 255 255 255 255 255 255 255 255 255 255 255 255 255 255 251 253 206 66 74 83 77 76 77 79 77 78 78 79 80 80 80 81 80 81 81 80 80 80 79 79 80 80 79 81 75 110 249 254 253 253 255 255 254 253 253 254 254 253 253 253 253 253 253 253 253 252 251 251 251 250 250 248 249 247 232 246 234 89 78 69 75 77 77 76 76 78 78 77 77 77 76 77 77 74 77 77 76 74 73 68 74 65 67 66 152 174 80 80 80 80 80 80 80 80 80 80 80 80 80 80 80 80 80 80 80 80 80 80 80 80 80 80 80 80 80 80 80 80 80 80 80 80 80 80 80 80 80 80 80 80 80 80 80 80 80 80 80 80 80 80 80 80 80 80 80 80 80 80 80 80 80 80 
255 255 255 255 255 255 255 255 255 255 255 255 255 255 255 255 255 255 255 255 255 255 255 255 255 255 255 255 255 255 255 255 255 255 255 255 255 255 255 255 255 255 255 255 255 255 255 255 255 255 255 255 255 255 255 255 255 255 255 255 255 255 255 255 255 255 255 255 255 255 255 255 255 255 255 255 255 255 255 255 255 255 255 255 255 255 255 255 255 255 255 255 255 255 255 255 255 255 255 255 255 255 255 255 255 255 255 255 255 255 255 255 255 255 255 255 255 255 255 255 255 255 255 255 255 255 255 255 255 255 255 255 255 255 255 255 255 255 255 255 255 255 255 255 255 255 255 255 255 255 255 255 255 255 255 255 255 255 255 255 255 255 255 255 255 255 255 255 255 255 255 255 255 255 255 255 255 255 255 255 255 255 255 255 255 255 255 255 255 255 247 238 131 71 80 78 87 77 77 78 76 78 78 79 80 81 81 81 80 80 80 80 80 80 79 79 80 80 79 81 76 119 250 254 251 252 255 255 254 252 253 254 254 253 253 253 253 253 253 253 252 251 251 251 251 250 251 250 248 248 253 246 215 59 81 85 79 78 79 78 78 79 78 77 77 77 76 77 78 74 76 78 75 74 75 71 73 67 65 54 59 167 80 80 80 80 80 80 80 80 80 80 80 80 80 80 80 80 80 80 80 80 80 80 80 80 80 80 80 80 80 80 80 80 80 80 80 80 80 80 80 80 80 80 80 80 80 80 80 80 80 80 80 80 80 80 80 80 80 80 80 80 80 80 80 80 80 80 
255 255 255 255 255 255 255 255 255 255 255 255 255 255 255 255 255 255 255 255 255 255 255 255 255 255 255 255 255 255 255 255 255 255 255 255 255 255 255 255 255 255 255 255 255 255 255 255 255 255 255 255 255 255 255 255 255 255 255 255 255 255 255 255 255 255 255 255 255 255 255 255 255 255 255 255 255 255 255 255 255 255 255 255 255 255 255 255 255 255 255 255 255 255 255 255 255 255 255 255 255 255 255 255 255 255 255 255 255 255 255 255 255 255 255 255 255 255 255 255 255 255 255 255 255 255 255 255 255 255 255 255 255 255 255 255 255 255 255 255 255 255 255 255 255 255 255 255 255 255 255 255 255 255 255 255 255 255 255 255 255 255 255 255 255 254 254 255 255 255 255 255 255 255 255 255 255 255 255 255 255 255 255 255 254 254 253 255 254 253 252 231 70 73 75 78 77 78 77 78 77 79 79 79 78 80 81 80 79 80 80 80 80 80 79 79 80 80 80 78 79 185 251 252 252 254 253 253 253 253 252 252 253 253 253 253 253 253 253 253 252 252 251 252 251 251 252 251 246 249 245 229 135 84 78 79 79 79 79 79 78 77 77 77 77 77 78 79 78 76 74 76 76 74 73 72 72 70 68 65 68 73 80 80 80 80 80 80 80 80 80 80 80 80 80 80 80 80 80 80 80 80 80 80 80 80 80 80 80 80 80 80 80 80 80 80 80 80 80 80 80 80 80 80 80 80 80 80 80 80 80 80 80 80 80 80 80 80 80 80 80 80 80 80 80 80 80 80 
255 255 255 255 255 255 255 255 255 255 255 255 255 255 255 255 255 255 255 255 255 255 255 255 255 255 255 255 255 255 255 255 255 255 255 255 255 255 255 255 255 255 255 255 255 255 255 255 255 255 255 255 255 255 255 255 255 255 255 255 255 255 255 255 255 255 255 255 255 255 255 255 255 255 255 255 255 255 255 255 255 255 255 255 255 255 255 255 255 255 255 255 255 255 255 255 255 255 255 255 255 255 255 255 255 255 255 255 255 255 255 255 255 255 255 255 255 255 255 255 255 255 255 255 255 255 255 255 255 255 255 255 255 255 255 255 255 255 255 255 255 255 255 255 255 255 255 255 255 255 255 255 255 255 255 255 255 255 255 255 255 255 254 254 255 253 254 255 255 255 255 255 255 255 255 255 255 255 255 255 255 255 255 255 254 254 253 255 254 253 246 217 66 75 76 77 77 78 77 79 79 79 79 79 78 80 81 80 79 80 80 80 80 80 79 79 80 80 80 81 83 222 252 252 253 254 253 253 253 253 252 252 253 253 253 253 253 253 253 253 252 252 251 251 250 251 254 250 246 248 247 195 70 78 78 79 79 78 78 78 78 77 77 77 76 77 78 79 78 76 74 76 76 75 73 71 71 70 69 71 71 63 80 80 80 80 80 80 80 80 80 80 80 80 80 80 80 80 80 80 80 80 80 80 80 80 80 80 80 80 80 80 80 80 80 80 80 80 80 80 80 80 80 80 80 80 80 80 80 80 80 80 80 80 80 80 80 80 80 80 80 80 80 80 80 80 80 80 
255 255 255 255 255 255 255 255 255 255 255 255 255 255 255 255 255 255 255 255 255 255 255 255 255 255 255 255 255 255 255 255 255 255 255 255 255 255 255 255 255 255 255 255 255 255 255 255 255 255 255 255 255 255 255 255 255 255 255 255 255 255 255 255 255 255 255 255 255 255 255 255 255 255 255 255 255 255 255 255 255 255 255 255 255 255 255 255 255 255 255 255 255 255 255 255 255 255 255 255 255 255 255 255 255 255 255 255 255 255 255 255 255 255 255 255 255 255 255 255 255 255 255 255 255 255 255 255 255 255 255 255 255 255 255 255 255 255 255 255 255 255 255 255 255 255 255 255 255 255 255 255 255 255 255 255 255 255 255 255 255 255 253 254 255 255 255 255 255 255 255 255 255 255 255 255 255 255 255 255 255 255 255 255 254 254 253 255 254 253 244 185 71 76 76 77 78 78 77 79 80 79 79 79 78 80 81 80 80 80 80 79 80 80 79 79 80 80 80 83 77 230 252 252 253 254 253 253 253 253 252 252 253 253 253 253 253 253 253 253 252 252 251 250 250 252 253 249 245 248 237 157 78 83 78 79 79 78 78 78 78 77 77 77 77 78 78 78 78 76 74 76 75 75 74 71 72 72 70 69 69 62 80 80 80 80 80 80 80 80 80 80 80 80 80 80 80 80 80 80 80 80 80 80 80 80 80 80 80 80 80 80 80 80 80 80 80 80 80 80 80 80 80 80 80 80 80 80 80 80 80 80 80 80 80 80 80 80 80 80 80 80 80 80 80 80 80 80 
255 255 255 255 255 255 255 255 255 255 255 255 255 255 255 255 255 255 255 255 255 255 255 255 255 255 255 255 255 255 255 255 255 255 255 255 255 255 255 255 255 255 255 255 255 255 255 255 255 255 255 255 255 255 255 255 255 255 255 255 255 255 255 255 255 255 255 255 255 255 255 255 255 255 255 255 255 255 255 255 255 255 255 255 255 255 255 255 255 255 255 255 255 255 255 255 255 255 255 255 255 255 255 255 255 255 255 255 255 255 255 255 255 255 255 255 255 255 255 255 255 255 255 255 255 255 255 255 255 255 255 255 255 255 255 255 255 255 255 255 255 253 255 254 255 255 255 255 255 255 255 255 254 254 254 255 255 255 255 255 254 253 254 254 254 254 255 255 255 255 255 255 255 254 254 254 255 255 255 255 254 254 254 254 255 254 255 253 254 253 234 119 77 74 77 79 81 79 79 79 79 80 78 79 78 79 79 80 80 80 79 80 81 80 81 80 81 81 82 84 83 238 252 253 254 252 254 254 253 253 253 253 253 254 253 253 253 253 253 253 253 252 249 250 250 250 250 249 249 248 225 77 74 84 79 79 79 78 77 78 78 78 79 78 77 77 76 76 78 76 76 77 75 74 74 73 73 72 72 70 66 67 80 80 80 80 80 80 80 80 80 80 80 80 80 80 80 80 80 80 80 80 80 80 80 80 80 80 80 80 80 80 80 80 80 80 80 80 80 80 80 80 80 80 80 80 80 80 80 80 80 80 80 80 80 80 80 80 80 80 80 80 80 80 80 80 80 80 
255 255 255 255 255 255 255 255 255 255 255 255 255 255 255 255 255 255 255 255 255 255 255 255 255 255 255 255 255 255 255 255 255 255 255 255 255 255 255 255 255 255 255 255 255 255 255 255 255 255 255 255 255 255 255 255 255 255 255 255 255 255 255 255 255 255 255 255 255 255 255 255 255 255 255 255 255 255 255 255 255 255 255 255 255 255 255 255 255 255 255 255 255 255 255 255 255 255 255 255 255 255 255 255 255 255 255 255 255 255 255 255 255 255 255 255 255 255 255 255 255 255 255 255 255 255 255 255 255 255 255 255 255 255 255 255 255 255 255 255 255 253 255 254 255 255 255 255 255 255 255 254 254 254 254 255 255 255 252 253 254 255 253 254 254 253 255 255 255 255 255 255 255 255 255 255 255 255 255 255 254 254 254 254 255 254 255 253 254 250 208 70 76 82 78 78 79 78 78 79 79 80 78 79 78 79 79 80 81 80 79 80 81 81 81 80 80 82 81 94 137 244 252 253 254 252 254 254 253 253 253 253 253 254 253 253 253 253 253 253 251 253 252 250 250 250 250 250 247 245 194 72 84 84 79 79 79 79 76 78 78 78 78 78 77 77 76 76 78 76 76 77 75 75 74 73 73 72 72 71 68 67 80 80 80 80 80 80 80 80 80 80 80 80 80 80 80 80 80 80 80 80 80 80 80 80 80 80 80 80 80 80 80 80 80 80 80 80 80 80 80 80 80 80 80 80 80 80 80 80 80 80 80 80 80 80 80 80 80 80 80 80 80 80 80 80 80 80 
255 255 255 255 255 255 255 255 255 255 255 255 255 255 255 255 255 255 255 255 255 255 255 255 255 255 255 255 255 255 255 255 255 255 255 255 255 255 255 255 255 255 255 255 255 254 254 254 254 255 255 255 255 255 255 255 255 255 255 255 255 255 255 255 255 255 255 255 255 255 255 255 255 255 255 255 255 255 255 255 255 255 255 255 255 255 255 255 255 255 255 255 255 255 255 255 255 255 255 255 255 255 255 255 255 255 255 255 255 255 255 255 255 255 255 255 255 255 255 255 255 255 255 255 255 255 255 255 255 255 255 255 255 255 255 255 255 255 255 255 255 253 255 255 255 254 254 254 254 255 255 254 254 254 254 255 255 255 252 252 253 254 252 253 253 252 254 255 255 255 255 255 255 255 255 255 255 255 255 255 254 254 254 254 254 255 255 254 251 244 184 65 75 75 77 76 78 79 78 79 79 80 78 79 78 79 79 80 81 80 79 80 80 80 81 80 80 81 82 80 194 248 252 253 254 252 254 254 253 253 253 253 253 254 253 253 253 253 253 253 250 253 252 250 250 250 250 249 247 237 153 77 77 79 79 80 80 79 76 78 78 79 79 78 77 77 76 77 78 76 76 77 74 75 74 73 73 72 72 70 68 67 80 80 80 80 80 80 80 80 80 80 80 80 80 80 80 80 80 80 80 80 80 80 80 80 80 80 80 80 80 80 80 80 80 80 80 80 80 80 80 80 80 80 80 80 80 80 80 80 80 80 80 80 80 80 80 80 80 80 80 80 80 80 80 80 80 80 
255 255 255 255 255 255 255 255 255 255 255 255 255 255 255 255 255 255 255 255 255 255 255 255 255 255 255 255 255 255 255 255 255 255 255 255 255 255 255 255 255 255 255 255 255 254 254 254 254 255 255 255 255 255 255 255 255 255 255 255 255 255 255 255 255 255 255 255 255 255 255 255 255 255 255 255 255 255 255 255 255 255 255 255 255 255 255 255 255 255 255 255 255 255 255 255 255 255 255 255 255 255 255 255 255 255 255 255 255 255 255 255 255 255 255 255 255 255 255 255 255 255 255 255 255 255 255 255 255 255 255 255 255 255 255 255 255 255 255 255 255 254 255 255 254 254 254 253 254 254 255 254 254 255 254 255 255 255 254 254 253 252 251 252 253 252 254 254 255 255 255 255 255 255 255 255 255 255 255 255 254 254 254 254 254 254 255 254 248 237 143 62 77 77 77 76 77 78 79 79 79 80 78 79 78 79 79 81 81 81 79 80 80 81 80 80 80 82 89 69 229 252 252 253 254 252 254 254 253 253 253 253 253 254 253 253 253 253 253 253 251 252 252 250 250 250 250 252 248 224 105 79 75 77 80 81 80 79 76 78 78 79 78 78 77 77 76 77 77 76 76 77 74 75 74 73 73 72 72 69 66 67 80 80 80 80 80 80 80 80 80 80 80 80 80 80 80 80 80 80 80 80 80 80 80 80 80 80 80 80 80 80 80 80 80 80 80 80 80 80 80 80 80 80 80 80 80 80 80 80 80 80 80 80 80 80 80 80 80 80 80 80 80 80 80 80 80 80 
255 255 255 255 255 255 255 255 255 255 255 255 255 255 255 255 255 255 255 255 255 255 255 255 255 255 255 253 254 254 255 255 255 255 255 255 255 255 255 255 255 255 253 253 254 253 253 253 253 255 255 255 255 255 255 255 255 255 255 255 255 255 255 255 255 255 255 255 255 255 255 255 255 255 255 255 255 255 255 255 255 255 255 255 255 255 255 255 255 255 255 255 255 255 255 255 255 255 255 255 255 255 255 255 255 255 255 255 255 255 255 255 255 255 255 255 255 255 255 255 255 255 255 255 255 255 255 255 255 255 255 255 255 255 255 255 255 255 255 255 255 254 255 255 254 253 253 254 250 253 253 254 254 255 255 253 254 254 254 252 254 234 229 250 252 253 253 253 254 254 254 254 254 255 255 254 254 255 251 252 252 254 253 254 254 253 254 249 246 229 106 76 75 76 76 78 77 78 80 78 81 81 80 81 79 79 80 79 79 80 79 78 79 80 81 81 80 80 85 89 239 250 251 252 253 254 254 254 255 253 253 253 253 254 253 253 252 252 252 252 252 252 251 250 250 250 249 246 248 216 78 80 79 81 80 80 79 79 78 78 78 78 78 78 77 77 77 77 75 75 77 74 74 77 74 73 72 73 74 71 69 68 80 80 80 80 80 80 80 80 80 80 80 80 80 80 80 80 80 80 80 80 80 80 80 80 80 80 80 80 80 80 80 80 80 80 80 80 80 80 80 80 80 80 80 80 80 80 80 80 80 80 80 80 80 80 80 80 80 80 80 80 80 80 80 80 80 80 
255 255 255 255 255 255 255 255 255 255 255 255 255 255 255 255 255 255 255 255 254 254 254 254 253 254 254 253 254 254 255 254 254 254 254 254 254 254 254 254 254 254 254 254 255 254 254 254 254 255 255 255 255 255 255 255 255 255 255 255 255 255 255 255 255 255 255 255 255 255 255 255 255 255 255 255 255 255 255 255 255 255 255 255 255 255 255 255 255 255 255 255 255 255 255 255 255 255 255 255 255 255 255 255 255 255 255 255 255 255 255 255 255 255 255 255 255 255 255 255 255 255 255 255 255 255 255 255 255 255 255 255 255 255 255 255 255 255 255 255 255 253 254 253 252 252 245 200 245 251 255 254 253 251 251 253 253 254 250 252 247 246 243 228 242 253 253 253 254 254 254 254 254 255 255 254 254 250 240 254 249 251 253 254 253 253 254 252 245 211 67 80 75 79 76 79 80 78 80 78 81 80 79 80 79 79 80 78 78 79 79 78 79 80 81 84 78 84 77 203 254 255 252 253 253 253 254 254 255 253 253 253 253 254 253 253 253 253 253 253 252 252 251 250 250 249 249 248 246 192 78 81 81 82 80 80 79 79 78 78 78 77 78 77 77 78 78 78 76 76 76 75 74 78 74 74 72 72 72 71 70 67 80 80 80 80 80 80 80 80 80 80 80 80 80 80 80 80 80 80 80 80 80 80 80 80 80 80 80 80 80 80 80 80 80 80 80 80 80 80 80 80 80 80 80 80 80 80 80 80 80 80 80 80 80 80 80 80 80 80 80 80 80 80 80 80 80 80 
255 255 255 255 255 255 255 255 255 255 255 255 255 255 255 255 255 255 255 255 253 253 253 253 252 253 254 253 254 254 255 253 253 253 253 253 253 253 253 253 253 253 254 254 255 254 254 254 254 255 255 255 255 255 255 255 255 255 255 255 255 255 255 255 255 255 255 255 255 255 255 255 255 255 255 255 255 255 255 255 255 255 255 255 255 255 255 255 255 255 255 255 255 255 255 255 255 255 255 255 255 255 255 255 255 255 255 255 255 255 255 255 255 255 255 255 255 255 255 255 255 255 255 255 255 255 255 255 255 255 255 255 255 255 255 255 255 255 255 255 255 253 254 253 252 248 251 200 219 249 255 253 253 253 253 254 253 254 253 245 248 252 249 235 227 252 252 252 252 254 254 254 254 255 255 254 249 234 226 229 252 254 254 254 253 253 254 252 245 198 55 77 75 74 76 77 77 78 80 78 81 79 79 79 79 79 80 78 78 79 79 81 80 80 79 84 78 83 91 241 252 250 253 254 252 252 254 254 255 253 253 253 253 254 253 253 253 253 253 253 252 252 251 250 249 249 249 250 243 181 78 81 81 83 80 80 79 79 78 78 78 77 78 77 78 79 79 79 76 76 76 75 74 77 74 75 72 71 72 71 70 67 80 80 80 80 80 80 80 80 80 80 80 80 80 80 80 80 80 80 80 80 80 80 80 80 80 80 80 80 80 80 80 80 80 80 80 80 80 80 80 80 80 80 80 80 80 80 80 80 80 80 80 80 80 80 80 80 80 80 80 80 80 80 80 80 80 80 
255 255 255 255 255 255 255 255 255 255 254 254 254 254 254 254 253 253 254 254 254 253 251 254 250 253 252 251 255 255 252 254 255 254 252 252 253 252 253 248 246 247 250 253 254 254 253 255 252 255 255 255 255 255 255 255 255 255 255 255 255 255 255 255 255 255 255 255 255 255 255 255 255 255 255 255 255 255 255 255 255 255 255 255 255 255 255 255 255 255 255 255 255 255 255 255 255 255 254 254 254 254 254 254 254 253 255 254 255 254 254 254 255 255 255 255 255 255 255 255 255 255 255 255 255 255 255 255 255 255 255 255 255 255 255 255 255 255 255 255 255 254 255 255 249 253 253 229 190 237 255 252 254 255 255 253 252 249 244 248 253 252 248 240 234 239 248 251 253 253 254 255 253 252 255 253 249 231 183 192 254 254 253 254 252 254 253 252 250 196 60 75 76 78 76 78 79 80 80 78 80 78 79 80 79 79 80 80 78 78 78 80 80 79 79 75 76 71 153 251 250 250 253 253 252 252 253 254 255 253 252 252 253 255 254 253 253 252 252 253 254 252 251 250 249 249 249 250 250 173 79 81 81 81 79 79 79 79 79 78 78 78 78 78 77 77 77 78 76 76 76 76 76 76 73 75 74 70 73 71 69 68 80 80 80 80 80 80 80 80 80 80 80 80 80 80 80 80 80 80 80 80 80 80 80 80 80 80 80 80 80 80 80 80 80 80 80 80 80 80 80 80 80 80 80 80 80 80 80 80 80 80 80 80 80 80 80 80 80 80 80 80 80 80 80 80 80 80 
255 255 255 255 255 255 255 255 255 255 254 254 254 254 254 255 254 254 255 254 252 251 252 254 253 255 253 246 253 254 253 251 253 253 253 253 254 252 248 252 251 249 251 255 252 254 253 254 253 255 255 255 255 255 255 255 255 255 255 255 255 255 255 255 255 255 255 255 255 255 255 255 255 255 255 255 255 255 255 255 255 255 255 255 255 255 255 255 255 255 255 255 255 255 255 255 255 255 254 254 254 254 254 254 255 254 255 255 255 254 254 254 255 255 255 255 255 255 255 255 255 255 255 255 255 255 255 255 255 255 255 255 255 255 255 255 255 255 255 255 255 254 255 255 252 254 253 237 204 199 247 249 251 253 253 252 251 251 238 244 251 253 244 241 236 205 230 249 252 252 255 254 254 252 254 253 225 206 109 243 254 254 254 254 252 254 253 253 246 181 62 76 77 80 76 79 79 78 79 79 82 78 79 80 79 79 80 80 79 79 79 80 79 79 80 85 80 89 218 250 253 246 254 254 253 253 253 254 255 253 252 252 253 253 252 252 253 252 252 253 253 252 251 250 250 249 249 249 250 168 78 80 81 81 79 79 79 79 79 78 78 78 78 78 77 77 77 78 74 75 77 77 76 77 73 74 73 71 74 71 70 68 80 80 80 80 80 80 80 80 80 80 80 80 80 80 80 80 80 80 80 80 80 80 80 80 80 80 80 80 80 80 80 80 80 80 80 80 80 80 80 80 80 80 80 80 80 80 80 80 80 80 80 80 80 80 80 80 80 80 80 80 80 80 80 80 80 80 
255 255 255 255 255 255 255 255 255 255 254 254 254 254 254 254 253 252 252 253 250 251 251 250 250 245 241 224 218 209 189 172 175 180 184 195 210 222 226 245 251 251 250 249 253 250 250 253 253 255 255 255 255 255 255 255 255 255 255 255 255 255 255 255 255 255 255 255 255 255 255 255 255 255 255 255 255 255 255 255 255 255 255 255 254 254 254 254 254 254 254 255 255 255 255 255 255 255 255 255 255 255 255 255 254 254 254 254 255 254 254 254 255 255 255 255 255 255 255 255 255 255 255 255 255 255 255 255 255 255 255 255 255 255 255 255 255 255 255 255 255 255 255 255 253 252 252 247 172 214 221 251 251 253 253 254 252 233 235 239 244 245 239 233 227 212 201 219 247 252 253 254 253 255 249 246 188 109 117 244 252 252 253 253 253 255 253 250 240 171 62 76 77 79 76 79 78 77 79 80 83 78 79 80 79 79 80 80 80 80 80 80 80 80 81 80 76 81 245 251 252 251 254 255 254 254 254 254 254 253 252 252 253 252 253 253 253 252 252 253 252 251 250 250 250 250 249 248 249 164 78 80 81 80 79 79 79 79 79 78 78 78 78 78 77 77 77 77 74 75 77 77 76 77 73 74 73 71 74 71 70 68 80 80 80 80 80 80 80 80 80 80 80 80 80 80 80 80 80 80 80 80 80 80 80 80 80 80 80 80 80 80 80 80 80 80 80 80 80 80 80 80 80 80 80 80 80 80 80 80 80 80 80 80 80 80 80 80 80 80 80 80 80 80 80 80 80 80 
255 255 255 255 255 255 255 255 255 255 254 254 254 255 255 254 253 251 251 251 252 252 250 241 227 195 138 68 68 73 65 74 71 71 72 65 63 66 69 116 183 227 243 252 251 251 252 254 253 255 255 255 255 255 255 255 255 255 255 255 255 255 255 255 255 255 255 255 255 255 255 255 255 255 255 255 255 255 255 255 255 255 255 255 254 254 254 254 254 254 254 255 255 255 255 255 255 255 254 254 254 254 254 253 253 253 253 253 255 254 254 254 255 255 255 255 255 255 255 255 255 255 255 255 255 255 255 255 255 255 255 255 255 255 255 255 255 255 255 255 255 255 254 254 255 255 253 251 178 177 163 246 249 251 252 248 237 224 234 235 236 233 227 219 216 203 206 193 217 252 253 253 253 251 242 236 100 113 168 254 254 252 251 253 254 255 254 250 235 165 60 75 76 78 75 80 78 77 79 80 82 78 79 80 79 79 80 80 80 80 80 81 80 81 81 89 91 143 249 252 248 255 255 255 254 254 254 254 254 253 252 252 253 253 254 255 253 252 252 253 252 251 250 250 250 250 249 249 248 165 79 80 81 80 79 79 79 79 79 78 78 78 78 78 76 76 76 76 76 76 76 76 76 77 73 75 74 70 73 71 70 68 80 80 80 80 80 80 80 80 80 80 80 80 80 80 80 80 80 80 80 80 80 80 80 80 80 80 80 80 80 80 80 80 80 80 80 80 80 80 80 80 80 80 80 80 80 80 80 80 80 80 80 80 80 80 80 80 80 80 80 80 80 80 80 80 80 80 
255 255 255 255 255 255 253 254 254 253 255 255 255 254 253 253 253 249 254 246 252 242 227 146 75 64 74 77 76 76 78 75 74 73 74 76 76 74 73 74 59 64 121 224 246 242 250 255 247 254 255 255 254 255 255 254 255 255 255 255 255 255 255 255 255 255 255 255 255 255 255 255 255 255 255 255 255 255 255 255 255 255 255 255 253 254 254 253 254 253 253 255 255 255 255 255 255 255 254 251 251 253 253 253 252 254 254 255 255 253 254 253 255 255 255 254 253 254 254 255 255 255 255 255 255 255 255 255 255 255 255 255 255 255 255 255 255 255 255 255 255 254 254 254 254 253 253 250 211 140 201 171 250 253 253 232 206 219 225 215 214 206 200 203 164 202 196 197 195 238 252 252 250 244 236 175 112 112 207 252 253 253 253 252 254 254 253 255 233 174 59 74 78 76 76 77 77 78 79 80 78 79 80 80 79 81 81 79 81 81 81 79 79 79 78 78 87 216 253 253 253 253 253 253 253 253 254 255 254 253 253 253 253 253 253 253 253 252 252 253 253 251 251 251 249 250 248 251 251 174 79 79 81 81 78 78 78 80 79 77 78 78 78 78 76 77 77 78 75 76 77 76 76 75 74 73 72 72 73 71 70 68 80 80 80 80 80 80 80 80 80 80 80 80 80 80 80 80 80 80 80 80 80 80 80 80 80 80 80 80 80 80 80 80 80 80 80 80 80 80 80 80 80 80 80 80 80 80 80 80 80 80 80 80 80 80 80 80 80 80 80 80 80 80 80 80 80 80 
255 255 255 255 255 255 253 254 254 253 255 255 255 251 251 253 253 253 254 252 236 166 91 77 78 81 80 77 79 78 78 80 79 79 81 79 80 77 79 76 78 77 68 74 176 245 251 250 251 253 254 254 254 254 254 254 255 255 255 255 255 255 255 255 255 255 255 255 255 255 255 255 255 255 255 255 255 255 255 255 255 255 255 255 254 255 255 254 254 253 253 251 251 251 250 249 251 251 248 253 253 249 250 250 250 253 254 254 255 250 252 251 254 254 254 255 253 253 254 255 255 255 255 255 255 255 255 255 255 255 255 255 255 255 255 255 255 255 255 255 255 254 254 254 252 253 254 252 236 129 192 165 207 251 233 208 199 211 178 209 199 198 167 145 180 148 191 194 184 196 239 247 248 237 189 102 109 90 251 253 250 254 255 253 253 253 253 253 219 189 58 74 75 80 76 78 79 76 79 80 79 80 80 79 80 81 81 81 80 80 80 80 81 81 81 73 179 240 254 254 254 255 254 253 253 253 254 254 253 253 253 253 253 253 253 253 253 252 252 253 253 251 251 251 249 250 248 249 252 179 81 81 82 81 78 78 78 79 79 77 78 78 78 78 76 77 77 78 75 76 77 76 76 75 74 73 72 72 73 71 70 68 80 80 80 80 80 80 80 80 80 80 80 80 80 80 80 80 80 80 80 80 80 80 80 80 80 80 80 80 80 80 80 80 80 80 80 80 80 80 80 80 80 80 80 80 80 80 80 80 80 80 80 80 80 80 80 80 80 80 80 80 80 80 80 80 80 80 
255 255 255 255 255 255 253 254 254 253 255 255 255 251 251 251 250 249 231 190 67 75 75 82 72 77 82 79 78 79 80 78 79 80 81 76 82 81 81 72 72 77 76 65 71 54 181 236 254 251 252 252 253 254 254 253 255 255 255 255 255 255 255 255 255 255 255 255 255 255 255 255 255 255 255 255 255 255 255 255 255 255 255 255 253 254 254 253 254 253 253 252 252 252 251 251 251 250 246 247 242 239 245 241 240 236 240 240 249 248 251 253 253 252 254 255 254 254 255 255 255 255 255 255 255 255 255 255 255 255 255 255 255 255 255 255 255 255 255 255 255 253 254 254 254 254 253 252 226 163 122 177 159 224 199 194 194 178 204 148 185 245 241 195 152 200 144 184 183 187 186 219 229 164 105 125 232 176 228 255 250 251 252 253 253 253 253 254 223 188 65 70 77 75 76 77 76 76 78 80 80 81 80 78 79 78 79 81 79 79 79 77 81 82 79 144 242 242 251 253 253 254 253 253 253 253 253 253 252 252 252 252 252 253 253 253 253 252 252 253 254 251 251 251 249 250 248 253 252 193 78 78 80 80 78 78 78 79 78 76 77 78 78 78 76 77 77 78 75 76 77 76 76 75 74 73 72 72 73 71 70 68 80 80 80 80 80 80 80 80 80 80 80 80 80 80 80 80 80 80 80 80 80 80 80 80 80 80 80 80 80 80 80 80 80 80 80 80 80 80 80 80 80 80 80 80 80 80 80 80 80 80 80 80 80 80 80 80 80 80 80 80 80 80 80 80 80 80 
255 255 255 255 255 255 252 253 254 253 254 254 254 252 255 253 244 227 141 67 78 75 78 76 82 79 78 82 77 80 80 81 78 79 78 79 82 81 81 78 79 71 73 73 74 76 46 133 236 240 248 254 252 253 253 251 255 255 255 254 254 254 254 255 255 255 255 255 255 255 255 255 255 255 255 255 255 254 254 255 254 255 255 255 255 254 252 250 253 251 253 252 255 248 249 246 240 237 207 174 132 130 117 113 116 113 106 108 130 183 234 248 241 253 251 248 250 253 252 254 254 254 254 255 255 255 255 255 255 255 255 255 255 255 255 255 255 255 255 255 255 254 254 254 254 252 251 249 198 133 188 143 182 159 188 188 189 145 207 135 207 249 240 178 144 154 131 182 183 185 183 178 204 111 107 184 189 83 144 241 252 252 252 254 253 253 255 254 221 178 97 71 72 77 78 78 77 80 78 79 77 80 79 81 78 76 77 81 81 81 78 82 66 87 86 225 255 253 252 252 252 252 253 253 253 253 253 253 253 252 252 252 252 252 252 252 253 253 253 253 251 250 249 250 250 249 249 250 245 202 78 75 77 77 78 78 79 77 77 78 78 79 78 78 77 79 77 77 77 76 76 76 75 76 75 74 73 72 72 70 68 66 80 80 80 80 80 80 80 80 80 80 80 80 80 80 80 80 80 80 80 80 80 80 80 80 80 80 80 80 80 80 80 80 80 80 80 80 80 80 80 80 80 80 80 80 80 80 80 80 80 80 80 80 80 80 80 80 80 80 80 80 80 80 80 80 80 80 
255 255 255 255 255 255 254 255 255 254 253 253 253 250 255 238 217 97 64 80 80 78 80 78 79 82 79 85 72 74 98 140 164 168 165 113 81 78 82 79 78 77 76 74 72 80 70 55 79 220 247 250 251 251 252 252 255 255 255 254 254 254 254 255 255 255 255 255 255 255 255 255 255 255 255 255 255 254 254 255 255 255 255 255 254 255 253 251 248 251 253 248 250 239 240 187 122 131 129 136 148 146 144 143 145 141 143 139 126 127 101 135 235 248 252 249 253 253 251 254 254 254 254 255 255 255 255 255 255 255 255 255 255 255 255 255 255 255 255 255 255 254 254 254 253 255 251 246 178 138 236 139 153 187 179 179 187 144 191 139 144 241 230 186 122 123 162 181 183 179 183 184 151 114 139 232 121 150 89 245 254 253 254 254 254 254 254 254 220 185 126 69 71 73 77 78 77 79 78 78 78 78 78 81 78 77 77 81 79 78 83 80 78 81 135 247 246 251 252 252 252 252 253 253 253 253 253 253 253 252 252 252 252 252 252 252 250 250 250 250 252 251 251 250 250 249 249 250 241 224 76 78 75 80 78 78 79 77 77 78 78 78 78 79 77 79 76 78 77 76 76 76 76 75 76 72 71 70 69 70 68 66 80 80 80 80 80 80 80 80 80 80 80 80 80 80 80 80 80 80 80 80 80 80 80 80 80 80 80 80 80 80 80 80 80 80 80 80 80 80 80 80 80 80 80 80 80 80 80 80 80 80 80 80 80 80 80 80 80 80 80 80 80 80 80 80 80 80 
255 255 255 255 255 255 255 255 255 253 253 252 250 252 238 178 75 75 80 77 78 80 79 81 79 83 76 134 208 217 222 222 225 229 236 216 217 214 172 77 79 76 77 77 76 75 67 71 65 62 195 247 247 247 253 252 255 255 255 255 255 255 255 255 255 255 255 255 255 255 255 255 255 255 255 255 255 255 254 254 254 254 254 254 253 254 253 252 240 248 242 201 125 136 140 147 149 138 135 138 145 142 142 143 141 141 144 143 136 142 145 133 121 76 174 248 251 250 252 254 254 254 254 255 255 255 255 255 255 255 255 255 255 255 255 255 255 255 255 255 255 254 254 254 253 253 252 217 197 212 231 185 129 133 134 139 135 128 186 80 113 180 190 142 105 92 187 144 140 140 133 149 133 115 195 226 158 187 145 210 252 252 252 255 254 254 254 253 221 177 188 68 74 75 76 76 77 77 78 78 78 78 78 80 79 80 79 79 80 80 78 79 72 145 244 251 253 248 253 253 253 253 253 253 253 253 252 252 252 252 252 252 252 251 251 251 252 252 252 252 252 251 251 250 250 249 249 247 249 235 125 73 78 81 78 78 79 77 77 78 78 78 78 79 77 78 76 78 77 76 76 76 75 74 73 72 72 71 70 68 67 66 80 80 80 80 80 80 80 80 80 80 80 80 80 80 80 80 80 80 80 80 80 80 80 80 80 80 80 80 80 80 80 80 80 80 80 80 80 80 80 80 80 80 80 80 80 80 80 80 80 80 80 80 80 80 80 80 80 80 80 80 80 80 80 80 80 80 
255 255 255 255 255 255 253 253 253 252 253 252 249 228 166 61 77 85 77 81 78 81 81 85 78 78 114 236 227 221 172 232 232 234 229 218 186 214 210 182 75 80 81 76 75 77 73 70 69 63 44 173 244 248 254 253 255 255 255 255 255 255 255 255 255 255 255 255 255 255 255 255 255 255 255 255 255 254 255 254 254 254 254 254 253 254 252 249 242 177 125 143 137 142 147 147 144 144 145 142 144 145 143 141 137 138 138 136 132 140 137 129 126 133 95 178 248 248 253 253 254 254 254 255 255 255 255 255 255 255 255 255 255 255 255 255 255 255 255 255 255 254 254 255 254 252 252 198 171 210 182 194 160 194 195 193 184 138 207 69 85 107 110 88 82 84 171 179 175 179 176 173 138 154 208 163 179 206 178 227 253 253 253 254 254 254 255 250 231 178 190 112 78 73 76 75 76 76 77 78 78 78 78 80 79 80 81 79 80 77 82 75 147 245 243 251 245 255 253 253 253 253 253 253 253 253 252 252 252 252 252 252 252 250 250 250 249 249 249 249 251 250 249 250 250 249 250 248 251 242 181 77 85 78 78 78 79 78 77 78 78 79 78 78 77 79 77 78 77 76 76 76 75 74 73 70 70 69 69 68 67 66 80 80 80 80 80 80 80 80 80 80 80 80 80 80 80 80 80 80 80 80 80 80 80 80 80 80 80 80 80 80 80 80 80 80 80 80 80 80 80 80 80 80 80 80 80 80 80 80 80 80 80 80 80 80 80 80 80 80 80 80 80 80 80 80 80 80 
255 255 255 255 255 255 254 252 253 252 254 252 234 144 69 80 84 81 82 82 78 80 80 82 86 117 230 243 231 159 62 218 226 251 229 168 63 189 218 210 177 79 82 79 77 76 73 71 70 73 73 60 165 251 251 246 254 255 254 253 254 255 253 255 255 255 255 255 255 255 255 255 255 255 255 255 255 254 254 254 255 247 249 251 254 246 249 238 133 130 141 146 145 143 142 144 145 144 135 149 144 137 139 132 165 197 218 209 196 166 132 123 137 128 133 95 156 252 243 252 254 255 254 253 254 254 253 255 255 255 255 255 255 255 255 255 255 255 255 255 255 253 255 255 250 249 248 194 152 197 188 221 223 223 224 223 225 210 222 95 68 79 68 63 67 146 207 219 217 227 229 228 223 214 221 129 158 163 182 244 253 252 251 253 254 254 254 255 248 180 178 180 67 71 75 77 77 74 77 77 79 77 78 79 79 79 80 82 82 74 82 127 229 252 244 251 249 249 253 252 252 252 252 252 252 252 250 250 250 250 251 250 250 250 248 248 248 248 249 250 248 249 250 246 247 249 251 249 249 242 213 62 76 79 78 79 79 79 79 78 78 78 78 77 79 77 76 76 77 77 76 75 73 73 72 72 71 70 70 69 66 67 80 80 80 80 80 80 80 80 80 80 80 80 80 80 80 80 80 80 80 80 80 80 80 80 80 80 80 80 80 80 80 80 80 80 80 80 80 80 80 80 80 80 80 80 80 80 80 80 80 80 80 80 80 80 80 80 80 80 80 80 80 80 80 80 80 80 
255 255 255 255 255 255 252 250 251 248 251 240 150 72 79 79 77 82 79 79 79 80 80 81 84 230 250 241 203 81 90 81 219 220 199 62 79 85 227 233 222 174 72 76 71 78 74 73 74 68 67 72 51 148 247 251 248 249 252 253 254 254 253 255 255 255 255 255 255 255 255 255 255 255 255 255 255 254 254 254 254 252 254 250 243 238 172 110 138 146 140 144 144 145 145 143 146 145 148 140 142 140 177 245 253 255 240 251 233 241 240 181 131 129 130 131 91 139 251 249 249 251 253 251 254 255 254 255 255 255 255 255 255 255 255 255 255 255 255 255 255 254 255 255 249 249 250 213 206 227 227 224 226 227 226 225 224 222 222 214 211 92 73 143 220 237 229 225 225 226 226 227 228 222 236 228 199 167 193 251 254 254 252 253 254 254 254 253 250 176 182 190 72 84 72 76 77 75 77 77 79 78 77 79 75 78 82 81 80 87 81 231 252 248 249 250 248 249 250 250 250 250 249 249 249 249 249 249 249 248 250 249 248 249 247 248 247 247 249 250 249 249 249 247 247 249 249 250 248 247 233 79 80 85 78 78 79 78 78 78 78 78 78 77 77 76 76 77 76 76 76 75 73 73 72 71 70 69 70 68 67 67 80 80 80 80 80 80 80 80 80 80 80 80 80 80 80 80 80 80 80 80 80 80 80 80 80 80 80 80 80 80 80 80 80 80 80 80 80 80 80 80 80 80 80 80 80 80 80 80 80 80 80 80 80 80 80 80 80 80 80 80 80 80 80 80 80 80 
255 255 255 255 255 255 253 253 252 248 242 175 69 76 81 78 77 79 81 81 80 80 80 82 220 233 251 227 97 74 87 86 67 115 75 74 83 85 131 235 243 218 141 79 83 76 75 74 73 69 74 69 58 68 194 242 251 250 254 252 253 253 252 255 255 255 255 255 255 255 255 255 255 255 255 255 255 254 254 254 255 252 251 244 194 116 138 135 136 145 143 145 144 144 143 144 145 144 147 139 168 249 254 254 251 243 255 244 133 135 136 223 219 206 151 133 116 120 95 248 250 253 254 253 254 254 253 255 255 255 255 255 255 255 255 255 255 255 255 255 255 253 253 252 250 241 224 227 231 224 217 227 226 224 223 227 226 226 225 196 213 211 225 227 237 223 227 228 225 227 227 227 223 225 225 226 225 231 215 237 251 253 253 253 254 254 254 254 249 179 175 188 192 89 70 74 77 75 77 76 77 77 77 78 77 78 79 81 72 171 241 247 249 247 248 248 247 248 247 247 247 247 249 249 249 249 247 247 247 247 248 248 247 247 247 248 247 247 247 248 250 249 248 248 248 248 248 247 247 246 246 182 72 78 78 78 79 77 78 78 77 75 76 77 76 76 75 75 75 76 75 74 73 71 70 70 69 68 69 66 67 67 80 80 80 80 80 80 80 80 80 80 80 80 80 80 80 80 80 80 80 80 80 80 80 80 80 80 80 80 80 80 80 80 80 80 80 80 80 80 80 80 80 80 80 80 80 80 80 80 80 80 80 80 80 80 80 80 80 80 80 80 80 80 80 80 80 80 
255 255 255 255 255 253 253 255 253 248 209 63 78 80 81 82 79 80 80 80 78 80 82 109 240 253 249 187 81 68 184 72 66 88 90 164 112 79 78 232 246 225 200 82 87 81 76 73 71 73 71 68 65 67 63 220 235 251 253 254 253 254 254 255 255 255 255 255 255 255 254 255 255 255 255 255 255 250 255 251 251 250 242 165 113 138 140 137 143 145 146 146 144 145 143 144 144 145 142 125 246 244 247 253 250 247 240 244 150 144 169 231 222 204 205 118 124 123 114 177 250 254 251 255 253 253 254 255 255 255 255 255 255 255 255 255 255 255 255 254 255 250 253 246 236 221 230 225 223 227 219 228 223 227 225 228 227 230 231 226 220 219 226 231 232 227 222 224 229 225 228 225 227 225 229 223 217 224 221 215 246 252 255 254 254 255 250 247 253 203 183 180 193 208 85 83 74 81 78 75 79 76 78 81 80 74 81 97 210 243 252 246 245 246 247 246 245 245 247 247 247 247 248 248 249 249 248 249 249 247 246 246 245 246 246 247 245 245 245 245 249 249 249 249 248 248 247 245 245 242 250 229 74 73 83 82 75 77 78 77 76 76 77 77 75 75 74 75 75 75 74 72 73 73 72 71 70 69 68 67 64 65 80 80 80 80 80 80 80 80 80 80 80 80 80 80 80 80 80 80 80 80 80 80 80 80 80 80 80 80 80 80 80 80 80 80 80 80 80 80 80 80 80 80 80 80 80 80 80 80 80 80 80 80 80 80 80 80 80 80 80 80 80 80 80 80 80 80 
255 255 254 255 255 252 255 251 241 222 90 85 80 82 80 79 82 81 80 80 85 80 78 155 245 254 239 106 87 85 223 189 66 87 71 240 174 74 79 216 235 239 225 77 86 75 79 79 78 74 69 68 68 67 61 77 243 244 251 253 253 253 254 255 255 255 255 255 255 255 254 255 255 255 255 255 255 248 252 248 252 236 138 111 134 135 140 137 143 145 146 145 145 144 144 143 144 144 142 153 247 253 253 253 249 246 251 191 144 143 240 226 222 214 209 185 123 123 119 72 231 243 250 254 253 254 254 255 255 255 255 255 255 255 255 255 255 255 254 254 255 254 247 237 224 227 226 229 224 226 214 224 224 225 225 225 226 228 225 224 226 231 226 228 228 228 227 227 227 222 224 223 225 222 220 221 222 212 225 219 210 246 252 253 252 255 255 254 253 216 181 180 193 199 196 78 72 71 77 77 79 73 74 87 79 68 113 237 242 244 243 243 244 245 246 247 246 246 249 249 249 249 245 246 246 247 246 247 247 247 246 246 246 245 246 246 246 246 246 246 243 244 244 245 245 246 245 245 245 242 236 219 129 80 75 77 81 79 79 79 77 76 77 77 75 75 74 75 75 75 73 72 73 72 72 67 67 68 68 67 66 64 80 80 80 80 80 80 80 80 80 80 80 80 80 80 80 80 80 80 80 80 80 80 80 80 80 80 80 80 80 80 80 80 80 80 80 80 80 80 80 80 80 80 80 80 80 80 80 80 80 80 80 80 80 80 80 80 80 80 80 80 80 80 80 80 80 80 
255 255 254 255 255 252 247 244 234 119 72 78 84 79 81 82 80 79 80 83 82 81 81 189 246 249 228 76 75 109 240 237 179 72 211 230 213 67 77 131 236 247 234 74 82 80 80 76 72 75 70 70 65 64 70 68 122 240 250 253 253 254 252 255 255 255 255 255 255 255 254 255 255 255 255 255 255 249 253 247 245 110 121 136 131 135 146 141 144 145 145 144 144 144 145 146 146 147 133 195 252 251 252 253 253 248 238 148 149 193 252 239 228 213 208 195 157 118 120 121 78 250 255 252 253 255 254 255 255 255 255 255 255 255 255 255 255 253 253 253 254 251 237 224 230 229 231 223 222 221 206 210 223 223 225 223 224 227 227 227 228 232 226 224 225 225 224 220 222 222 222 222 222 219 218 214 217 204 221 219 221 210 241 252 253 253 253 254 252 232 161 182 182 197 199 210 145 86 69 74 70 73 70 89 141 219 235 241 235 239 241 240 240 241 242 241 241 242 245 245 245 245 243 245 245 246 242 244 244 242 241 241 240 241 242 242 240 240 240 240 241 241 241 241 243 245 246 243 243 240 242 233 213 89 72 76 82 77 77 76 75 75 77 77 75 74 74 75 74 74 73 71 71 71 70 67 69 69 69 68 67 63 80 80 80 80 80 80 80 80 80 80 80 80 80 80 80 80 80 80 80 80 80 80 80 80 80 80 80 80 80 80 80 80 80 80 80 80 80 80 80 80 80 80 80 80 80 80 80 80 80 80 80 80 80 80 80 80 80 80 80 80 80 80 80 80 80 80 
255 255 254 255 255 252 247 253 126 78 76 78 84 80 79 80 84 81 81 82 80 79 80 180 248 236 140 75 79 216 249 253 250 252 253 251 234 139 84 68 200 239 229 73 77 81 79 77 77 74 73 71 72 68 70 68 68 118 244 252 253 253 252 255 255 255 255 255 255 255 255 255 255 255 255 255 255 252 248 233 116 120 137 133 137 140 143 147 144 145 144 143 144 145 145 144 143 143 137 221 249 249 250 250 251 241 170 154 174 252 242 233 236 226 213 199 196 133 120 116 94 108 249 251 254 255 255 255 255 255 255 255 255 255 255 255 255 252 252 252 252 242 220 233 227 234 225 226 215 210 197 187 218 220 221 222 224 227 220 222 224 233 225 223 229 213 227 225 218 218 212 212 209 212 212 210 203 210 206 213 217 212 217 239 252 250 252 251 254 247 167 175 186 185 191 209 205 203 217 224 226 226 230 224 225 238 228 243 233 239 233 237 237 239 239 236 236 238 240 240 240 240 236 237 237 238 239 239 239 239 238 238 237 236 237 237 239 239 239 239 239 239 239 233 234 238 240 236 237 236 242 250 231 68 80 82 70 77 78 77 75 75 76 76 75 74 75 76 74 74 72 71 70 69 69 68 67 66 65 67 65 66 80 80 80 80 80 80 80 80 80 80 80 80 80 80 80 80 80 80 80 80 80 80 80 80 80 80 80 80 80 80 80 80 80 80 80 80 80 80 80 80 80 80 80 80 80 80 80 80 80 80 80 80 80 80 80 80 80 80 80 80 80 80 80 80 80 80 
253 255 255 253 253 252 246 212 81 82 80 81 81 79 82 81 83 83 81 81 82 81 88 130 223 222 71 81 77 252 248 251 251 249 247 248 247 190 66 79 117 235 218 70 78 79 79 78 77 77 74 73 70 70 67 69 70 62 238 250 251 252 254 255 255 255 255 255 255 255 254 255 255 255 255 254 255 252 246 122 114 129 133 136 138 142 145 145 144 143 144 142 148 143 145 140 141 141 132 216 237 240 248 248 247 225 135 140 244 247 247 248 234 225 212 197 185 161 112 114 113 108 152 249 254 255 251 255 255 255 255 255 255 255 253 254 254 253 253 250 250 228 230 225 232 229 222 220 210 199 190 184 203 215 213 219 214 226 220 217 223 229 228 219 227 220 217 224 212 209 204 197 202 200 197 198 201 202 206 213 208 213 216 219 251 252 254 253 253 250 200 168 184 185 192 197 202 202 206 215 221 214 218 224 219 228 227 229 230 230 231 235 233 233 235 234 234 235 235 234 234 235 235 235 235 236 234 234 234 232 233 234 234 232 233 234 236 235 235 236 236 234 236 235 235 235 235 236 235 236 240 239 224 156 70 81 87 78 76 76 75 77 76 76 75 72 74 75 72 71 71 71 70 69 68 69 69 67 65 66 61 62 80 80 80 80 80 80 80 80 80 80 80 80 80 80 80 80 80 80 80 80 80 80 80 80 80 80 80 80 80 80 80 80 80 80 80 80 80 80 80 80 80 80 80 80 80 80 80 80 80 80 80 80 80 80 80 80 80 80 80 80 80 80 80 80 80 80 
253 254 254 253 252 252 240 168 75 87 82 84 82 80 82 81 83 83 81 81 79 80 82 83 230 239 129 83 137 242 249 249 252 251 250 244 245 227 67 51 117 223 180 80 82 80 79 80 78 77 76 74 71 70 69 69 73 65 177 243 251 255 255 255 255 255 255 255 255 255 253 254 254 254 252 251 253 240 144 112 130 131 133 135 138 141 143 143 145 144 144 147 142 146 134 133 163 189 196 201 185 191 183 186 196 169 150 139 246 250 245 250 233 226 216 198 188 176 111 120 123 112 85 251 248 252 255 255 255 255 255 255 255 255 253 254 254 252 250 250 238 222 229 228 226 224 215 210 200 190 185 178 189 209 199 217 208 223 213 210 219 220 224 212 224 213 209 219 207 207 196 181 197 191 190 194 197 201 205 211 210 207 211 215 235 252 254 252 253 252 238 163 175 181 183 192 197 204 209 207 207 213 216 220 218 222 220 224 227 228 229 230 230 230 231 228 227 228 229 228 228 229 227 228 230 231 230 230 230 231 231 231 231 229 230 230 232 231 231 232 231 232 232 231 231 232 232 232 233 230 234 232 234 226 72 74 71 76 75 75 74 76 76 76 76 73 73 72 71 71 70 70 68 70 70 67 67 66 66 66 64 63 80 80 80 80 80 80 80 80 80 80 80 80 80 80 80 80 80 80 80 80 80 80 80 80 80 80 80 80 80 80 80 80 80 80 80 80 80 80 80 80 80 80 80 80 80 80 80 80 80 80 80 80 80 80 80 80 80 80 80 80 80 80 80 80 80 80 
252 253 253 254 252 247 222 67 76 83 84 80 83 79 82 82 84 82 81 81 84 81 80 76 187 229 244 122 213 248 240 245 247 245 245 240 246 243 137 180 235 232 109 83 81 82 78 80 80 78 76 77 72 71 69 68 81 74 76 236 252 250 253 255 255 255 255 255 255 255 253 254 254 253 252 250 248 186 104 116 127 132 134 136 138 143 145 145 143 142 143 143 134 142 173 209 209 198 187 186 185 175 165 168 176 197 192 197 156 199 241 247 234 226 216 199 186 179 114 109 105 113 106 224 245 255 254 255 255 255 255 255 255 255 253 254 254 254 251 246 220 224 227 231 223 223 211 202 191 184 182 182 179 195 195 212 202 220 210 206 218 220 222 207 219 205 208 217 205 200 181 154 183 183 183 187 192 199 202 205 212 207 209 212 214 245 250 252 254 253 252 179 171 179 180 193 195 195 200 207 211 207 210 216 216 217 219 220 221 222 223 223 225 226 226 227 226 226 224 223 223 224 222 223 224 224 224 224 224 224 224 224 224 223 224 225 228 227 227 228 226 228 228 226 227 228 229 228 230 231 230 228 228 227 201 60 81 75 76 75 74 74 76 76 76 72 73 72 71 70 70 69 69 69 69 65 66 66 66 63 61 62 80 80 80 80 80 80 80 80 80 80 80 80 80 80 80 80 80 80 80 80 80 80 80 80 80 80 80 80 80 80 80 80 80 80 80 80 80 80 80 80 80 80 80 80 80 80 80 80 80 80 80 80 80 80 80 80 80 80 80 80 80 80 80 80 80 80 
254 251 250 249 253 223 80 90 88 77 80 81 82 81 82 83 81 83 81 83 84 85 86 80 80 170 194 173 132 105 90 74 71 69 73 87 109 134 182 201 213 129 75 81 78 81 79 80 83 79 76 76 73 71 68 69 69 70 65 86 242 251 245 254 255 255 255 255 255 255 254 254 254 255 255 249 248 116 114 123 123 133 132 139 139 138 140 142 144 135 142 140 214 207 212 206 211 198 159 149 134 133 141 156 164 171 158 171 180 206 177 146 245 225 220 201 188 172 114 119 115 111 111 95 249 255 249 254 254 254 254 254 253 253 253 253 255 254 246 224 227 227 228 223 221 214 198 187 182 177 178 179 186 171 178 186 200 204 204 187 211 215 213 200 217 201 207 212 195 185 172 145 153 180 177 182 188 195 198 203 211 211 206 212 219 219 250 250 252 254 245 232 165 169 176 179 188 192 197 201 206 204 207 212 207 208 211 213 215 215 216 214 216 216 217 214 213 214 217 212 212 214 215 214 215 216 215 216 216 214 214 215 215 214 215 216 218 218 218 216 220 222 221 221 223 226 228 220 222 222 222 222 221 219 206 200 62 76 72 81 71 73 74 74 74 72 74 74 70 69 70 70 69 67 67 67 64 64 66 56 61 61 80 80 80 80 80 80 80 80 80 80 80 80 80 80 80 80 80 80 80 80 80 80 80 80 80 80 80 80 80 80 80 80 80 80 80 80 80 80 80 80 80 80 80 80 80 80 80 80 80 80 80 80 80 80 80 80 80 80 80 80 80 80 80 80 80 80 
253 251 253 248 247 194 78 84 89 85 81 81 81 81 81 82 81 83 81 82 80 80 79 81 82 63 70 73 75 82 81 74 75 75 79 77 74 74 64 59 74 75 83 84 81 82 80 79 80 80 77 74 74 71 69 68 65 68 70 52 228 253 252 254 255 255 255 255 255 255 254 254 254 255 251 245 172 112 120 122 124 135 135 140 138 144 145 144 134 121 137 208 212 217 207 201 134 116 117 118 128 134 143 148 155 162 172 166 165 159 198 193 234 229 214 204 197 141 115 113 113 110 106 91 194 241 250 254 254 254 254 254 254 254 253 253 253 253 233 225 226 230 225 219 216 204 187 178 175 174 173 172 208 166 160 159 183 184 194 180 196 213 205 196 210 177 214 192 209 189 189 191 134 173 177 178 182 189 193 200 194 208 212 206 212 211 219 253 251 255 255 246 162 174 174 180 185 186 192 198 201 200 201 204 207 207 205 205 207 207 207 208 209 210 209 207 207 207 208 205 205 205 203 202 203 204 203 203 204 204 204 205 209 206 206 209 210 211 211 210 212 213 211 213 213 214 214 217 218 218 218 218 218 217 223 218 154 80 74 73 75 73 72 73 72 70 71 71 68 69 69 69 68 67 66 66 65 65 66 62 56 61 80 80 80 80 80 80 80 80 80 80 80 80 80 80 80 80 80 80 80 80 80 80 80 80 80 80 80 80 80 80 80 80 80 80 80 80 80 80 80 80 80 80 80 80 80 80 80 80 80 80 80 80 80 80 80 80 80 80 80 80 80 80 80 80 80 80 
251 253 254 248 230 98 79 81 84 85 80 80 81 81 83 84 82 83 83 77 73 73 72 75 72 80 73 81 82 84 90 83 83 81 83 78 74 70 75 77 77 66 68 74 78 79 81 81 81 79 77 75 73 72 69 68 71 68 65 73 119 242 253 254 255 255 255 255 255 255 253 253 254 250 245 248 97 112 122 122 127 134 137 139 143 136 131 129 119 142 203 198 202 224 176 117 105 91 67 68 66 63 67 79 108 141 176 181 179 182 151 179 184 220 219 196 174 122 121 113 113 112 106 104 115 252 249 254 254 254 255 255 255 254 254 254 252 251 222 229 230 233 224 215 204 192 180 176 170 168 166 193 229 223 151 159 157 173 181 178 182 209 195 188 194 187 198 187 189 185 222 230 164 147 177 175 179 183 188 195 196 198 205 211 208 212 212 236 250 252 251 253 181 164 169 178 181 179 187 192 194 197 197 200 200 202 203 205 203 203 203 200 200 200 198 195 194 193 191 189 190 189 191 190 190 191 192 192 193 193 193 195 197 198 198 200 200 201 202 202 207 209 208 209 211 212 213 211 212 212 212 212 212 213 207 217 221 71 74 66 74 71 71 72 69 67 69 68 68 67 67 67 67 66 66 65 65 64 64 51 63 87 80 80 80 80 80 80 80 80 80 80 80 80 80 80 80 80 80 80 80 80 80 80 80 80 80 80 80 80 80 80 80 80 80 80 80 80 80 80 80 80 80 80 80 80 80 80 80 80 80 80 80 80 80 80 80 80 80 80 80 80 80 80 80 80 80 80 
251 253 254 252 204 66 77 78 80 80 81 81 81 80 82 82 80 78 74 75 75 80 83 78 76 69 67 55 58 60 57 58 61 62 63 68 69 66 65 80 73 85 77 73 69 71 77 80 81 79 78 78 73 73 70 68 67 67 68 66 62 224 251 254 255 255 255 255 255 255 253 253 253 248 245 195 90 119 118 124 131 133 132 136 129 137 137 134 117 195 202 218 230 158 91 80 52 69 81 87 92 87 83 79 72 62 76 120 175 168 201 160 185 187 206 209 126 118 120 115 113 109 108 107 80 216 254 254 254 254 254 255 254 254 255 254 252 246 222 229 234 228 220 214 196 185 174 170 164 164 181 227 225 218 226 147 133 145 161 172 166 191 187 183 183 188 177 173 181 202 230 226 223 127 149 170 176 179 183 190 194 200 203 203 204 208 211 215 253 248 252 248 221 153 165 173 177 179 182 185 188 191 192 197 194 195 197 198 197 196 194 190 189 188 187 185 183 182 181 181 183 180 181 181 181 181 180 181 181 180 181 184 187 187 187 189 194 196 198 198 199 202 204 201 202 204 205 205 207 207 207 207 208 209 210 206 199 207 73 78 71 71 71 71 69 67 70 68 69 67 66 65 65 66 65 64 66 64 62 67 74 159 80 80 80 80 80 80 80 80 80 80 80 80 80 80 80 80 80 80 80 80 80 80 80 80 80 80 80 80 80 80 80 80 80 80 80 80 80 80 80 80 80 80 80 80 80 80 80 80 80 80 80 80 80 80 80 80 80 80 80 80 80 80 80 80 80 80 
251 251 254 254 104 74 78 81 81 84 81 79 81 85 79 76 71 79 80 72 55 50 48 50 54 57 59 62 63 61 62 61 59 60 61 62 62 62 58 59 57 58 52 59 66 71 72 73 70 77 80 78 74 75 73 71 69 69 68 65 67 116 252 252 255 255 254 254 254 254 253 253 254 254 243 94 110 117 120 125 123 134 136 147 154 107 68 45 198 196 190 228 117 59 84 112 154 129 136 138 142 142 136 141 134 126 97 78 92 121 169 201 148 153 175 100 122 124 117 114 112 108 105 95 93 116 251 254 255 252 253 254 253 255 252 250 247 227 228 233 224 223 214 200 181 178 163 174 155 170 221 222 216 219 211 208 205 139 133 149 162 167 174 168 171 162 157 177 198 220 212 213 225 210 159 137 165 177 178 176 191 196 196 199 204 205 206 207 242 250 252 252 253 214 163 167 172 171 176 179 183 181 184 187 188 189 189 188 184 181 182 178 174 173 172 166 164 162 162 159 158 159 158 159 159 158 162 161 158 164 162 165 166 170 173 173 170 174 180 181 186 190 191 192 194 197 198 198 199 199 198 203 202 205 201 201 203 194 201 152 66 76 73 64 68 66 68 68 67 67 65 64 65 64 64 64 64 57 69 85 165 154 80 80 80 80 80 80 80 80 80 80 80 80 80 80 80 80 80 80 80 80 80 80 80 80 80 80 80 80 80 80 80 80 80 80 80 80 80 80 80 80 80 80 80 80 80 80 80 80 80 80 80 80 80 80 80 80 80 80 80 80 80 80 80 80 80 80 
252 251 254 244 60 74 78 79 80 82 80 81 81 77 74 76 78 66 54 50 55 59 65 62 61 60 60 57 58 58 59 55 56 56 57 58 57 57 57 60 59 61 66 57 54 52 54 65 71 69 76 78 76 74 72 73 69 67 68 69 67 47 246 252 254 255 254 254 254 254 254 253 254 249 242 77 116 119 117 123 127 144 150 118 64 54 67 81 236 184 213 247 52 120 144 141 142 145 153 152 153 155 154 148 143 135 138 125 88 89 119 181 209 138 154 148 118 122 114 114 112 110 106 104 99 78 244 252 255 254 254 249 252 251 251 245 230 221 231 232 222 223 211 195 180 168 167 157 197 241 241 203 191 186 189 200 203 213 149 136 145 149 154 159 158 147 166 199 204 206 203 201 211 194 199 161 144 167 170 177 184 192 195 194 202 202 203 202 210 252 254 252 252 253 172 169 158 168 171 173 177 177 179 180 176 177 176 173 172 166 163 161 157 156 154 150 149 148 145 146 148 146 146 146 146 146 148 145 150 148 146 151 152 153 159 163 164 167 173 175 177 182 184 183 186 190 191 191 193 196 192 193 194 196 196 198 198 197 196 205 117 67 68 71 68 71 67 67 66 66 65 65 64 64 65 63 61 59 82 160 146 153 80 80 80 80 80 80 80 80 80 80 80 80 80 80 80 80 80 80 80 80 80 80 80 80 80 80 80 80 80 80 80 80 80 80 80 80 80 80 80 80 80 80 80 80 80 80 80 80 80 80 80 80 80 80 80 80 80 80 80 80 80 80 80 80 80 80 
254 252 253 237 69 82 78 81 81 83 80 81 79 77 76 71 53 51 57 61 62 59 59 59 58 60 62 61 61 59 57 60 61 61 60 56 59 62 60 60 57 59 57 61 58 57 56 57 53 62 69 76 76 73 72 72 69 67 69 64 59 62 245 251 254 254 254 254 254 254 254 253 254 254 214 86 121 120 117 128 145 133 76 42 55 77 81 82 224 178 252 224 119 136 142 136 142 151 150 151 152 152 154 158 154 156 143 140 121 103 97 149 214 183 140 174 119 119 118 113 112 108 105 101 94 82 185 254 251 254 247 242 245 244 228 215 217 226 231 226 223 222 198 182 183 165 195 253 218 160 129 163 171 182 181 153 119 117 187 190 148 139 138 139 142 180 189 199 217 228 203 161 124 135 146 176 210 185 161 168 177 183 192 192 195 197 202 201 199 240 253 251 254 252 231 150 163 161 165 167 170 168 168 167 165 164 162 158 154 152 152 145 143 144 141 137 136 136 133 135 135 135 135 133 134 136 133 138 134 129 133 137 137 142 144 148 156 156 157 158 162 169 171 172 176 183 185 184 187 190 189 187 191 191 193 193 195 192 193 194 200 164 81 63 69 69 66 66 67 68 66 66 65 65 62 58 63 118 168 157 147 142 80 80 80 80 80 80 80 80 80 80 80 80 80 80 80 80 80 80 80 80 80 80 80 80 80 80 80 80 80 80 80 80 80 80 80 80 80 80 80 80 80 80 80 80 80 80 80 80 80 80 80 80 80 80 80 80 80 80 80 80 80 80 80 80 80 80 
253 253 252 234 71 82 78 79 80 82 80 80 75 72 54 47 64 62 60 60 62 61 61 61 63 62 59 60 65 69 73 79 80 79 75 73 68 66 54 58 60 61 59 58 58 59 59 61 59 52 56 67 74 75 72 70 70 69 70 70 69 63 248 251 253 254 254 254 254 255 255 254 254 248 198 96 130 119 121 146 138 45 52 70 73 70 70 135 229 183 255 196 136 146 146 145 225 210 153 158 168 168 176 179 178 171 167 152 141 117 106 125 166 208 136 164 130 112 118 112 110 106 103 106 94 95 128 253 251 252 220 207 212 225 220 220 225 220 222 217 224 212 186 175 166 195 228 133 122 184 183 175 174 186 201 237 242 170 88 85 170 180 166 177 194 194 198 242 226 122 109 118 113 106 89 65 79 150 219 190 171 177 182 192 191 193 203 206 200 208 247 253 250 250 254 174 153 154 158 158 161 157 157 155 151 150 147 143 136 133 132 126 125 122 117 115 115 115 115 113 111 113 109 106 107 110 102 116 153 189 194 206 171 139 129 118 101 117 145 148 148 155 157 161 165 173 177 178 180 181 185 182 186 186 188 187 190 190 191 179 193 185 189 153 61 59 66 68 67 67 64 63 63 60 60 79 168 162 162 150 142 135 80 80 80 80 80 80 80 80 80 80 80 80 80 80 80 80 80 80 80 80 80 80 80 80 80 80 80 80 80 80 80 80 80 80 80 80 80 80 80 80 80 80 80 80 80 80 80 80 80 80 80 80 80 80 80 80 80 80 80 80 80 80 80 80 80 80 
253 254 247 207 81 83 80 81 81 85 77 78 45 57 61 59 57 61 60 61 60 61 69 92 103 107 107 110 109 109 109 106 106 109 108 106 107 104 111 109 104 102 83 64 58 59 59 61 60 61 55 49 53 68 73 73 71 68 68 64 65 68 220 252 254 254 254 255 255 254 253 255 253 247 182 95 120 117 139 107 58 67 65 68 67 132 148 189 245 189 251 181 104 110 118 123 192 189 167 180 191 198 197 197 199 199 196 197 179 163 136 121 132 196 140 129 158 109 106 108 109 104 103 96 97 94 71 253 255 253 234 124 174 175 178 233 223 223 223 219 205 186 168 173 244 187 122 158 108 152 169 176 177 182 185 177 162 196 237 130 80 153 180 179 171 253 221 145 160 161 164 177 189 181 162 137 119 92 65 103 191 162 182 182 184 187 190 191 198 202 200 211 223 217 188 237 202 142 144 146 136 140 135 132 127 123 112 98 87 87 66 71 94 116 150 171 188 198 193 198 196 189 178 171 166 166 255 243 188 135 105 106 118 125 114 101 121 151 63 111 129 139 141 145 145 153 156 158 161 167 168 172 176 179 178 180 180 180 182 183 181 181 177 177 177 173 168 140 108 100 104 108 148 166 161 166 154 158 154 151 140 134 80 80 80 80 80 80 80 80 80 80 80 80 80 80 80 80 80 80 80 80 80 80 80 80 80 80 80 80 80 80 80 80 80 80 80 80 80 80 80 80 80 80 80 80 80 80 80 80 80 80 80 80 80 80 80 80 80 80 80 80 80 80 80 80 80 80 
252 255 247 199 78 79 77 79 82 79 70 51 55 59 57 57 59 61 58 64 87 100 112 107 99 101 103 102 103 105 106 104 105 106 105 104 105 108 104 105 107 107 109 108 93 74 57 60 65 58 58 52 49 47 70 71 69 68 67 68 65 68 202 251 253 255 254 255 255 255 254 254 253 252 188 94 117 120 136 62 65 76 57 109 145 88 204 176 252 173 251 220 139 139 143 139 144 166 174 185 193 200 197 196 193 197 205 203 195 192 169 130 135 175 143 122 129 83 115 105 108 103 102 97 94 97 77 252 254 247 248 120 88 110 221 226 223 222 221 207 192 179 159 221 181 106 102 121 166 156 193 208 211 208 203 182 156 180 161 196 129 76 143 155 217 194 155 170 175 185 187 190 187 182 189 186 168 147 113 71 115 165 157 179 183 185 186 188 193 197 206 195 197 188 150 250 251 186 125 130 135 126 120 113 105 88 74 79 93 128 191 231 229 232 219 209 197 190 191 194 196 201 192 195 210 250 146 97 100 123 123 111 102 96 115 128 105 95 153 77 86 112 138 130 135 139 145 148 152 159 161 164 169 172 175 177 178 176 175 177 180 176 177 180 178 171 171 168 172 169 170 169 158 157 165 155 160 156 154 146 137 134 80 80 80 80 80 80 80 80 80 80 80 80 80 80 80 80 80 80 80 80 80 80 80 80 80 80 80 80 80 80 80 80 80 80 80 80 80 80 80 80 80 80 80 80 80 80 80 80 80 80 80 80 80 80 80 80 80 80 80 80 80 80 80 80 80 80 
252 254 246 196 75 76 78 80 84 75 59 52 61 61 58 61 61 66 81 102 106 105 102 102 104 103 103 104 103 102 101 104 103 104 103 104 104 105 106 102 101 102 103 104 110 118 90 71 58 60 60 54 51 42 54 73 72 68 67 68 66 62 160 250 252 255 254 255 255 255 254 253 253 251 194 94 115 121 135 64 64 70 141 107 49 55 209 151 255 180 230 228 144 157 157 158 184 184 185 194 201 206 213 215 207 196 200 204 210 198 190 141 132 184 136 117 133 48 63 103 101 102 100 100 94 95 83 249 253 247 245 230 131 165 230 223 228 219 207 188 178 168 151 186 112 149 131 138 184 220 224 235 238 237 235 221 216 165 177 156 202 77 102 194 243 161 170 176 170 175 197 212 224 215 205 195 161 158 163 129 61 129 149 176 182 184 183 184 186 192 194 189 178 164 125 254 242 254 194 125 120 118 114 100 83 64 74 63 197 236 214 224 202 175 138 111 103 120 170 187 203 208 198 215 243 143 104 139 135 112 109 106 112 116 103 99 118 103 95 144 92 122 104 115 127 129 135 137 140 145 149 151 157 164 165 168 170 171 171 172 174 179 173 177 177 175 175 173 167 166 166 162 157 157 162 159 153 152 150 143 132 128 80 80 80 80 80 80 80 80 80 80 80 80 80 80 80 80 80 80 80 80 80 80 80 80 80 80 80 80 80 80 80 80 80 80 80 80 80 80 80 80 80 80 80 80 80 80 80 80 80 80 80 80 80 80 80 80 80 80 80 80 80 80 80 80 80 80 
255 254 246 189 75 80 81 81 82 55 53 57 60 66 57 64 116 109 100 104 102 101 100 104 96 97 104 105 108 108 108 104 107 106 111 107 108 111 105 93 86 82 84 82 86 98 103 113 106 93 48 63 51 48 39 51 67 68 68 68 72 66 151 250 253 255 254 255 255 255 253 253 252 250 239 80 106 124 117 72 92 70 47 31 20 226 112 91 250 223 161 221 128 156 160 178 190 192 198 201 203 202 197 201 213 212 184 117 203 197 200 178 126 184 126 113 113 57 61 53 79 96 95 91 97 96 83 240 250 242 249 233 223 229 223 224 219 207 185 171 159 147 152 153 171 80 182 215 227 245 250 250 248 250 248 245 242 218 188 155 183 161 141 223 173 172 147 177 207 235 240 239 248 244 243 238 220 207 167 147 143 66 111 127 184 181 180 182 183 187 191 194 150 136 200 248 247 245 253 216 136 110 103 86 88 67 165 220 156 102 99 94 103 126 149 158 146 126 91 70 45 74 233 179 93 140 110 142 193 199 186 180 174 169 142 124 106 86 111 93 110 86 78 67 82 109 113 122 126 129 134 139 140 150 151 156 160 161 166 167 168 170 170 168 167 165 164 164 164 163 161 160 158 157 154 155 151 147 145 124 123 151 80 80 80 80 80 80 80 80 80 80 80 80 80 80 80 80 80 80 80 80 80 80 80 80 80 80 80 80 80 80 80 80 80 80 80 80 80 80 80 80 80 80 80 80 80 80 80 80 80 80 80 80 80 80 80 80 80 80 80 80 80 80 80 80 80 80 
254 253 247 188 84 78 78 83 80 41 58 63 59 59 84 115 99 101 101 102 80 79 80 82 93 97 97 94 103 107 105 107 107 106 108 111 108 95 80 76 80 83 86 88 83 80 83 91 101 102 93 52 55 50 43 39 58 72 67 67 71 65 170 251 253 255 254 255 255 255 253 253 253 254 241 78 110 110 130 54 76 33 24 22 17 218 42 62 254 254 159 180 138 152 163 184 193 195 197 200 204 202 204 201 203 198 163 122 64 166 210 177 142 181 112 115 100 56 64 52 54 78 101 100 90 91 130 210 246 244 227 227 234 229 228 223 212 205 180 161 160 149 130 226 101 127 208 227 243 253 251 253 252 250 247 249 246 239 213 160 176 209 164 192 209 145 176 211 229 246 251 250 251 251 250 246 243 226 210 168 191 124 75 120 175 172 180 183 183 185 186 190 166 166 248 246 251 248 225 246 248 161 109 97 91 219 202 80 81 87 88 103 98 87 89 108 142 152 124 78 55 77 198 83 142 113 163 206 200 205 194 196 197 187 180 161 129 105 92 117 96 123 56 61 28 63 79 100 106 125 124 123 130 136 141 145 150 152 158 160 162 166 166 165 167 167 165 163 161 158 159 160 157 157 155 157 147 142 141 139 126 252 80 80 80 80 80 80 80 80 80 80 80 80 80 80 80 80 80 80 80 80 80 80 80 80 80 80 80 80 80 80 80 80 80 80 80 80 80 80 80 80 80 80 80 80 80 80 80 80 80 80 80 80 80 80 80 80 80 80 80 80 80 80 80 80 80 80 
253 254 248 201 82 74 81 83 75 34 60 57 79 109 118 100 106 91 92 90 98 99 98 95 94 88 89 94 98 100 104 104 102 106 108 96 84 78 85 94 100 98 101 101 101 96 91 85 85 92 113 106 63 48 45 42 47 69 67 65 68 68 194 251 253 254 254 255 255 255 253 253 253 248 252 115 101 94 78 63 27 43 39 35 47 217 39 56 247 251 190 152 163 141 179 184 191 196 197 201 207 206 203 200 202 213 213 199 122 43 111 193 183 148 116 107 85 62 63 54 58 49 79 95 96 85 221 228 224 224 228 229 227 228 219 213 204 193 168 159 200 137 150 197 89 182 225 242 251 254 252 251 252 252 248 250 251 247 232 200 167 222 208 213 216 154 206 231 246 247 252 255 254 251 255 254 251 241 220 191 146 203 76 108 151 167 174 175 179 183 192 187 201 207 217 224 215 199 188 254 247 255 222 121 240 156 65 88 109 126 124 115 114 112 103 87 88 119 138 112 48 204 88 135 107 163 196 201 214 208 205 204 199 196 191 183 171 132 87 101 87 112 97 27 33 78 63 36 68 99 108 114 122 127 133 137 143 144 150 154 158 162 163 163 164 159 156 158 158 159 161 162 156 155 154 152 145 139 137 119 201 247 80 80 80 80 80 80 80 80 80 80 80 80 80 80 80 80 80 80 80 80 80 80 80 80 80 80 80 80 80 80 80 80 80 80 80 80 80 80 80 80 80 80 80 80 80 80 80 80 80 80 80 80 80 80 80 80 80 80 80 80 80 80 80 80 80 80 
252 253 248 221 81 77 76 80 84 53 56 74 120 111 104 100 90 99 95 84 76 80 82 83 92 103 102 87 94 96 97 107 102 107 104 80 86 92 107 97 90 81 78 78 79 84 95 98 93 91 95 109 118 72 44 44 41 59 71 62 59 67 225 252 253 254 254 255 255 255 254 255 252 255 252 212 83 72 35 49 53 50 40 33 176 196 56 75 199 247 230 137 158 143 158 183 188 193 195 199 204 205 205 200 200 194 208 206 203 181 151 176 180 115 122 108 71 62 61 60 53 59 56 96 90 86 143 210 226 226 223 223 222 213 205 192 175 147 125 106 165 135 192 143 123 201 240 251 250 253 252 249 245 235 222 244 250 244 238 213 152 204 234 222 187 185 224 234 255 252 251 253 251 253 254 251 248 246 232 207 131 233 145 86 123 165 168 167 175 181 186 194 196 204 207 202 178 161 234 254 251 252 250 244 138 68 95 147 98 100 155 177 142 126 125 108 91 80 126 145 125 237 95 132 123 141 202 219 217 213 206 206 205 202 196 188 182 167 103 90 124 105 100 43 32 85 117 43 31 50 77 97 107 117 122 126 133 137 143 148 153 157 159 158 159 161 162 160 157 159 157 155 153 150 147 147 144 138 134 122 255 248 80 80 80 80 80 80 80 80 80 80 80 80 80 80 80 80 80 80 80 80 80 80 80 80 80 80 80 80 80 80 80 80 80 80 80 80 80 80 80 80 80 80 80 80 80 80 80 80 80 80 80 80 80 80 80 80 80 80 80 80 80 80 80 80 80 80 
253 252 251 242 68 77 77 82 79 86 110 121 108 104 92 107 87 68 96 123 136 135 135 135 132 118 86 99 106 88 94 96 108 88 84 101 105 98 76 110 123 135 127 128 129 131 97 76 85 101 81 98 107 116 93 46 38 63 66 64 60 68 245 252 253 255 255 255 255 255 253 254 254 252 255 116 51 74 81 59 36 26 41 71 159 33 98 106 79 193 247 167 141 141 137 143 179 188 187 194 202 204 203 204 205 206 204 200 202 199 195 158 110 111 108 87 60 67 58 61 62 60 56 81 92 92 85 164 161 177 174 169 159 151 130 119 101 90 80 54 176 148 208 80 160 210 240 250 248 255 250 227 77 92 108 86 73 253 246 225 190 227 246 235 131 214 241 233 246 180 109 89 134 252 242 248 251 249 247 215 173 170 220 93 125 126 144 150 149 158 164 165 160 156 141 130 150 213 254 254 254 240 244 126 96 127 104 133 167 193 205 192 189 193 189 173 142 122 104 119 194 123 132 85 132 65 107 232 221 216 210 210 203 198 201 194 186 179 140 97 101 94 127 90 35 50 82 31 32 26 19 19 35 82 98 111 118 125 130 137 144 147 151 153 158 158 159 158 155 155 156 155 148 146 142 138 130 127 142 243 246 252 80 80 80 80 80 80 80 80 80 80 80 80 80 80 80 80 80 80 80 80 80 80 80 80 80 80 80 80 80 80 80 80 80 80 80 80 80 80 80 80 80 80 80 80 80 80 80 80 80 80 80 80 80 80 80 80 80 80 80 80 80 80 80 80 80 80 
253 253 252 236 62 84 81 74 83 119 118 118 101 89 109 100 77 131 140 120 129 135 141 138 130 118 128 89 91 97 97 97 109 94 106 109 87 92 121 120 129 125 136 126 121 116 117 123 82 76 95 91 86 119 112 104 62 70 63 63 66 49 250 253 254 255 255 255 255 255 252 254 254 252 191 32 67 58 37 14 60 164 186 194 187 160 120 112 77 122 224 207 136 133 137 134 137 165 178 184 194 198 202 203 206 203 202 202 198 190 153 111 113 107 99 87 75 60 62 59 61 60 56 61 88 86 89 131 151 158 147 145 142 138 126 114 97 91 72 46 183 157 196 75 168 208 243 251 250 255 247 79 100 223 18 69 109 201 240 229 192 234 249 232 119 208 229 246 215 69 91 109 79 115 251 236 250 248 244 236 196 148 247 97 155 103 105 114 128 126 121 122 121 119 123 146 173 241 252 255 254 255 228 69 109 130 90 161 196 209 208 197 197 194 190 184 180 145 112 107 144 110 131 33 86 17 53 193 224 218 209 206 199 203 196 191 181 179 151 123 88 99 129 112 36 36 54 33 41 42 41 39 37 29 54 81 99 117 126 130 133 141 147 149 152 154 155 154 154 152 150 149 146 143 140 136 127 144 240 250 255 250 80 80 80 80 80 80 80 80 80 80 80 80 80 80 80 80 80 80 80 80 80 80 80 80 80 80 80 80 80 80 80 80 80 80 80 80 80 80 80 80 80 80 80 80 80 80 80 80 80 80 80 80 80 80 80 80 80 80 80 80 80 80 80 80 80 80 
254 254 253 250 162 70 74 83 114 110 115 121 119 135 123 68 121 109 112 149 168 174 181 181 172 156 140 121 91 92 98 88 97 103 104 88 84 117 128 149 157 158 160 161 158 144 114 101 122 94 89 97 106 101 115 110 103 69 69 66 69 113 249 254 254 255 255 255 255 255 252 252 251 250 36 76 69 33 71 168 206 198 208 216 205 179 115 116 77 51 105 220 129 131 132 129 129 126 142 157 180 184 189 192 196 198 195 188 162 129 111 112 113 104 82 85 105 62 65 63 61 58 56 45 87 87 83 187 155 142 143 140 136 133 133 119 78 63 49 40 143 148 191 81 162 207 240 251 254 255 240 49 111 45 13 41 109 212 252 240 191 239 239 233 123 218 246 245 106 105 231 26 76 90 201 254 253 254 249 245 214 135 248 103 163 82 71 79 90 116 125 122 120 123 131 157 228 249 252 254 254 247 195 110 141 76 160 164 208 210 207 199 196 199 194 192 181 177 135 114 125 116 93 51 96 59 67 197 209 212 201 187 187 178 179 176 171 162 131 111 83 104 123 116 34 55 99 79 72 73 74 61 59 56 33 38 69 93 112 125 134 137 141 145 149 150 152 152 151 150 149 148 146 140 139 128 147 235 255 254 255 249 80 80 80 80 80 80 80 80 80 80 80 80 80 80 80 80 80 80 80 80 80 80 80 80 80 80 80 80 80 80 80 80 80 80 80 80 80 80 80 80 80 80 80 80 80 80 80 80 80 80 80 80 80 80 80 80 80 80 80 80 80 80 80 80 80 80 
250 251 252 246 233 78 86 72 120 120 125 126 157 182 102 83 103 132 155 170 183 189 190 197 193 186 174 138 112 63 101 85 97 101 98 69 107 139 151 166 178 169 184 172 174 162 144 130 106 109 88 135 106 156 118 117 113 92 78 66 62 216 247 254 255 255 255 255 255 254 255 255 252 192 63 46 23 164 195 210 224 224 218 213 214 177 107 131 118 72 107 103 199 133 122 126 122 129 128 128 137 150 158 159 162 156 149 129 120 120 112 106 98 93 56 142 91 97 57 62 61 57 58 52 69 89 85 207 239 172 142 141 138 139 128 118 85 81 76 66 158 145 179 111 140 206 231 253 248 254 228 65 105 14 15 46 140 211 246 226 164 250 220 222 117 213 236 243 69 50 42 9 38 65 159 253 253 251 250 241 215 159 244 104 171 70 70 72 82 123 134 125 121 127 154 210 249 253 253 254 254 246 103 101 129 88 120 94 69 222 206 208 200 198 199 194 190 181 140 134 134 118 57 120 126 135 149 203 195 200 206 203 208 206 205 199 182 170 138 108 80 106 121 108 36 56 98 81 71 68 51 51 48 61 76 91 101 78 79 97 129 131 135 139 146 145 146 149 146 147 143 146 140 140 128 132 250 243 255 252 253 253 80 80 80 80 80 80 80 80 80 80 80 80 80 80 80 80 80 80 80 80 80 80 80 80 80 80 80 80 80 80 80 80 80 80 80 80 80 80 80 80 80 80 80 80 80 80 80 80 80 80 80 80 80 80 80 80 80 80 80 80 80 80 80 80 80 80 
253 253 255 247 242 228 100 86 122 116 150 153 196 112 59 107 187 213 231 246 250 249 252 254 251 252 244 223 192 127 79 141 137 158 112 118 192 217 225 248 253 252 253 244 253 244 219 201 174 149 100 96 146 129 172 95 115 123 72 52 191 246 247 254 255 255 255 255 255 254 252 253 247 75 28 112 209 192 220 212 221 218 224 222 218 204 135 133 122 133 91 102 90 159 194 155 119 123 121 126 136 146 138 135 132 129 124 116 112 110 101 93 90 50 38 155 68 107 77 63 64 59 56 53 54 82 83 231 250 253 238 184 142 135 139 138 80 70 71 42 206 105 161 191 139 164 213 247 241 255 247 204 50 119 135 140 144 249 227 197 132 233 145 222 158 180 215 247 101 83 30 23 88 71 210 239 250 247 230 215 139 208 180 95 126 34 69 66 64 127 129 138 151 174 233 250 255 254 253 254 254 194 94 135 36 93 144 147 134 227 209 216 206 198 193 186 175 174 146 136 141 143 91 136 145 194 206 216 203 209 205 200 200 200 196 195 184 175 137 127 83 100 117 99 29 36 54 61 111 132 133 138 141 140 139 139 139 142 101 65 99 115 129 135 139 141 144 143 140 140 142 138 133 131 182 253 254 246 255 255 255 255 80 80 80 80 80 80 80 80 80 80 80 80 80 80 80 80 80 80 80 80 80 80 80 80 80 80 80 80 80 80 80 80 80 80 80 80 80 80 80 80 80 80 80 80 80 80 80 80 80 80 80 80 80 80 80 80 80 80 80 80 80 80 80 80 80 80 
255 254 253 253 253 244 134 69 77 51 177 153 199 78 68 158 208 227 241 250 254 251 246 243 242 251 244 248 229 180 88 144 139 148 83 170 219 245 242 250 245 246 252 249 249 246 236 225 203 178 103 92 137 119 191 22 58 63 64 132 248 255 254 254 255 255 255 255 255 254 250 251 254 10 59 209 186 220 211 201 130 231 210 213 209 207 174 135 132 122 133 77 109 96 98 166 182 148 120 123 124 131 136 135 124 122 117 113 106 102 90 102 86 35 46 106 8 63 103 62 64 61 57 55 51 80 72 245 255 249 250 251 244 177 183 191 169 164 156 155 160 57 151 206 104 173 188 224 240 245 250 234 225 77 78 128 246 243 234 173 171 180 113 198 192 150 207 232 228 70 80 122 116 128 254 243 248 245 238 223 132 242 126 95 159 62 80 91 88 125 126 138 156 173 250 255 254 253 254 254 254 155 103 141 74 142 110 107 132 187 207 194 181 172 170 174 167 163 135 111 146 154 106 86 126 154 198 214 214 212 209 206 205 202 196 188 183 181 124 130 80 98 111 92 38 34 53 125 139 150 148 144 147 151 146 145 146 129 135 61 87 99 116 127 136 137 138 140 134 136 134 132 140 229 253 250 253 255 251 255 255 255 80 80 80 80 80 80 80 80 80 80 80 80 80 80 80 80 80 80 80 80 80 80 80 80 80 80 80 80 80 80 80 80 80 80 80 80 80 80 80 80 80 80 80 80 80 80 80 80 80 80 80 80 80 80 80 80 80 80 80 80 80 80 80 80 80 80 
255 253 252 245 241 253 78 95 91 61 186 155 168 57 108 165 212 242 248 252 250 248 241 124 94 138 228 238 251 205 123 145 145 135 69 200 229 254 252 137 90 106 202 244 253 249 247 240 215 184 124 89 120 105 172 25 60 56 66 240 253 246 247 254 255 255 255 255 255 254 253 246 251 17 120 190 217 207 216 230 38 183 219 224 229 213 209 128 137 140 116 150 68 90 115 99 115 177 196 190 158 145 139 130 128 127 126 129 125 106 108 96 50 48 84 24 24 35 105 59 63 62 59 60 47 78 70 253 255 251 245 248 175 164 235 229 188 170 174 168 178 147 122 177 146 143 167 185 216 239 244 238 250 246 243 254 243 228 198 176 210 118 90 189 188 167 141 207 227 182 110 97 133 253 245 250 245 241 231 200 182 206 94 133 234 54 83 71 90 134 131 141 164 171 253 251 255 253 254 254 253 142 101 156 56 103 103 125 166 203 204 212 209 209 204 192 174 161 147 103 151 147 143 47 107 156 198 207 210 205 204 206 204 199 191 191 189 173 131 126 79 106 96 80 32 106 141 145 148 149 149 144 149 147 143 146 145 132 135 68 78 90 107 122 132 131 132 135 131 144 122 150 254 238 255 251 250 254 255 254 254 254 80 80 80 80 80 80 80 80 80 80 80 80 80 80 80 80 80 80 80 80 80 80 80 80 80 80 80 80 80 80 80 80 80 80 80 80 80 80 80 80 80 80 80 80 80 80 80 80 80 80 80 80 80 80 80 80 80 80 80 80 80 80 80 80 80 80 
254 255 255 254 252 244 102 86 76 54 169 161 153 52 131 190 234 245 247 249 244 251 93 113 107 130 124 245 246 228 171 136 151 129 70 201 236 251 127 70 90 83 59 254 247 251 246 243 227 196 153 100 117 121 165 32 50 63 64 241 251 253 254 255 255 255 254 255 255 255 254 252 249 27 193 202 202 210 226 229 94 19 49 130 184 211 213 180 139 150 136 111 134 71 66 95 102 120 58 101 142 168 164 169 139 117 96 95 81 126 93 90 35 44 116 15 20 42 63 63 59 61 58 52 53 82 61 252 248 250 247 232 136 194 244 246 195 179 186 184 175 156 147 144 198 143 199 198 190 183 210 225 231 222 229 214 206 221 206 170 214 82 99 161 182 172 181 150 186 238 250 243 243 250 246 238 238 211 209 168 211 146 88 183 182 112 130 123 118 141 149 143 165 173 235 254 245 253 253 253 253 137 117 179 25 67 120 183 195 197 198 198 197 198 193 185 180 175 155 116 145 145 175 25 88 145 179 194 198 199 199 197 195 196 190 184 167 169 167 76 92 118 77 45 41 136 134 148 146 153 152 150 149 147 146 144 141 136 135 65 69 86 100 116 124 127 132 136 124 150 211 248 252 253 254 254 254 254 254 255 255 255 80 80 80 80 80 80 80 80 80 80 80 80 80 80 80 80 80 80 80 80 80 80 80 80 80 80 80 80 80 80 80 80 80 80 80 80 80 80 80 80 80 80 80 80 80 80 80 80 80 80 80 80 80 80 80 80 80 80 80 80 80 80 80 80 80 80 
254 254 254 252 250 255 148 66 53 36 155 151 135 43 141 198 235 248 249 250 249 199 79 195 89 129 162 235 251 231 189 135 153 128 70 216 244 228 73 188 47 11 69 152 247 249 247 247 232 201 141 92 112 118 160 29 42 55 66 253 252 251 252 255 255 255 254 255 255 254 253 250 251 80 204 208 211 214 223 223 218 18 35 29 26 21 19 14 23 9 6 30 104 106 111 98 47 60 79 96 95 99 89 89 83 84 93 91 50 96 128 54 33 52 86 17 42 25 49 94 54 65 57 50 60 82 68 255 250 246 252 182 110 168 202 205 184 182 195 196 188 186 174 172 138 193 152 153 198 217 223 224 219 224 227 213 211 161 163 199 84 166 145 103 137 180 173 173 196 193 174 164 163 167 172 189 201 202 177 177 147 84 194 133 125 143 139 131 175 195 180 142 166 175 209 247 255 254 254 254 254 162 121 182 26 42 108 179 192 198 202 208 207 205 199 188 183 180 151 150 139 149 143 152 33 110 160 188 185 190 192 190 188 190 178 179 159 129 156 91 106 90 50 32 71 143 150 148 153 153 153 151 150 148 147 145 142 130 132 76 95 99 106 113 116 127 153 210 254 247 254 250 255 255 255 255 255 255 255 255 255 255 80 80 80 80 80 80 80 80 80 80 80 80 80 80 80 80 80 80 80 80 80 80 80 80 80 80 80 80 80 80 80 80 80 80 80 80 80 80 80 80 80 80 80 80 80 80 80 80 80 80 80 80 80 80 80 80 80 80 80 80 80 80 80 80 80 80 
254 254 254 249 252 251 122 90 82 57 156 156 163 50 124 191 235 248 249 251 234 178 115 14 29 120 161 221 247 221 171 135 151 142 71 209 244 224 73 13 13 12 70 158 245 251 247 244 228 191 130 89 120 114 166 30 64 62 66 251 249 253 251 255 255 255 254 255 255 254 254 253 248 170 202 208 216 221 222 219 218 4 28 32 17 27 29 27 25 19 20 8 2 38 84 92 99 99 83 65 55 63 58 53 56 48 79 106 107 104 97 47 99 48 40 42 53 27 43 77 60 62 59 58 63 62 112 248 248 253 253 214 71 117 162 161 172 190 198 202 198 193 185 184 173 152 213 190 165 184 207 213 212 207 198 192 149 158 174 82 142 158 143 137 110 162 164 157 171 193 217 219 215 219 212 198 183 174 176 168 67 189 189 128 144 135 140 134 216 220 184 150 140 169 212 249 255 255 255 255 255 197 138 152 76 33 73 164 188 196 202 200 199 199 194 187 183 177 135 150 130 149 152 154 96 48 147 168 183 183 185 184 182 177 173 167 141 157 60 93 134 49 35 51 116 146 151 150 153 155 154 151 152 149 147 146 143 134 131 90 93 101 127 164 236 246 252 250 249 255 254 253 255 255 255 255 255 255 255 255 255 255 80 80 80 80 80 80 80 80 80 80 80 80 80 80 80 80 80 80 80 80 80 80 80 80 80 80 80 80 80 80 80 80 80 80 80 80 80 80 80 80 80 80 80 80 80 80 80 80 80 80 80 80 80 80 80 80 80 80 80 80 80 80 80 80 80 80 
252 253 254 253 253 252 136 66 74 66 157 157 210 64 101 174 228 247 252 253 244 230 55 68 55 80 117 251 234 233 160 132 155 151 74 205 241 237 44 75 46 70 144 200 237 244 248 242 225 186 142 73 138 120 179 28 55 56 76 252 253 253 251 255 255 255 254 255 255 254 255 248 252 191 200 208 216 219 225 228 222 49 16 17 25 30 26 29 23 21 23 19 11 9 12 64 83 74 82 89 96 95 99 105 113 103 94 88 88 76 78 102 164 157 115 23 48 43 23 57 64 61 55 67 74 45 184 253 253 253 247 247 69 84 110 109 164 193 205 205 206 206 204 191 192 187 152 192 203 198 158 162 161 146 135 131 168 138 75 171 186 150 155 157 138 98 135 166 163 167 178 205 207 196 189 169 174 165 137 76 176 197 138 142 141 140 137 125 175 198 170 151 135 173 224 249 252 255 255 255 255 221 140 145 149 15 65 148 176 194 200 200 197 195 193 190 185 166 151 120 116 138 141 126 134 79 98 149 166 171 173 172 170 171 152 121 197 145 83 127 140 34 37 109 130 146 158 155 156 156 155 153 153 149 149 142 142 136 132 197 241 248 248 249 254 254 254 254 251 253 254 255 255 255 255 255 255 255 255 255 255 255 80 80 80 80 80 80 80 80 80 80 80 80 80 80 80 80 80 80 80 80 80 80 80 80 80 80 80 80 80 80 80 80 80 80 80 80 80 80 80 80 80 80 80 80 80 80 80 80 80 80 80 80 80 80 80 80 80 80 80 80 80 80 80 80 80 80 
253 253 254 253 253 252 251 199 150 138 146 146 245 80 82 158 229 242 247 249 244 252 144 102 113 145 186 249 238 226 85 146 155 159 101 187 220 250 189 83 145 105 65 249 255 246 245 234 216 171 126 88 155 128 179 93 129 132 234 252 254 253 252 255 255 255 254 255 255 254 255 250 239 196 203 209 216 219 222 225 222 131 7 24 26 26 26 21 27 26 26 21 19 16 14 12 82 89 86 78 72 73 79 80 88 85 89 89 87 89 88 174 150 153 154 57 22 57 23 45 50 69 66 80 73 60 252 254 254 252 242 254 180 42 52 54 150 193 205 208 210 213 210 202 185 188 185 171 165 191 196 197 191 187 191 155 106 125 199 191 151 162 168 173 170 139 113 119 145 161 146 146 147 151 163 165 112 80 50 116 202 135 139 141 144 147 143 124 128 157 156 139 138 168 234 250 253 255 255 255 255 255 135 152 196 47 28 127 162 187 192 194 191 190 187 177 167 155 162 77 110 127 114 136 103 139 81 95 124 131 134 129 125 104 147 203 130 81 138 146 65 39 93 131 144 148 153 156 157 157 157 154 155 150 147 148 145 137 130 203 251 254 254 255 254 254 254 254 253 253 254 254 254 254 255 255 255 255 255 255 255 255 80 80 80 80 80 80 80 80 80 80 80 80 80 80 80 80 80 80 80 80 80 80 80 80 80 80 80 80 80 80 80 80 80 80 80 80 80 80 80 80 80 80 80 80 80 80 80 80 80 80 80 80 80 80 80 80 80 80 80 80 80 80 80 80 80 80 
254 254 255 254 254 253 252 240 198 201 182 159 228 192 69 111 191 233 247 250 250 233 254 242 232 252 249 227 210 126 133 152 150 159 141 99 198 211 232 241 239 242 241 248 251 245 231 216 197 152 87 134 138 202 164 176 165 158 252 251 253 254 254 255 255 255 254 255 255 254 251 252 213 202 208 213 218 220 222 224 222 209 149 32 6 19 15 11 28 27 25 19 18 15 13 21 2 13 7 10 16 17 18 13 12 1 11 22 42 167 171 169 153 162 156 152 87 7 50 37 53 78 82 83 69 131 250 255 254 253 246 252 216 125 104 104 176 198 208 211 216 217 217 216 209 206 191 182 191 203 161 144 136 145 160 189 208 175 170 171 186 190 186 185 183 175 167 160 132 110 103 111 117 101 80 66 70 144 217 168 148 154 148 154 152 149 143 121 93 94 115 115 158 162 245 255 252 255 255 255 255 247 243 168 153 202 72 36 104 160 170 180 178 174 167 143 149 228 68 75 92 60 5 103 135 117 101 134 121 115 133 148 157 148 91 92 120 125 119 28 41 116 129 141 148 153 155 158 159 160 160 157 158 153 151 147 144 130 123 182 254 254 254 255 254 254 254 254 255 255 254 253 254 254 254 255 255 255 255 255 255 255 80 80 80 80 80 80 80 80 80 80 80 80 80 80 80 80 80 80 80 80 80 80 80 80 80 80 80 80 80 80 80 80 80 80 80 80 80 80 80 80 80 80 80 80 80 80 80 80 80 80 80 80 80 80 80 80 80 80 80 80 80 80 80 80 80 80 
254 255 255 254 255 253 251 230 215 203 199 164 155 253 121 90 160 201 231 247 251 252 246 254 247 250 243 216 144 105 155 155 156 163 155 76 128 188 211 227 237 233 240 246 238 231 215 198 180 147 104 182 135 244 172 186 179 162 253 251 253 254 255 255 255 255 254 255 255 255 249 248 197 203 209 215 220 221 225 225 221 220 210 176 104 34 28 8 25 26 25 23 16 15 18 6 15 11 17 15 13 17 19 19 20 9 16 6 11 133 170 163 162 162 174 157 157 55 33 10 48 69 87 77 50 247 255 254 255 254 254 250 236 118 116 111 184 203 209 213 216 218 222 221 223 219 211 206 197 186 189 187 193 190 183 176 186 188 191 194 200 200 196 197 193 193 181 176 185 171 148 129 103 98 115 154 199 165 167 155 165 157 159 156 154 152 146 120 66 85 107 100 162 174 253 255 249 255 255 255 255 252 243 165 156 123 130 70 39 60 128 149 147 141 131 169 246 149 69 85 87 25 65 84 98 143 111 122 107 110 101 96 94 92 111 135 141 144 43 71 113 135 126 141 147 156 159 158 161 161 161 158 159 154 153 151 145 129 125 165 250 254 253 254 254 254 254 254 255 255 255 255 254 254 254 255 255 255 255 255 255 255 80 80 80 80 80 80 80 80 80 80 80 80 80 80 80 80 80 80 80 80 80 80 80 80 80 80 80 80 80 80 80 80 80 80 80 80 80 80 80 80 80 80 80 80 80 80 80 80 80 80 80 80 80 80 80 80 80 80 80 80 80 80 80 80 80 80 
255 255 255 255 255 254 252 241 206 210 212 202 146 220 236 97 159 173 208 233 248 251 250 241 240 239 227 162 110 146 160 160 179 180 185 119 84 133 182 208 212 226 223 221 219 202 206 187 168 98 199 132 205 210 193 189 182 162 253 253 254 255 255 254 255 255 255 253 254 253 247 234 191 204 210 216 220 222 222 223 220 220 216 210 204 179 178 97 20 12 25 25 21 17 16 8 11 9 11 16 13 16 13 13 17 12 11 10 9 38 177 163 169 172 167 153 146 139 28 31 36 60 80 70 137 249 247 255 254 255 254 250 249 142 121 108 180 199 209 211 220 221 223 224 225 222 220 216 216 211 206 205 199 200 200 197 198 206 204 205 206 204 203 202 199 193 193 192 189 181 180 177 175 178 176 172 164 167 170 175 167 167 165 163 159 155 151 124 97 106 119 135 165 212 250 252 254 255 255 255 255 252 250 224 161 138 108 92 104 111 100 130 154 161 215 237 122 70 70 99 27 41 87 96 90 93 129 141 131 125 120 121 126 134 143 137 102 59 99 115 126 141 146 148 153 159 160 164 165 165 163 160 159 156 153 151 147 140 133 148 254 254 255 255 255 255 255 255 255 255 255 255 255 255 255 255 255 255 255 255 255 255 80 80 80 80 80 80 80 80 80 80 80 80 80 80 80 80 80 80 80 80 80 80 80 80 80 80 80 80 80 80 80 80 80 80 80 80 80 80 80 80 80 80 80 80 80 80 80 80 80 80 80 80 80 80 80 80 80 80 80 80 80 80 80 80 80 80 
255 255 255 255 255 254 252 241 208 210 209 218 146 145 209 238 80 141 182 185 225 229 233 231 213 194 165 110 154 178 178 168 24 195 190 202 114 92 123 172 188 203 200 200 196 170 183 147 99 183 159 160 233 169 186 192 184 162 253 253 254 255 254 254 255 255 255 253 253 254 251 212 195 207 212 217 222 223 222 222 219 219 217 215 208 207 210 172 6 21 14 17 21 23 24 21 18 23 20 21 20 24 14 17 22 19 18 14 12 23 60 193 173 175 168 174 142 163 100 39 13 46 89 57 240 244 249 255 254 255 253 250 253 190 139 114 189 202 213 215 221 224 225 227 227 227 227 221 223 222 220 217 212 213 212 209 213 213 213 214 213 211 207 207 205 201 199 193 190 192 189 185 183 177 178 183 181 181 179 175 177 174 172 166 163 157 153 121 99 108 124 144 164 249 251 255 254 255 255 255 255 255 252 254 226 162 123 81 73 86 109 173 182 183 141 62 60 73 92 38 59 97 104 109 115 116 105 103 117 131 133 135 135 130 105 90 95 113 117 132 138 148 150 151 154 161 165 164 167 165 166 163 163 159 154 153 149 138 133 137 253 254 255 255 255 255 255 255 255 255 255 255 255 255 255 255 255 255 255 255 255 255 80 80 80 80 80 80 80 80 80 80 80 80 80 80 80 80 80 80 80 80 80 80 80 80 80 80 80 80 80 80 80 80 80 80 80 80 80 80 80 80 80 80 80 80 80 80 80 80 80 80 80 80 80 80 80 80 80 80 80 80 80 80 80 80 80 80 
255 255 255 255 255 254 252 241 210 214 215 218 205 149 126 119 204 198 133 103 166 175 175 154 130 115 129 174 195 191 229 23 0 34 225 254 255 212 120 89 124 147 151 153 144 114 157 231 255 172 197 213 172 191 191 189 186 163 252 255 254 255 253 254 255 254 254 253 254 253 241 190 206 211 214 216 221 223 222 223 219 219 215 215 210 217 207 203 118 21 14 14 10 8 6 7 16 17 16 21 22 25 22 19 19 21 22 20 19 10 20 57 175 182 169 171 171 153 153 15 34 29 72 216 251 242 246 255 254 255 253 253 254 244 141 137 195 202 216 217 221 227 229 230 229 229 231 229 230 228 225 225 224 223 220 224 224 224 223 222 222 220 218 216 212 212 205 199 197 199 198 197 197 195 196 196 195 190 191 184 184 178 175 174 168 162 158 122 113 126 137 145 217 248 253 254 254 255 255 255 255 253 254 254 249 253 213 135 111 84 71 69 78 72 77 84 95 82 104 121 128 128 129 132 134 142 137 142 142 139 136 134 133 138 133 134 126 146 136 149 149 155 159 161 161 165 168 172 169 171 168 165 165 161 160 157 151 138 134 123 251 254 255 255 255 255 255 255 255 255 255 255 255 255 255 255 255 255 255 255 255 255 80 80 80 80 80 80 80 80 80 80 80 80 80 80 80 80 80 80 80 80 80 80 80 80 80 80 80 80 80 80 80 80 80 80 80 80 80 80 80 80 80 80 80 80 80 80 80 80 80 80 80 80 80 80 80 80 80 80 80 80 80 80 80 80 80 80 
255 255 255 255 255 254 254 241 211 213 211 216 216 213 168 151 115 121 153 193 170 157 146 146 150 165 182 192 209 243 105 5 10 13 7 248 230 253 243 207 153 125 141 160 213 242 243 239 165 162 210 171 194 188 200 194 178 164 252 252 253 255 254 255 255 254 254 247 253 252 213 200 204 212 217 219 219 216 224 209 214 219 222 217 220 197 223 203 203 149 69 28 24 24 34 30 19 7 8 14 19 23 18 24 23 26 16 27 19 19 19 18 30 131 184 172 174 161 144 41 30 35 72 248 252 253 250 254 255 255 254 253 253 253 143 137 190 208 216 219 224 228 231 232 231 232 232 231 230 230 230 228 226 229 223 228 229 228 227 225 226 223 221 218 219 212 211 208 206 203 202 202 202 197 198 199 195 193 193 190 188 183 178 178 172 166 157 126 125 138 151 154 244 254 254 254 254 255 255 255 255 255 255 255 253 249 252 225 159 149 133 116 114 118 124 135 133 133 137 140 144 143 146 146 147 152 152 152 156 156 152 151 149 152 146 142 144 147 154 157 155 159 163 164 165 170 172 170 171 171 169 166 164 165 161 158 153 141 128 120 252 253 254 255 255 255 255 255 255 255 255 255 255 255 255 255 255 255 255 255 255 255 80 80 80 80 80 80 80 80 80 80 80 80 80 80 80 80 80 80 80 80 80 80 80 80 80 80 80 80 80 80 80 80 80 80 80 80 80 80 80 80 80 80 80 80 80 80 80 80 80 80 80 80 80 80 80 80 80 80 80 80 80 80 80 80 80 80 
255 255 255 255 255 254 254 241 212 213 215 221 218 206 200 180 195 165 134 130 118 126 142 162 193 205 202 245 217 55 1 13 13 9 2 37 174 203 222 251 249 250 253 250 249 243 194 168 202 228 165 183 187 193 194 189 178 164 252 252 253 255 254 253 253 252 252 253 254 247 203 201 208 215 217 216 199 174 104 53 44 41 67 90 103 127 153 190 200 205 196 173 147 152 169 170 31 8 5 11 8 14 11 14 18 8 11 15 20 11 17 19 13 6 45 119 99 165 155 102 22 45 220 249 250 253 252 254 255 255 254 253 252 253 150 143 192 209 217 220 224 228 232 232 232 232 232 233 230 230 230 232 230 232 229 230 231 231 229 228 229 225 226 223 223 216 213 212 208 207 206 205 206 204 205 203 202 198 196 191 190 187 183 178 173 166 158 128 133 146 154 156 253 255 253 254 254 255 255 255 255 255 255 255 252 254 254 241 172 180 183 172 169 168 165 160 156 150 153 150 153 153 154 156 157 162 168 170 168 170 165 163 159 158 156 155 157 158 160 161 163 167 169 166 168 171 173 173 174 173 171 169 167 166 162 160 156 140 134 115 253 253 254 255 255 255 255 255 255 255 255 255 255 255 255 255 255 255 255 255 255 255 80 80 80 80 80 80 80 80 80 80 80 80 80 80 80 80 80 80 80 80 80 80 80 80 80 80 80 80 80 80 80 80 80 80 80 80 80 80 80 80 80 80 80 80 80 80 80 80 80 80 80 80 80 80 80 80 80 80 80 80 80 80 80 80 80 80 
255 255 255 255 255 254 254 241 212 213 216 219 225 217 221 205 23 56 153 217 229 235 233 237 250 223 152 0 16 11 18 13 11 16 14 25 9 8 77 177 207 203 197 194 217 240 213 97 1 55 199 192 198 200 180 189 178 165 252 252 253 255 254 253 253 252 251 252 251 238 197 207 207 214 218 218 178 122 7 23 52 127 153 157 153 139 87 120 94 82 69 53 71 110 146 172 188 152 76 31 7 9 6 7 22 49 57 17 12 7 12 6 18 19 13 59 167 158 147 133 39 241 240 252 250 253 253 254 255 254 255 254 253 253 160 150 199 210 219 222 226 229 232 232 233 234 233 235 232 231 231 230 230 230 233 232 233 232 229 228 230 228 225 225 222 219 219 217 215 210 208 208 210 206 207 205 202 200 200 197 192 187 183 180 174 167 160 132 137 148 161 178 254 255 254 253 253 255 255 255 255 255 255 255 252 255 252 244 175 186 186 183 182 182 178 174 173 170 170 166 167 170 170 175 176 179 182 182 187 190 185 183 179 175 174 174 169 170 174 175 172 173 172 172 173 176 177 176 176 173 172 172 170 167 162 159 155 148 131 123 252 253 254 255 255 255 255 255 255 255 255 255 255 255 255 255 255 255 255 255 255 255 80 80 80 80 80 80 80 80 80 80 80 80 80 80 80 80 80 80 80 80 80 80 80 80 80 80 80 80 80 80 80 80 80 80 80 80 80 80 80 80 80 80 80 80 80 80 80 80 80 80 80 80 80 80 80 80 80 80 80 80 80 80 80 80 80 80 
255 255 255 255 255 254 253 241 213 214 214 219 143 110 98 39 26 16 9 4 39 72 83 54 21 9 4 19 13 10 23 16 13 16 14 19 21 15 19 2 19 49 105 125 88 43 2 4 16 2 73 157 156 107 192 178 179 164 252 252 254 254 253 255 254 254 250 253 253 216 195 209 208 217 216 214 168 95 16 27 117 190 232 246 252 209 163 253 209 202 196 171 91 52 68 68 92 115 164 169 122 92 85 91 143 183 186 147 66 35 12 17 16 10 68 173 153 156 161 79 115 243 255 252 252 254 252 254 255 254 255 254 254 253 170 156 202 211 220 223 228 229 232 232 231 233 233 232 232 232 232 229 232 231 236 231 231 231 229 227 230 228 226 227 222 219 218 217 217 215 213 213 213 207 208 208 207 203 200 196 195 191 185 181 175 168 161 131 139 156 159 200 253 251 254 253 252 255 255 255 255 255 255 255 252 254 255 244 178 192 193 192 189 189 188 184 185 180 175 173 176 178 178 184 186 188 194 197 197 197 193 192 189 186 183 181 182 181 179 178 177 177 176 175 175 177 178 176 175 172 171 172 171 167 164 161 158 146 138 120 248 253 254 255 255 255 255 255 255 255 255 255 255 255 255 255 255 255 255 255 255 255 80 80 80 80 80 80 80 80 80 80 80 80 80 80 80 80 80 80 80 80 80 80 80 80 80 80 80 80 80 80 80 80 80 80 80 80 80 80 80 80 80 80 80 80 80 80 80 80 80 80 80 80 80 80 80 80 80 80 80 80 80 80 80 80 80 80 
255 255 255 255 255 254 254 243 214 215 213 222 203 28 26 28 24 27 19 17 20 18 18 15 15 16 13 24 23 19 21 20 17 17 18 13 15 21 14 15 11 18 5 10 7 15 14 16 18 14 8 18 8 149 182 196 187 166 253 253 253 253 254 254 254 253 252 252 246 185 202 205 211 218 216 215 160 60 18 48 162 179 228 245 254 219 168 250 217 223 226 213 189 173 201 196 173 124 77 54 87 138 188 197 194 189 197 192 179 161 138 122 135 149 175 172 167 152 143 30 242 252 254 253 254 254 255 255 255 255 254 253 253 253 186 148 204 212 219 227 227 229 232 233 233 233 236 236 235 233 233 232 232 235 237 234 233 231 232 230 232 230 227 227 225 222 219 218 217 214 213 213 212 209 210 208 206 204 202 197 192 190 185 179 175 168 162 130 140 158 158 219 254 255 255 255 254 255 255 255 255 255 255 255 252 254 255 248 189 194 192 192 196 198 197 194 192 188 186 183 184 185 188 192 196 197 199 203 203 201 199 198 195 193 190 188 185 187 182 186 182 180 182 180 179 178 178 176 176 175 176 174 172 169 166 163 159 156 142 129 248 252 254 255 255 255 255 255 255 255 255 255 255 255 255 255 255 255 255 255 255 255 80 80 80 80 80 80 80 80 80 80 80 80 80 80 80 80 80 80 80 80 80 80 80 80 80 80 80 80 80 80 80 80 80 80 80 80 80 80 80 80 80 80 80 80 80 80 80 80 80 80 80 80 80 80 80 80 80 80 80 80 80 80 80 80 80 80 
255 255 255 255 255 254 255 243 213 215 219 221 217 176 14 24 30 23 31 31 26 26 26 26 26 25 27 19 14 21 18 18 17 15 16 19 21 20 11 14 11 16 19 16 23 14 13 13 16 5 23 26 151 197 201 186 189 167 254 253 253 253 254 254 253 253 253 248 247 193 203 204 210 220 219 213 160 52 15 78 202 157 207 224 230 196 123 225 209 220 216 217 140 242 221 225 222 220 195 152 74 83 85 91 162 190 193 195 194 185 185 181 173 177 172 171 153 148 154 135 254 253 251 253 254 254 255 254 255 255 254 253 253 253 192 154 203 212 219 226 227 229 232 233 234 234 235 235 233 232 232 232 231 233 236 233 233 231 232 230 231 229 229 225 223 221 219 219 218 217 214 214 217 213 213 210 207 205 203 198 193 191 187 179 176 169 164 129 142 160 160 234 251 255 255 255 254 255 255 255 255 255 255 255 253 254 254 249 196 195 195 200 203 204 202 199 197 195 194 194 196 194 197 201 205 206 205 206 206 207 204 204 202 200 198 197 192 191 189 189 186 183 184 184 182 180 180 177 177 175 177 175 172 170 167 164 162 155 142 137 245 251 253 255 255 255 255 255 255 255 255 255 255 255 255 255 255 255 255 255 255 255 80 80 80 80 80 80 80 80 80 80 80 80 80 80 80 80 80 80 80 80 80 80 80 80 80 80 80 80 80 80 80 80 80 80 80 80 80 80 80 80 80 80 80 80 80 80 80 80 80 80 80 80 80 80 80 80 80 80 80 80 80 80 80 80 80 80 
255 255 255 255 255 254 254 242 212 214 220 219 225 235 218 119 21 14 27 25 22 22 20 20 22 24 23 20 25 23 22 16 17 17 14 18 20 20 12 17 20 17 10 17 14 9 10 6 11 21 115 202 198 192 195 199 187 166 253 253 253 254 254 252 252 253 249 250 237 208 208 212 216 216 220 209 164 55 23 59 90 101 118 120 113 92 73 34 87 88 85 72 25 135 204 213 208 216 198 146 174 191 182 146 92 46 39 124 192 186 182 184 177 175 173 164 153 153 152 249 253 249 251 253 254 254 255 254 255 254 254 253 253 253 196 159 199 212 219 226 227 229 232 233 235 235 233 234 233 232 232 233 232 232 233 231 233 233 232 229 230 227 227 226 223 221 219 220 220 216 216 216 216 212 214 211 209 207 205 200 194 193 190 184 178 170 163 127 145 162 163 244 255 254 254 255 254 255 255 255 255 255 255 255 255 254 254 252 207 195 199 203 206 210 210 208 207 206 208 204 205 208 207 209 209 208 209 209 210 210 210 211 209 207 207 206 202 199 199 193 191 187 187 184 183 182 183 181 179 177 177 175 173 170 167 165 163 149 143 139 218 252 254 253 255 255 255 255 255 255 255 255 255 255 255 255 255 255 255 255 255 255 80 80 80 80 80 80 80 80 80 80 80 80 80 80 80 80 80 80 80 80 80 80 80 80 80 80 80 80 80 80 80 80 80 80 80 80 80 80 80 80 80 80 80 80 80 80 80 80 80 80 80 80 80 80 80 80 80 80 80 80 80 80 80 80 80 80 
255 255 255 255 255 254 252 240 214 215 215 219 224 223 224 221 158 52 22 24 18 25 26 39 10 23 24 24 23 23 22 18 21 4 14 11 22 16 22 17 21 9 8 69 67 46 46 69 106 152 195 203 204 197 193 191 182 168 253 251 251 254 254 245 252 255 252 233 65 209 198 222 207 222 212 216 171 72 26 31 28 54 38 9 28 23 15 16 11 9 13 10 4 36 84 111 125 141 166 96 193 199 181 197 171 97 47 26 187 191 183 179 179 175 170 167 147 153 178 249 249 251 252 254 254 254 254 254 255 255 254 255 253 252 190 163 200 210 221 224 228 230 232 234 236 235 233 232 236 235 234 230 231 232 233 234 234 234 229 229 228 226 226 230 226 221 221 220 220 220 219 217 215 215 216 214 209 207 206 203 196 194 189 185 178 171 166 128 148 165 161 247 255 252 254 255 254 255 255 255 255 255 255 255 254 255 254 250 229 196 204 203 211 214 214 215 215 215 217 213 214 213 209 208 207 205 208 210 212 213 212 211 208 208 209 210 205 203 200 199 197 191 191 186 185 180 181 182 178 176 176 177 174 171 165 163 163 158 151 141 165 248 254 255 253 254 255 254 255 255 255 255 255 255 255 255 255 255 255 255 255 255 80 80 80 80 80 80 80 80 80 80 80 80 80 80 80 80 80 80 80 80 80 80 80 80 80 80 80 80 80 80 80 80 80 80 80 80 80 80 80 80 80 80 80 80 80 80 80 80 80 80 80 80 80 80 80 80 80 80 80 80 80 80 80 80 80 80 
255 255 255 255 255 254 253 241 215 217 217 218 219 220 221 220 227 218 212 193 176 177 179 203 137 37 8 22 13 10 15 14 31 56 5 7 11 5 3 10 9 24 74 202 196 199 195 196 199 199 196 204 201 195 194 193 182 168 252 252 252 253 253 248 249 249 250 78 73 42 124 217 210 217 217 212 169 112 2 24 33 21 5 12 10 9 13 16 15 9 9 7 13 3 2 11 42 51 43 64 182 193 180 182 163 93 121 49 207 190 178 178 174 174 172 167 157 161 230 251 252 253 254 254 254 254 254 254 255 255 252 253 252 250 190 174 201 210 221 224 228 230 232 234 234 234 235 235 234 233 232 232 233 233 234 232 232 232 229 230 229 227 228 222 222 222 221 218 218 216 218 220 220 215 215 213 209 207 206 203 197 196 188 184 177 170 164 130 149 165 166 242 252 255 255 255 254 255 255 255 255 255 255 255 252 254 253 253 231 196 204 204 211 213 214 217 217 216 213 210 213 214 210 211 213 212 210 210 209 215 215 216 214 209 207 204 201 204 194 195 195 190 188 186 185 180 183 182 178 177 176 176 172 175 168 166 163 155 158 140 121 246 245 254 253 254 255 254 255 255 255 255 255 255 255 255 255 255 255 255 255 255 80 80 80 80 80 80 80 80 80 80 80 80 80 80 80 80 80 80 80 80 80 80 80 80 80 80 80 80 80 80 80 80 80 80 80 80 80 80 80 80 80 80 80 80 80 80 80 80 80 80 80 80 80 80 80 80 80 80 80 80 80 80 80 80 80 80 
255 255 255 255 255 254 251 238 213 214 216 219 221 221 219 223 220 219 224 221 219 220 212 200 196 191 106 25 17 13 17 76 165 195 156 30 11 16 5 25 74 148 207 201 211 203 204 206 202 207 204 198 201 197 194 191 182 167 250 253 251 253 252 252 251 254 144 59 56 79 35 69 219 206 223 210 174 155 14 21 20 32 15 17 11 13 20 17 17 13 11 18 13 18 15 18 11 8 12 32 130 149 172 176 136 81 179 82 214 187 176 177 171 172 170 165 148 142 246 254 254 255 255 254 254 254 254 253 254 254 255 255 253 251 181 174 199 210 220 224 228 229 231 233 232 233 236 237 233 234 234 233 233 232 232 232 232 231 229 229 228 225 223 226 221 216 218 221 224 217 219 219 218 215 215 211 210 208 207 204 197 197 188 184 178 170 165 133 149 163 164 226 253 254 255 255 254 255 255 255 255 255 255 255 251 254 253 253 235 198 205 206 212 215 216 218 218 218 215 214 212 212 214 214 212 212 215 213 211 214 212 213 210 212 211 212 209 201 210 207 198 192 192 187 187 181 182 181 178 178 176 175 172 176 166 167 167 158 153 139 126 243 252 253 253 254 255 254 255 255 255 255 255 255 255 255 255 255 255 255 255 255 80 80 80 80 80 80 80 80 80 80 80 80 80 80 80 80 80 80 80 80 80 80 80 80 80 80 80 80 80 80 80 80 80 80 80 80 80 80 80 80 80 80 80 80 80 80 80 80 80 80 80 80 80 80 80 80 80 80 80 80 80 80 80 80 80 80 
255 255 255 255 255 254 250 238 213 214 217 217 219 213 225 222 221 226 227 223 221 222 220 201 216 220 222 221 214 212 214 211 215 212 212 213 221 216 222 216 212 202 207 214 218 212 217 211 217 206 204 203 197 196 197 193 183 167 249 254 252 253 252 252 250 224 66 78 75 68 58 70 19 218 222 218 182 184 44 10 22 11 23 19 26 24 26 16 19 22 24 20 19 17 23 21 23 22 14 12 10 23 53 73 72 152 165 183 194 181 179 175 174 170 166 162 154 174 245 255 254 254 254 254 254 254 254 253 253 253 254 253 252 249 179 180 196 210 220 224 228 229 231 232 232 234 235 235 231 232 233 232 231 230 229 231 231 230 231 229 223 216 203 188 194 211 213 216 219 217 219 219 219 215 216 214 211 208 208 205 196 194 189 187 180 171 167 133 149 158 164 187 253 255 255 255 255 255 255 255 255 255 255 255 254 254 253 251 240 198 206 210 212 214 218 219 219 219 215 217 214 216 215 216 217 218 207 198 190 179 171 164 156 152 152 159 164 192 201 205 198 193 193 188 186 181 184 180 178 179 176 176 174 171 168 166 165 151 148 130 3 177 254 248 253 254 255 254 255 255 255 255 255 255 255 255 255 255 255 255 255 255 80 80 80 80 80 80 80 80 80 80 80 80 80 80 80 80 80 80 80 80 80 80 80 80 80 80 80 80 80 80 80 80 80 80 80 80 80 80 80 80 80 80 80 80 80 80 80 80 80 80 80 80 80 80 80 80 80 80 80 80 80 80 80 80 80 80 
255 253 252 252 255 253 250 144 194 222 212 219 219 222 223 224 224 223 225 225 224 224 225 215 204 195 194 209 212 218 219 219 218 220 219 215 206 197 186 191 200 207 218 220 217 218 216 213 211 210 207 202 201 198 193 191 189 168 239 252 246 250 251 246 252 249 126 73 86 62 49 56 65 37 60 155 209 198 147 24 0 20 12 16 27 20 114 153 100 33 10 27 12 25 22 16 26 18 15 25 12 9 16 35 72 135 180 223 185 180 176 172 177 168 162 165 149 215 251 255 255 255 255 255 255 255 255 253 251 255 248 250 247 219 176 171 200 212 222 224 227 230 230 231 233 232 233 233 233 233 234 237 230 223 237 238 227 215 182 198 216 217 222 225 173 177 152 187 217 215 215 213 226 218 216 214 210 208 205 204 199 194 190 184 178 172 166 133 146 154 157 156 242 252 249 254 253 255 255 255 255 255 255 255 254 254 253 252 241 187 205 208 211 216 220 222 221 219 223 227 214 199 143 123 115 107 103 92 71 94 129 128 131 134 152 106 57 135 154 213 198 199 193 189 184 182 180 181 180 179 176 176 171 172 173 164 160 171 114 25 49 131 253 255 253 254 255 255 255 255 255 255 255 255 255 255 255 255 255 255 255 255 80 80 80 80 80 80 80 80 80 80 80 80 80 80 80 80 80 80 80 80 80 80 80 80 80 80 80 80 80 80 80 80 80 80 80 80 80 80 80 80 80 80 80 80 80 80 80 80 80 80 80 80 80 80 80 80 80 80 80 80 80 80 80 80 80 80 
255 253 253 253 254 250 212 42 193 213 207 214 219 221 222 224 223 222 224 225 225 221 222 226 226 227 224 204 203 201 198 195 192 193 192 199 206 216 221 223 222 222 222 223 221 218 218 214 211 208 206 202 199 196 192 190 182 187 111 250 249 252 252 252 255 237 99 93 73 76 65 58 65 67 40 30 35 41 86 106 114 168 237 228 129 236 244 253 226 158 47 21 17 18 27 26 22 33 24 11 16 13 4 24 91 90 215 218 185 174 180 170 173 173 170 169 139 233 251 255 255 255 255 255 255 255 255 253 251 252 243 235 220 197 171 169 202 213 221 222 225 229 231 232 231 232 235 235 233 232 233 236 229 234 232 232 179 138 141 70 30 54 55 44 38 130 164 121 107 205 213 222 214 218 217 213 211 207 204 203 198 193 189 184 178 172 165 130 140 150 151 146 184 209 234 254 255 255 255 255 255 255 255 255 254 252 253 254 240 196 207 210 213 216 219 220 222 223 191 115 88 75 117 186 195 197 195 170 47 53 142 161 172 154 98 32 2 13 58 194 202 198 193 188 183 181 180 180 179 178 177 175 172 173 172 167 167 77 15 62 49 94 251 252 253 254 255 255 255 255 255 255 255 255 255 255 255 255 255 255 255 255 80 80 80 80 80 80 80 80 80 80 80 80 80 80 80 80 80 80 80 80 80 80 80 80 80 80 80 80 80 80 80 80 80 80 80 80 80 80 80 80 80 80 80 80 80 80 80 80 80 80 80 80 80 80 80 80 80 80 80 80 80 80 80 80 80 80 
255 254 254 253 253 250 171 46 218 191 208 210 214 217 219 221 222 222 223 224 225 225 228 223 226 221 223 226 223 222 224 221 220 221 219 222 221 217 217 222 223 223 224 222 221 218 215 213 210 207 201 199 197 194 191 190 186 113 90 250 250 254 252 244 242 164 124 119 108 60 69 68 79 125 63 27 59 70 78 55 61 62 66 111 113 214 232 240 212 154 140 235 243 208 136 36 21 9 6 4 17 24 25 24 47 201 221 188 183 181 187 113 64 54 54 95 150 253 254 255 255 255 255 255 255 255 255 251 252 233 202 211 198 176 155 153 197 212 221 224 226 229 230 232 231 231 234 234 231 231 230 243 222 233 214 88 49 77 110 103 77 40 107 142 121 123 102 83 68 111 210 219 218 215 216 213 210 206 204 203 198 194 188 184 179 172 165 128 136 143 152 147 179 184 161 252 252 255 255 255 255 255 255 255 254 252 253 251 190 178 220 210 214 218 222 222 218 206 81 87 120 112 21 95 114 119 73 24 5 22 8 5 13 12 11 23 2 7 10 151 207 198 192 188 182 181 179 178 177 177 175 171 174 174 160 174 111 48 62 28 38 68 253 249 253 254 255 254 255 255 255 255 255 255 255 255 255 255 255 255 255 255 80 80 80 80 80 80 80 80 80 80 80 80 80 80 80 80 80 80 80 80 80 80 80 80 80 80 80 80 80 80 80 80 80 80 80 80 80 80 80 80 80 80 80 80 80 80 80 80 80 80 80 80 80 80 80 80 80 80 80 80 80 80 80 80 80 80 
255 254 254 249 255 253 139 85 66 134 198 204 213 212 215 216 220 219 220 223 223 224 225 227 227 226 225 224 225 224 225 224 220 220 219 223 222 223 220 221 220 222 224 222 221 216 217 212 206 207 203 198 184 192 203 174 57 98 83 245 254 249 246 243 243 124 133 135 140 97 49 86 199 185 71 30 54 72 71 75 71 74 81 86 76 85 68 80 54 56 54 63 89 98 90 105 78 114 139 166 92 31 33 61 224 218 188 122 40 39 55 65 56 62 49 52 44 220 250 255 255 255 255 255 255 255 255 255 254 240 137 153 152 144 120 101 186 217 221 222 226 229 229 232 233 229 234 230 235 234 230 228 217 93 133 122 137 205 215 218 228 233 227 228 229 220 220 218 212 178 128 142 214 215 216 212 211 205 202 202 201 191 192 185 183 178 163 113 116 138 139 137 129 141 137 250 254 255 255 255 255 255 255 255 255 251 253 246 61 163 199 211 207 217 224 230 219 203 82 10 13 6 17 14 13 15 10 16 16 12 14 16 16 13 14 17 8 14 10 136 212 196 192 188 183 179 176 175 176 174 180 170 165 163 129 19 76 43 40 29 29 75 254 247 253 255 254 254 255 255 255 255 255 255 255 255 255 255 255 255 255 255 80 80 80 80 80 80 80 80 80 80 80 80 80 80 80 80 80 80 80 80 80 80 80 80 80 80 80 80 80 80 80 80 80 80 80 80 80 80 80 80 80 80 80 80 80 80 80 80 80 80 80 80 80 80 80 80 80 80 80 80 80 80 80 80 80 80 
255 254 254 255 251 247 75 86 92 65 100 206 202 201 213 215 217 216 221 223 220 221 223 225 222 224 224 226 224 224 221 221 220 223 223 220 221 221 220 221 220 221 220 218 217 218 209 208 207 199 201 199 194 192 129 40 87 90 77 235 251 247 245 252 214 143 135 142 139 122 87 62 217 172 53 23 58 68 73 75 77 76 77 77 76 68 75 82 71 79 83 88 85 82 75 76 72 61 65 62 60 71 54 34 25 54 45 48 71 60 57 61 68 47 51 57 45 134 248 255 255 255 255 255 255 255 255 254 254 255 141 130 137 129 90 65 175 207 220 228 226 226 228 231 229 231 230 232 227 229 231 219 171 198 209 224 228 218 222 217 218 216 212 213 212 212 216 218 217 217 222 212 215 215 212 209 208 207 204 201 195 188 192 186 180 176 163 78 41 139 133 134 134 137 177 252 252 255 255 255 255 255 255 255 254 251 254 246 48 69 206 208 221 217 215 227 222 216 132 8 24 16 11 13 16 18 16 13 13 13 15 15 16 23 16 13 10 15 17 107 215 198 193 187 181 179 177 175 175 174 173 174 169 108 39 75 51 39 36 53 58 139 241 254 252 255 252 252 255 255 255 255 255 255 255 255 255 255 255 255 255 255 80 80 80 80 80 80 80 80 80 80 80 80 80 80 80 80 80 80 80 80 80 80 80 80 80 80 80 80 80 80 80 80 80 80 80 80 80 80 80 80 80 80 80 80 80 80 80 80 80 80 80 80 80 80 80 80 80 80 80 80 80 80 80 80 80 80 
255 254 254 254 255 247 114 92 89 95 65 54 174 205 198 198 214 209 210 214 217 218 220 221 219 220 221 219 220 220 220 220 219 220 218 219 222 219 218 218 217 217 218 215 213 211 207 206 202 197 193 193 176 80 59 102 95 86 93 249 250 248 253 243 129 131 138 133 142 135 105 70 160 106 35 25 57 60 67 67 73 75 80 81 76 77 79 84 79 81 79 69 74 74 72 69 71 75 74 73 70 71 46 46 70 66 69 74 47 57 58 62 64 64 53 34 51 124 254 255 255 255 255 255 255 255 255 255 251 249 222 138 108 126 74 77 154 205 212 221 225 224 228 228 224 229 225 229 230 229 229 228 228 218 227 222 213 214 213 208 208 209 202 205 205 207 210 216 219 223 219 216 216 212 212 208 206 205 202 198 203 192 180 174 176 169 164 89 55 123 139 141 141 143 236 251 249 255 255 255 255 255 255 255 254 252 254 246 37 67 97 214 213 214 222 222 223 222 170 13 5 8 14 16 15 13 20 15 20 16 17 16 16 13 16 18 17 13 25 91 214 196 191 184 180 178 176 174 174 173 173 177 164 48 69 53 45 50 45 47 162 126 237 250 252 253 252 252 255 255 255 255 255 255 255 255 255 255 255 255 255 255 80 80 80 80 80 80 80 80 80 80 80 80 80 80 80 80 80 80 80 80 80 80 80 80 80 80 80 80 80 80 80 80 80 80 80 80 80 80 80 80 80 80 80 80 80 80 80 80 80 80 80 80 80 80 80 80 80 80 80 80 80 80 80 80 80 80 
255 254 254 252 249 254 241 76 91 88 102 77 56 116 173 201 197 205 209 209 208 209 210 212 211 212 213 214 214 214 214 214 214 215 211 213 211 212 214 213 212 211 212 209 207 203 196 197 195 195 150 80 45 38 104 93 89 96 106 249 249 251 249 218 108 144 144 139 142 131 125 90 65 54 23 46 63 65 67 77 81 79 81 79 80 83 80 82 86 83 83 76 82 78 79 73 77 79 73 71 77 77 18 69 157 158 69 67 74 62 70 71 37 50 78 72 84 125 249 255 255 255 255 255 255 255 255 252 254 254 251 235 132 102 126 134 119 155 208 216 217 219 222 219 222 221 223 222 221 223 225 231 222 221 227 219 222 219 215 212 212 209 209 211 206 214 214 214 215 228 216 216 212 210 209 206 203 199 196 194 183 184 186 177 175 174 136 94 115 112 147 148 142 164 224 253 250 255 255 255 255 255 255 255 253 252 254 245 58 50 63 183 211 220 224 220 224 226 174 68 16 13 17 22 24 24 22 19 15 19 18 18 16 18 16 16 16 14 25 82 212 197 192 184 179 176 173 174 174 173 172 162 159 60 56 51 55 41 53 59 173 165 148 248 254 255 253 253 255 255 255 255 255 255 255 255 255 255 255 255 255 255 80 80 80 80 80 80 80 80 80 80 80 80 80 80 80 80 80 80 80 80 80 80 80 80 80 80 80 80 80 80 80 80 80 80 80 80 80 80 80 80 80 80 80 80 80 80 80 80 80 80 80 80 80 80 80 80 80 80 80 80 80 80 80 80 80 80 
253 253 251 252 250 229 129 60 85 115 100 97 106 56 48 68 104 163 197 197 189 189 191 197 196 196 201 204 203 204 205 205 206 204 206 200 203 198 206 204 198 195 195 190 187 197 157 120 80 65 53 64 92 99 95 101 90 44 52 232 248 253 246 123 113 104 134 141 138 131 117 98 77 48 28 57 59 72 76 76 78 80 78 80 79 82 83 83 82 82 84 81 81 82 80 75 71 66 61 51 47 45 26 74 231 187 65 76 84 64 46 85 100 94 89 80 65 56 251 254 254 255 253 255 255 255 255 254 255 252 239 215 160 142 130 126 117 121 115 182 192 168 113 104 130 175 191 202 153 121 153 199 210 206 209 199 182 180 191 217 208 213 209 202 205 155 122 112 140 193 214 211 210 196 194 162 151 183 188 169 160 88 93 106 116 116 97 110 112 123 146 149 146 150 201 247 252 255 255 255 255 255 255 255 255 254 251 246 50 78 67 72 186 197 236 224 223 223 190 159 7 18 16 18 21 18 19 20 18 17 17 18 18 14 18 15 19 21 20 85 211 197 188 185 180 176 175 173 173 171 166 170 172 62 54 61 50 62 51 163 176 162 153 203 253 253 252 253 255 255 255 255 255 255 255 255 255 255 255 255 255 255 80 80 80 80 80 80 80 80 80 80 80 80 80 80 80 80 80 80 80 80 80 80 80 80 80 80 80 80 80 80 80 80 80 80 80 80 80 80 80 80 80 80 80 80 80 80 80 80 80 80 80 80 80 80 80 80 80 80 80 80 80 80 80 80 80 80 
253 254 252 255 253 214 67 82 50 83 93 96 102 107 80 48 63 49 61 93 147 167 180 197 190 192 199 188 191 193 193 191 190 191 189 193 194 191 203 198 196 194 190 150 100 68 54 76 90 46 69 90 93 94 94 98 50 52 58 155 248 252 206 107 109 82 108 140 138 132 119 96 73 40 40 60 68 70 78 78 78 82 81 82 83 83 86 89 87 85 85 84 84 83 81 80 75 70 69 59 60 53 28 58 215 179 77 68 49 68 109 116 110 104 98 88 79 63 248 253 254 255 254 255 255 255 255 253 254 250 235 197 150 141 135 127 131 125 117 112 164 125 128 126 119 96 173 159 126 130 111 92 138 192 167 135 117 105 94 113 172 195 192 190 124 96 107 111 110 106 183 197 199 100 78 100 101 102 158 161 76 105 100 90 92 99 116 103 110 129 145 155 151 146 191 247 252 255 255 255 255 255 255 255 252 250 252 241 95 77 77 73 70 213 193 222 223 224 213 187 38 8 9 14 10 6 18 23 23 22 24 16 18 15 19 20 23 26 28 117 212 197 190 184 179 176 175 174 173 169 168 177 166 73 60 53 55 55 102 165 173 175 167 157 250 253 253 253 255 255 255 255 255 255 255 255 255 255 255 255 255 255 80 80 80 80 80 80 80 80 80 80 80 80 80 80 80 80 80 80 80 80 80 80 80 80 80 80 80 80 80 80 80 80 80 80 80 80 80 80 80 80 80 80 80 80 80 80 80 80 80 80 80 80 80 80 80 80 80 80 80 80 80 80 80 80 80 80 
253 254 253 243 237 181 66 81 78 53 81 105 102 99 112 94 59 82 99 91 89 82 74 85 75 83 96 93 100 101 107 106 103 107 107 104 99 91 96 82 81 78 71 75 75 83 81 66 59 74 96 101 93 96 89 41 61 75 63 58 247 250 134 114 97 81 102 140 137 126 119 85 69 73 78 64 58 74 75 77 82 80 81 83 85 87 88 90 90 89 87 85 85 82 81 82 79 75 76 75 72 66 33 50 91 69 32 59 109 122 118 122 116 116 112 96 78 82 248 252 253 255 255 255 255 255 255 254 252 249 218 170 144 133 112 136 122 123 121 115 104 116 120 121 112 123 98 133 123 117 124 130 108 119 138 125 121 120 131 109 91 173 188 110 101 109 114 113 105 115 144 170 90 109 108 101 106 103 118 75 97 96 102 101 97 111 111 136 146 147 144 139 145 151 165 237 251 255 255 255 255 255 255 255 251 251 251 220 193 63 83 67 76 70 229 221 225 221 225 187 114 19 14 14 9 12 23 29 33 35 29 29 27 19 17 27 29 41 40 176 209 194 189 181 177 176 175 172 172 170 177 179 148 70 62 65 81 31 164 174 167 176 174 145 247 253 254 252 255 255 255 255 255 255 255 255 255 255 255 255 255 255 80 80 80 80 80 80 80 80 80 80 80 80 80 80 80 80 80 80 80 80 80 80 80 80 80 80 80 80 80 80 80 80 80 80 80 80 80 80 80 80 80 80 80 80 80 80 80 80 80 80 80 80 80 80 80 80 80 80 80 80 80 80 80 80 80 80 
253 252 252 240 219 54 79 81 83 81 74 49 106 96 101 233 179 82 48 90 89 85 87 93 87 88 89 94 90 90 92 87 87 94 90 87 82 83 86 89 91 91 84 88 83 88 48 98 120 219 146 82 93 82 40 79 72 77 66 47 201 248 111 115 94 95 102 139 137 129 120 74 77 69 75 75 72 66 70 76 80 78 82 83 86 91 92 89 93 92 92 85 89 87 84 80 80 80 77 69 69 72 49 35 64 65 81 124 128 129 133 131 130 119 113 105 99 76 167 251 252 255 255 254 253 253 255 254 254 247 209 158 145 131 116 102 127 125 122 122 123 112 101 108 102 110 108 99 111 122 118 117 121 115 108 124 114 117 111 110 114 106 83 110 109 106 109 108 112 109 80 93 106 108 97 101 106 73 85 101 91 93 85 99 164 165 159 159 165 164 157 158 139 121 140 229 253 254 254 255 255 255 255 255 247 255 248 198 204 153 69 72 74 72 75 210 227 223 224 215 184 106 37 20 19 38 29 63 133 159 103 39 46 35 95 115 106 92 70 221 207 196 189 182 178 175 177 169 171 173 192 187 119 79 79 59 67 84 177 160 178 171 174 171 220 247 250 252 255 255 255 255 255 255 255 255 255 255 255 255 255 255 80 80 80 80 80 80 80 80 80 80 80 80 80 80 80 80 80 80 80 80 80 80 80 80 80 80 80 80 80 80 80 80 80 80 80 80 80 80 80 80 80 80 80 80 80 80 80 80 80 80 80 80 80 80 80 80 80 80 80 80 80 80 80 80 80 80 
253 252 253 254 196 56 77 79 82 83 78 74 63 117 117 222 206 103 47 74 92 91 94 95 90 90 91 93 91 94 94 90 89 93 91 88 87 86 89 89 88 87 88 86 86 87 58 94 150 214 185 96 71 42 79 70 79 72 67 54 123 248 126 115 112 82 101 136 135 126 119 66 72 67 73 77 76 74 74 76 79 80 83 87 85 91 92 91 91 91 91 91 88 85 83 82 80 81 73 73 73 69 69 70 70 51 93 123 126 129 132 134 131 121 114 107 98 92 94 250 250 253 254 254 253 253 255 252 251 244 200 153 146 132 114 115 131 135 139 138 133 130 115 102 99 92 97 102 107 113 121 115 116 112 108 116 119 113 116 112 112 105 105 106 103 105 106 104 105 90 84 102 101 96 100 98 80 83 100 90 85 84 129 167 162 169 164 168 166 165 156 156 144 132 127 232 255 254 254 255 255 255 255 255 252 254 250 206 212 207 76 78 77 76 72 172 227 219 222 227 201 150 123 120 73 9 195 225 212 205 215 126 50 199 216 204 186 152 143 211 201 192 186 181 178 175 177 173 171 173 189 191 112 65 54 48 64 115 154 168 172 174 178 176 174 248 251 250 255 255 255 255 255 255 255 255 255 255 255 255 255 255 80 80 80 80 80 80 80 80 80 80 80 80 80 80 80 80 80 80 80 80 80 80 80 80 80 80 80 80 80 80 80 80 80 80 80 80 80 80 80 80 80 80 80 80 80 80 80 80 80 80 80 80 80 80 80 80 80 80 80 80 80 80 80 80 80 80 
253 252 252 243 115 82 78 80 82 81 80 82 59 52 96 217 163 83 47 71 82 85 92 93 93 94 95 93 93 96 97 95 93 94 94 90 94 92 89 87 89 90 89 87 78 71 60 70 121 197 141 51 47 71 76 82 75 80 68 55 54 227 121 127 117 85 109 137 136 127 119 69 74 69 73 74 75 76 77 80 81 78 83 87 87 91 92 92 92 90 90 89 87 87 87 82 80 80 78 75 75 73 70 70 72 58 97 123 126 123 124 125 123 125 119 104 103 81 67 253 255 252 252 254 253 253 254 255 252 247 195 152 145 127 140 153 152 155 152 151 153 149 149 147 140 136 106 76 77 86 84 93 92 89 88 89 97 93 98 96 95 92 86 98 97 92 91 92 93 80 83 84 89 87 80 74 68 69 70 110 128 152 162 160 169 172 168 174 168 167 162 161 150 138 118 240 252 255 254 255 255 255 255 255 255 250 246 212 205 213 85 76 74 79 77 143 164 207 227 217 224 185 202 212 215 116 213 204 204 205 196 168 68 202 192 188 165 114 220 202 198 190 186 180 178 176 176 171 171 178 188 174 67 49 55 57 69 130 133 158 179 180 181 174 146 248 254 248 255 255 255 255 255 255 255 255 255 255 255 255 255 255 80 80 80 80 80 80 80 80 80 80 80 80 80 80 80 80 80 80 80 80 80 80 80 80 80 80 80 80 80 80 80 80 80 80 80 80 80 80 80 80 80 80 80 80 80 80 80 80 80 80 80 80 80 80 80 80 80 80 80 80 80 80 80 80 80 80 
252 252 252 245 50 77 80 81 82 80 82 81 80 66 54 84 90 64 64 77 86 87 92 93 95 96 97 97 94 97 99 97 97 96 98 94 100 94 96 92 92 95 89 85 75 75 62 42 102 112 48 58 74 79 85 74 75 77 74 70 44 160 138 130 108 102 112 135 136 125 113 60 73 68 72 73 76 75 76 78 79 80 83 86 90 90 92 94 93 92 92 89 90 88 85 81 79 79 80 75 75 73 73 66 69 62 99 123 124 121 118 111 96 109 113 116 104 90 78 241 252 252 252 254 253 253 254 255 252 251 204 153 144 147 159 160 155 162 159 159 160 160 155 148 145 138 146 140 138 134 125 114 113 111 111 109 110 108 106 108 106 102 100 108 106 112 107 107 105 102 103 104 109 113 107 110 115 119 125 168 162 157 160 168 170 172 177 170 169 164 165 164 154 142 119 245 251 255 254 255 255 255 255 255 251 250 236 213 204 186 124 67 72 75 80 123 152 162 223 227 222 219 175 175 182 120 202 195 203 197 207 165 82 186 172 147 86 129 197 201 199 190 185 179 179 176 175 171 172 175 164 158 55 67 63 66 75 151 118 158 181 180 186 179 152 231 254 252 255 255 255 255 255 255 255 255 255 255 255 255 255 255 80 80 80 80 80 80 80 80 80 80 80 80 80 80 80 80 80 80 80 80 80 80 80 80 80 80 80 80 80 80 80 80 80 80 80 80 80 80 80 80 80 80 80 80 80 80 80 80 80 80 80 80 80 80 80 80 80 80 80 80 80 80 80 80 80 80 
253 253 252 235 39 80 81 81 78 69 80 84 79 75 60 103 66 56 87 81 95 96 97 97 95 99 100 99 100 100 101 101 101 101 100 97 98 96 93 93 93 93 90 90 85 67 74 54 71 58 50 73 79 82 82 76 70 79 75 73 61 80 135 130 118 105 113 134 130 122 111 56 76 69 72 74 75 77 77 79 81 78 82 86 86 89 91 92 92 93 92 90 89 86 82 82 78 78 78 77 74 72 73 71 71 68 103 120 119 115 109 97 90 82 90 91 91 112 88 153 249 245 254 254 253 254 253 252 254 249 202 144 158 166 166 168 170 169 168 165 166 166 163 157 152 147 145 138 141 149 150 149 153 151 152 157 157 156 149 156 135 136 97 99 110 94 106 148 153 153 149 146 149 145 141 139 138 143 133 154 158 168 170 170 173 174 174 171 165 162 166 163 155 143 129 174 246 253 253 255 255 255 255 255 253 252 222 214 200 181 167 74 74 80 79 76 188 174 231 223 217 223 220 181 107 96 128 170 155 150 140 110 69 133 76 130 205 217 203 194 192 191 183 180 180 176 171 170 174 186 178 175 65 71 68 67 62 139 148 131 191 186 189 180 171 179 248 254 255 255 255 255 255 255 255 255 255 255 255 255 255 255 80 80 80 80 80 80 80 80 80 80 80 80 80 80 80 80 80 80 80 80 80 80 80 80 80 80 80 80 80 80 80 80 80 80 80 80 80 80 80 80 80 80 80 80 80 80 80 80 80 80 80 80 80 80 80 80 80 80 80 80 80 80 80 80 80 80 
253 254 254 227 56 81 82 81 70 69 81 80 80 80 46 97 88 83 92 93 94 95 97 97 96 98 99 98 100 102 104 103 103 103 103 102 101 97 97 95 93 92 91 90 82 78 87 86 73 62 52 78 79 83 84 80 68 76 80 68 66 65 119 117 114 110 109 131 124 123 107 59 76 65 69 75 75 76 76 79 81 79 83 87 84 87 91 93 91 91 91 89 88 86 84 80 78 79 73 73 71 71 72 73 72 68 103 118 115 112 106 92 83 78 82 96 88 98 90 69 245 246 253 255 254 254 254 250 254 238 150 160 162 171 169 170 170 169 169 166 167 169 164 160 153 150 150 131 146 151 150 153 156 155 157 155 158 153 151 141 152 114 218 231 235 239 178 85 145 145 148 148 145 144 144 144 138 145 142 148 160 165 166 170 173 173 172 170 160 153 158 160 155 144 129 114 250 252 253 255 255 255 255 255 254 253 205 212 200 170 149 52 53 63 67 60 179 173 225 224 220 223 214 216 206 152 83 93 89 86 84 70 62 113 208 216 210 196 199 203 193 190 184 180 180 175 173 171 171 192 186 185 74 68 67 65 61 91 150 125 192 187 191 183 172 154 245 253 255 255 255 255 255 255 255 255 255 255 255 255 255 255 80 80 80 80 80 80 80 80 80 80 80 80 80 80 80 80 80 80 80 80 80 80 80 80 80 80 80 80 80 80 80 80 80 80 80 80 80 80 80 80 80 80 80 80 80 80 80 80 80 80 80 80 80 80 80 80 80 80 80 80 80 80 80 80 80 80 
253 253 251 207 70 83 82 79 68 81 81 80 79 73 56 101 84 87 86 95 91 94 95 96 96 97 99 99 101 103 105 106 106 106 106 101 100 97 96 94 92 91 92 92 90 88 84 83 82 72 57 83 78 82 82 77 67 70 77 76 66 61 157 132 121 116 112 125 119 116 100 53 67 63 69 73 73 76 76 78 81 78 80 83 84 86 89 89 88 88 87 86 82 82 83 79 78 78 72 72 71 70 71 72 74 73 105 117 111 107 102 90 79 72 75 98 101 98 80 65 230 254 249 254 255 254 255 251 246 209 144 166 168 166 168 169 171 168 169 167 168 167 163 161 157 150 144 138 146 148 157 156 158 159 164 161 160 157 151 157 108 241 141 60 54 73 171 221 93 154 147 152 151 149 143 140 140 144 141 141 167 163 162 166 171 171 168 165 144 129 145 154 151 144 135 105 242 252 253 255 255 255 255 255 253 249 201 212 208 179 122 57 51 56 65 64 166 165 204 226 220 220 219 220 214 220 209 207 200 198 207 212 222 218 205 206 201 204 197 198 192 187 183 182 180 175 174 173 169 193 188 180 74 82 71 68 56 21 142 140 158 187 191 186 178 148 240 252 255 255 255 255 255 255 255 255 255 255 255 255 255 255 80 80 80 80 80 80 80 80 80 80 80 80 80 80 80 80 80 80 80 80 80 80 80 80 80 80 80 80 80 80 80 80 80 80 80 80 80 80 80 80 80 80 80 80 80 80 80 80 80 80 80 80 80 80 80 80 80 80 80 80 80 80 80 80 80 80 
253 252 248 186 73 82 85 78 64 86 82 82 79 74 55 107 87 85 90 86 92 95 97 98 96 97 99 101 102 104 105 107 107 107 107 103 101 99 94 93 91 90 95 90 90 93 84 88 88 69 50 81 81 85 83 78 67 69 82 83 73 70 176 145 128 125 113 115 114 105 102 71 73 67 72 77 75 76 75 78 81 79 81 84 83 85 87 87 88 89 88 87 84 84 86 79 78 78 75 73 70 68 70 70 76 74 104 114 104 103 99 89 78 71 72 99 108 99 77 67 151 252 255 253 254 254 253 251 238 158 155 164 167 168 169 167 166 167 168 166 168 167 164 164 158 149 134 151 153 157 158 162 161 158 161 163 161 157 152 128 158 101 60 107 97 76 56 162 182 138 157 147 152 147 149 149 146 146 139 142 167 163 166 165 168 167 163 157 137 120 135 146 144 139 110 108 204 252 253 255 255 255 255 255 252 244 208 212 207 177 97 71 66 67 69 83 147 190 185 225 218 219 218 217 212 207 210 217 210 213 201 200 207 205 198 205 203 196 199 202 194 189 185 182 179 175 175 174 172 197 188 183 78 74 73 63 54 44 37 110 157 186 193 188 176 154 237 255 255 255 255 255 255 255 255 255 255 255 255 255 255 255 80 80 80 80 80 80 80 80 80 80 80 80 80 80 80 80 80 80 80 80 80 80 80 80 80 80 80 80 80 80 80 80 80 80 80 80 80 80 80 80 80 80 80 80 80 80 80 80 80 80 80 80 80 80 80 80 80 80 80 80 80 80 80 80 80 80 
250 250 242 92 75 80 89 74 68 83 82 78 78 72 51 100 84 89 89 90 90 93 95 98 97 98 100 102 101 107 107 110 109 108 107 104 102 101 97 96 94 92 92 91 92 91 88 86 82 75 56 86 83 79 81 82 74 65 87 89 81 65 155 172 155 122 143 115 96 105 95 58 65 70 73 76 73 77 78 77 79 78 80 80 84 85 87 88 85 84 84 82 82 77 78 78 77 76 70 69 70 66 65 66 75 70 109 111 93 102 99 85 64 73 71 100 107 121 102 74 78 253 237 252 253 255 253 245 187 131 147 159 165 168 170 171 168 168 168 167 165 163 158 158 146 144 153 146 153 156 161 161 162 163 162 163 163 155 150 115 204 70 95 112 113 100 88 55 196 93 156 155 152 149 149 147 146 147 148 150 146 166 159 164 162 160 161 143 122 97 116 126 129 127 110 110 128 250 253 255 255 255 255 255 251 248 211 216 202 189 54 56 76 76 74 80 105 191 181 217 221 217 220 218 215 212 211 212 210 209 205 206 204 204 202 202 201 201 202 197 193 190 187 182 180 177 178 172 173 193 192 182 70 76 67 59 58 48 41 34 59 181 191 197 176 167 185 246 254 255 255 255 255 255 255 255 255 255 255 255 255 255 80 80 80 80 80 80 80 80 80 80 80 80 80 80 80 80 80 80 80 80 80 80 80 80 80 80 80 80 80 80 80 80 80 80 80 80 80 80 80 80 80 80 80 80 80 80 80 80 80 80 80 80 80 80 80 80 80 80 80 80 80 80 80 80 80 80 
251 253 251 187 99 106 99 91 77 79 80 79 75 73 51 103 87 90 93 96 96 96 96 97 98 99 101 101 101 107 107 107 105 106 107 103 102 101 98 96 95 93 92 89 90 88 86 85 81 78 50 86 81 79 81 82 73 71 100 96 99 108 199 184 161 123 180 106 99 88 87 65 61 66 71 76 74 76 76 76 79 78 80 80 79 82 83 83 84 82 84 83 81 80 77 76 77 74 68 67 69 66 64 65 74 67 102 101 91 107 90 82 71 73 67 91 106 116 121 126 191 250 255 251 252 255 255 244 150 140 141 153 158 166 164 167 166 166 165 163 161 158 152 153 151 140 150 154 153 156 164 162 163 164 164 165 164 156 155 129 169 79 91 98 100 91 87 87 119 95 156 149 144 149 150 148 146 146 147 147 142 149 160 158 152 149 150 143 114 76 100 114 119 114 102 98 128 249 253 255 255 255 255 255 252 245 210 217 200 187 41 49 60 78 81 89 84 192 187 200 221 217 215 216 216 213 211 213 211 209 205 206 204 206 204 203 202 201 202 198 196 191 189 184 182 177 177 171 174 195 185 183 74 72 68 67 59 53 37 31 34 177 190 199 178 171 156 248 254 255 255 255 255 255 255 255 255 255 255 255 255 255 80 80 80 80 80 80 80 80 80 80 80 80 80 80 80 80 80 80 80 80 80 80 80 80 80 80 80 80 80 80 80 80 80 80 80 80 80 80 80 80 80 80 80 80 80 80 80 80 80 80 80 80 80 80 80 80 80 80 80 80 80 80 80 80 80 80 
253 254 253 235 152 162 157 133 78 81 79 73 72 72 45 94 74 84 86 90 92 94 95 97 96 98 99 103 102 107 106 107 104 106 108 104 102 100 96 95 93 91 92 90 87 89 80 80 80 74 44 83 81 78 78 78 68 111 168 180 175 159 203 186 157 112 120 82 80 82 79 56 61 70 72 73 72 71 72 74 80 76 79 79 76 82 83 80 82 81 79 80 80 81 77 76 75 74 74 74 76 73 71 64 75 72 103 99 82 102 76 79 72 70 64 125 119 125 133 146 180 252 248 252 253 254 254 234 131 145 133 144 148 160 158 163 163 162 160 158 155 153 149 146 140 151 154 153 156 159 161 163 165 165 164 163 162 154 153 147 160 79 89 90 91 94 90 72 99 120 151 156 156 151 151 147 148 149 150 151 147 145 151 146 144 138 138 130 170 154 75 88 98 95 95 96 134 249 253 255 255 255 255 255 253 243 211 217 200 176 39 53 53 64 79 82 71 184 188 181 218 220 215 214 215 212 211 213 210 209 205 206 204 205 204 204 201 201 202 198 198 192 191 185 183 177 176 172 173 195 188 182 70 68 69 67 45 41 37 34 17 165 191 191 184 178 148 249 254 255 255 255 255 255 255 255 255 255 255 255 255 255 80 80 80 80 80 80 80 80 80 80 80 80 80 80 80 80 80 80 80 80 80 80 80 80 80 80 80 80 80 80 80 80 80 80 80 80 80 80 80 80 80 80 80 80 80 80 80 80 80 80 80 80 80 80 80 80 80 80 80 80 80 80 80 80 80 80 
255 254 249 235 192 191 177 144 77 77 79 65 74 67 43 102 90 89 90 90 88 88 93 98 96 98 99 100 105 105 109 107 107 107 110 102 101 101 96 94 95 91 90 87 86 88 78 78 75 73 41 76 79 78 70 74 80 104 162 187 182 171 207 183 156 63 72 65 67 68 54 50 66 74 69 73 67 70 69 73 73 75 77 76 75 77 80 81 79 75 75 77 75 76 76 77 75 77 70 68 59 56 53 38 52 62 94 93 80 88 73 83 74 76 66 171 130 145 156 152 178 248 249 253 255 254 253 237 116 148 118 137 145 149 152 151 151 148 148 143 146 145 142 151 156 152 156 154 158 160 163 159 161 162 163 165 161 154 161 142 182 67 70 94 91 83 75 96 122 115 144 154 149 154 152 148 146 146 149 152 147 150 144 142 134 137 132 166 173 180 79 72 82 74 83 102 156 250 253 255 255 255 255 255 251 237 212 217 204 169 43 56 59 62 69 72 78 162 191 188 212 218 212 217 217 210 210 213 214 210 204 206 207 205 203 203 202 203 199 201 197 192 187 187 182 178 175 179 177 194 191 183 62 77 73 59 47 42 44 32 29 134 190 200 195 177 143 250 253 254 254 255 254 255 255 255 255 255 255 255 255 255 80 80 80 80 80 80 80 80 80 80 80 80 80 80 80 80 80 80 80 80 80 80 80 80 80 80 80 80 80 80 80 80 80 80 80 80 80 80 80 80 80 80 80 80 80 80 80 80 80 80 80 80 80 80 80 80 80 80 80 80 80 80 80 80 80 80 
254 254 251 235 202 200 177 126 65 73 68 65 63 64 41 97 91 89 91 90 94 92 95 96 94 96 98 102 99 105 108 106 109 106 106 103 100 98 96 94 95 91 91 90 87 82 80 76 71 71 46 78 71 71 77 71 65 68 188 197 192 177 209 183 166 55 71 72 63 65 48 71 45 66 72 75 70 71 70 72 70 73 75 77 74 76 78 78 75 74 74 76 75 74 75 75 74 73 71 70 68 68 61 60 73 52 62 70 63 64 63 70 63 60 56 82 142 156 168 170 171 244 252 253 254 254 252 234 96 134 106 52 104 142 142 144 143 133 141 139 137 142 154 153 152 152 159 160 159 159 160 163 165 166 166 165 161 158 154 107 238 53 77 68 76 93 76 106 189 102 157 153 157 154 153 152 148 149 151 152 148 145 146 153 120 115 119 175 177 182 95 82 95 98 97 96 250 251 253 255 255 255 255 255 251 237 212 217 202 154 48 57 63 67 68 69 74 128 185 182 202 218 209 214 216 211 210 208 206 208 206 207 206 209 203 202 198 203 200 199 198 194 190 189 185 180 176 179 179 192 183 184 64 80 62 53 56 42 42 33 31 98 192 196 197 183 146 243 253 254 254 255 254 255 255 255 255 255 255 255 255 255 80 80 80 80 80 80 80 80 80 80 80 80 80 80 80 80 80 80 80 80 80 80 80 80 80 80 80 80 80 80 80 80 80 80 80 80 80 80 80 80 80 80 80 80 80 80 80 80 80 80 80 80 80 80 80 80 80 80 80 80 80 80 80 80 80 80 
253 254 252 239 213 205 177 106 96 78 66 67 58 59 46 107 99 97 95 92 91 89 92 94 93 95 98 99 98 102 105 106 108 105 105 105 102 100 96 94 95 91 91 91 88 83 82 76 75 81 47 74 70 61 58 61 76 76 190 201 195 179 206 181 165 51 63 70 65 60 46 79 62 48 51 63 73 76 77 78 75 73 73 75 74 75 76 76 75 75 74 74 72 70 71 70 71 70 68 69 65 61 65 63 75 53 43 60 59 51 52 58 37 40 38 78 151 163 174 177 179 247 249 254 254 253 252 239 111 128 111 68 49 161 174 164 153 142 133 136 153 153 152 153 152 155 157 161 159 161 161 162 164 165 165 166 164 162 148 133 153 90 57 72 61 54 114 133 223 127 161 156 156 154 152 153 150 150 148 146 142 142 141 143 139 122 106 181 183 185 113 95 101 101 96 204 245 252 253 255 255 255 255 255 251 238 213 218 197 148 54 58 66 69 69 69 75 108 189 192 195 219 212 211 211 206 211 208 209 205 205 205 202 199 201 204 198 201 199 199 191 191 186 185 180 177 173 174 174 192 191 188 80 62 58 61 59 57 38 27 54 116 191 193 195 183 158 238 253 254 254 255 254 255 255 255 255 255 255 255 255 255 80 80 80 80 80 80 80 80 80 80 80 80 80 80 80 80 80 80 80 80 80 80 80 80 80 80 80 80 80 80 80 80 80 80 80 80 80 80 80 80 80 80 80 80 80 80 80 80 80 80 80 80 80 80 80 80 80 80 80 80 80 80 80 80 80 80 
252 254 254 237 206 207 182 84 101 114 102 114 74 66 46 97 91 87 91 94 99 96 95 94 92 95 98 98 103 103 107 107 106 103 106 99 98 96 96 94 95 91 93 93 89 84 85 85 91 83 44 64 60 69 86 104 77 85 177 200 195 177 200 183 164 49 72 65 57 62 50 95 69 62 58 66 61 72 75 77 74 73 72 73 75 75 75 74 71 73 72 72 69 67 67 68 73 72 73 68 68 71 70 75 75 64 40 57 52 50 47 60 41 35 38 73 156 166 179 176 179 244 249 255 253 252 253 250 139 129 125 51 76 178 183 178 158 141 136 156 151 153 156 159 155 158 156 160 158 166 165 165 166 168 167 161 163 159 163 166 94 234 119 52 69 103 127 234 134 162 153 161 157 158 154 154 150 152 152 150 141 146 142 139 129 121 121 182 196 189 148 110 119 140 228 235 253 251 253 255 255 255 255 255 251 238 212 217 201 151 57 65 70 71 74 78 73 80 181 191 179 207 205 209 215 214 223 222 225 231 231 231 227 222 218 216 217 218 215 218 215 216 212 205 202 198 194 193 179 184 178 196 90 65 65 65 58 72 100 132 140 126 185 197 199 183 168 233 253 254 254 255 254 255 255 255 255 255 255 255 255 255 80 80 80 80 80 80 80 80 80 80 80 80 80 80 80 80 80 80 80 80 80 80 80 80 80 80 80 80 80 80 80 80 80 80 80 80 80 80 80 80 80 80 80 80 80 80 80 80 80 80 80 80 80 80 80 80 80 80 80 80 80 80 80 80 80 80 
254 254 253 236 211 202 179 80 85 105 94 98 96 95 66 102 102 89 87 85 88 90 94 97 96 95 96 99 100 102 102 106 105 104 102 101 100 100 96 96 96 94 95 95 92 93 85 84 76 74 63 85 89 94 84 85 88 69 160 203 198 177 201 191 180 40 68 57 66 63 50 80 75 71 67 64 68 74 79 80 74 70 69 68 72 70 70 73 68 69 67 68 68 70 71 69 72 72 70 72 71 72 70 70 68 74 48 47 55 56 52 60 49 34 34 69 159 169 178 178 186 249 252 253 255 254 253 252 210 102 112 73 78 191 192 172 154 110 139 146 156 152 152 152 154 157 159 159 159 159 163 159 163 163 166 165 164 163 160 156 152 102 187 226 192 218 201 112 114 155 154 158 158 153 151 151 148 145 144 142 141 141 138 137 126 107 93 164 203 194 207 242 244 249 249 252 253 255 255 255 255 255 255 255 252 233 213 220 201 160 61 60 67 75 77 76 71 78 178 188 187 170 179 181 180 181 168 168 174 172 166 164 170 170 167 167 167 169 164 172 166 161 161 159 168 169 173 172 162 195 187 197 158 152 153 156 158 151 143 136 130 122 179 188 196 188 174 218 253 254 255 255 254 255 255 255 255 255 255 255 255 255 80 80 80 80 80 80 80 80 80 80 80 80 80 80 80 80 80 80 80 80 80 80 80 80 80 80 80 80 80 80 80 80 80 80 80 80 80 80 80 80 80 80 80 80 80 80 80 80 80 80 80 80 80 80 80 80 80 80 80 80 80 80 80 80 80 80 
254 254 254 239 206 203 185 73 95 106 91 91 83 79 51 105 104 97 95 94 95 96 97 97 97 99 100 99 100 103 104 104 105 104 103 99 97 96 96 95 94 93 92 91 91 85 80 76 73 77 61 67 72 76 78 78 89 73 170 200 197 180 212 199 190 35 60 57 51 37 81 70 68 72 72 71 70 72 75 77 73 72 71 69 68 69 66 72 64 69 67 67 69 69 67 69 72 72 71 75 73 74 71 65 70 82 59 44 63 56 47 62 42 33 31 65 158 171 177 177 190 251 251 252 254 254 253 251 246 230 99 102 96 193 205 183 137 92 121 139 153 153 154 150 150 151 152 151 153 155 154 152 152 155 155 157 157 157 150 159 153 151 133 98 82 91 126 153 153 155 155 152 151 150 146 145 140 141 141 138 139 134 122 106 88 84 90 127 203 197 193 253 250 253 252 255 254 255 255 255 255 255 255 255 250 239 210 220 212 173 117 127 138 152 158 153 174 185 177 175 187 163 186 187 191 198 190 192 203 200 198 199 209 204 202 203 205 206 203 205 201 202 197 199 197 205 196 175 172 181 190 182 182 179 174 170 169 151 139 131 131 141 174 196 196 188 168 208 253 254 255 255 254 255 255 255 255 255 255 255 255 255 80 80 80 80 80 80 80 80 80 80 80 80 80 80 80 80 80 80 80 80 80 80 80 80 80 80 80 80 80 80 80 80 80 80 80 80 80 80 80 80 80 80 80 80 80 80 80 80 80 80 80 80 80 80 80 80 80 80 80 80 80 80 80 80 80 80 
254 254 254 244 202 206 187 93 93 102 88 86 78 70 59 106 100 97 96 94 93 95 97 98 96 96 98 98 100 103 105 107 107 105 103 101 98 96 94 92 90 89 89 91 89 85 79 78 84 71 71 61 73 74 77 76 85 75 183 206 200 179 207 209 188 77 68 55 49 62 83 70 67 71 70 71 73 74 75 78 75 70 69 68 68 67 66 79 69 69 67 64 69 69 68 69 72 72 71 74 72 73 66 68 67 57 69 55 48 53 48 62 49 41 30 57 157 173 177 179 195 251 250 252 254 254 253 253 254 248 238 220 189 194 210 190 125 100 98 104 112 119 138 145 147 148 149 149 150 152 154 155 152 156 155 157 156 156 161 151 156 156 164 165 159 159 147 153 151 151 152 147 148 145 142 139 141 140 135 128 118 113 105 104 102 94 89 106 203 196 190 247 252 250 254 255 254 255 255 255 255 255 255 255 250 239 205 221 220 188 109 136 136 144 159 153 173 187 184 184 184 168 208 210 209 211 214 216 220 218 219 218 222 226 223 226 222 220 220 217 217 215 214 214 217 192 180 193 203 170 184 184 183 181 179 169 160 148 139 141 160 172 162 192 201 178 164 203 253 254 255 255 254 255 255 255 255 255 255 255 255 255 80 80 80 80 80 80 80 80 80 80 80 80 80 80 80 80 80 80 80 80 80 80 80 80 80 80 80 80 80 80 80 80 80 80 80 80 80 80 80 80 80 80 80 80 80 80 80 80 80 80 80 80 80 80 80 80 80 80 80 80 80 80 80 80 80 80 
254 253 252 243 210 202 185 134 84 104 86 79 73 64 82 92 90 92 95 97 95 98 96 96 95 93 91 96 99 100 103 99 104 102 105 101 97 93 93 91 89 88 90 88 87 86 84 84 85 71 87 53 64 69 76 69 92 63 189 205 194 179 212 208 190 172 46 56 34 72 69 68 70 71 72 71 72 70 72 74 72 69 71 71 70 71 69 82 73 68 70 68 67 67 68 70 70 70 72 70 69 69 70 73 59 48 69 70 49 47 47 57 47 28 34 78 162 170 178 185 203 247 254 252 252 253 253 251 251 250 248 250 215 207 207 192 118 113 116 120 118 120 113 114 111 112 114 115 108 107 105 103 107 120 127 141 142 151 155 153 150 148 155 147 146 145 157 147 149 147 149 145 139 132 125 121 116 110 111 116 120 117 113 108 98 97 87 87 205 209 191 249 254 255 255 253 255 255 255 255 255 255 255 255 252 244 199 217 216 189 126 139 144 144 152 162 172 180 187 186 179 181 220 220 224 227 229 231 232 232 232 232 232 230 231 231 226 226 224 221 217 216 227 223 214 199 208 206 202 182 157 157 159 152 151 152 158 161 166 174 172 183 160 200 200 183 166 191 254 253 255 252 252 252 252 252 252 252 252 255 254 254 80 80 80 80 80 80 80 80 80 80 80 80 80 80 80 80 80 80 80 80 80 80 80 80 80 80 80 80 80 80 80 80 80 80 80 80 80 80 80 80 80 80 80 80 80 80 80 80 80 80 80 80 80 80 80 80 80 80 80 80 80 80 80 80 80 80 
254 253 253 251 199 207 192 139 77 93 81 73 67 56 97 93 98 93 94 96 92 95 94 94 92 93 91 94 96 95 98 97 103 97 96 97 93 91 93 91 89 89 88 88 87 80 79 85 78 70 83 71 63 67 63 71 80 56 170 198 189 186 210 205 191 188 56 52 66 62 60 66 67 71 71 73 74 70 72 75 75 76 75 73 72 72 69 79 74 67 68 67 68 70 72 69 70 69 70 69 70 70 70 70 59 60 63 73 76 55 37 46 44 37 43 197 178 194 204 199 206 230 253 253 254 254 254 252 252 252 249 250 214 208 213 193 118 119 124 126 125 122 121 124 122 122 122 123 124 123 120 118 117 113 111 109 110 117 125 129 139 150 150 146 149 150 148 147 140 125 119 115 114 111 113 116 118 123 126 127 125 122 115 111 102 97 92 81 205 206 188 248 251 254 254 253 254 255 255 255 255 255 255 255 254 245 197 219 215 189 145 132 131 146 148 155 160 162 162 169 168 199 226 225 226 227 227 229 230 228 228 228 228 228 227 226 224 226 221 215 213 220 216 204 203 217 212 206 202 199 194 186 182 180 178 178 176 174 170 168 164 170 164 200 194 178 164 189 253 254 252 254 253 253 253 253 253 253 253 253 253 253 80 80 80 80 80 80 80 80 80 80 80 80 80 80 80 80 80 80 80 80 80 80 80 80 80 80 80 80 80 80 80 80 80 80 80 80 80 80 80 80 80 80 80 80 80 80 80 80 80 80 80 80 80 80 80 80 80 80 80 80 80 80 80 80 80 80 
253 254 254 237 197 210 197 161 73 93 65 59 62 96 97 96 94 95 94 97 99 100 96 93 89 92 94 93 94 92 93 94 105 100 98 96 95 94 89 88 87 87 88 88 87 85 80 82 73 79 63 90 70 50 60 63 75 115 184 209 203 162 190 211 201 170 175 33 41 63 58 65 60 67 68 70 72 70 69 71 73 71 72 73 73 70 67 71 73 66 69 71 70 70 70 68 69 68 69 68 70 72 70 68 64 62 70 65 69 65 74 62 47 35 101 167 199 225 244 232 221 214 251 254 254 254 254 254 254 254 251 250 214 210 212 189 109 118 126 124 128 127 126 126 125 124 124 124 125 125 124 126 126 125 125 124 124 124 126 122 117 115 115 97 106 112 119 120 121 121 124 123 122 124 122 122 121 119 120 123 120 125 124 112 99 96 96 82 211 209 187 248 254 255 254 253 254 255 255 255 255 254 254 254 251 247 189 217 214 179 157 170 180 175 200 201 207 210 218 216 223 218 222 220 220 220 219 220 220 218 218 218 218 219 218 217 218 213 213 217 214 207 207 213 219 205 203 200 202 196 193 191 190 180 177 174 171 162 158 157 159 158 165 193 194 180 166 189 251 251 250 252 252 252 252 252 252 252 252 250 252 253 80 80 80 80 80 80 80 80 80 80 80 80 80 80 80 80 80 80 80 80 80 80 80 80 80 80 80 80 80 80 80 80 80 80 80 80 80 80 80 80 80 80 80 80 80 80 80 80 80 80 80 80 80 80 80 80 80 80 80 80 80 80 80 80 80 80 
253 254 255 239 153 166 145 119 73 70 65 81 90 90 88 98 97 92 91 93 95 98 97 97 90 92 95 93 95 95 96 96 103 98 95 94 92 89 91 91 90 90 86 82 81 80 78 79 80 84 79 76 90 88 74 63 73 98 132 111 127 117 180 207 205 172 154 106 42 46 53 60 59 66 66 67 69 70 67 68 70 72 71 69 71 67 66 67 71 59 60 62 63 65 67 68 69 68 71 70 71 71 69 69 67 68 65 65 59 61 52 42 36 65 250 126 173 201 225 227 220 219 255 253 253 254 254 255 255 254 251 250 214 211 210 191 108 116 124 123 126 125 129 129 126 127 129 130 125 125 127 128 126 125 126 126 126 126 125 123 121 121 117 100 104 114 103 116 123 126 121 123 126 121 122 122 119 122 121 117 119 122 123 123 98 96 90 85 201 211 182 246 252 253 254 253 254 255 255 255 255 254 254 254 252 252 192 220 213 176 158 179 179 180 173 194 203 206 208 208 211 215 211 211 213 214 214 215 214 214 214 214 214 210 211 211 204 209 214 214 209 207 216 220 207 202 198 196 194 195 193 186 182 178 171 166 163 158 153 150 145 224 174 193 196 180 165 187 250 249 251 248 251 251 251 251 251 251 251 249 251 252 80 80 80 80 80 80 80 80 80 80 80 80 80 80 80 80 80 80 80 80 80 80 80 80 80 80 80 80 80 80 80 80 80 80 80 80 80 80 80 80 80 80 80 80 80 80 80 80 80 80 80 80 80 80 80 80 80 80 80 80 80 80 80 80 80 80 
254 253 253 223 221 214 190 159 146 72 70 93 85 89 88 89 86 84 85 86 88 88 90 95 94 93 95 91 94 92 92 90 99 96 95 91 92 91 87 87 87 86 89 88 85 76 81 77 80 79 76 72 67 65 66 68 103 169 210 215 223 218 189 206 209 187 164 141 105 52 50 61 45 55 59 60 66 67 67 66 69 68 68 67 67 65 64 63 75 54 58 58 58 61 64 60 61 65 63 65 67 68 68 67 65 65 62 58 66 51 59 30 77 235 246 128 191 221 217 206 195 229 252 252 253 254 254 253 253 254 255 250 212 209 214 187 107 114 122 124 128 125 127 126 125 123 128 128 126 127 126 127 129 127 129 126 126 122 123 125 116 123 100 116 153 149 138 106 107 121 125 126 120 122 122 120 121 121 118 120 115 116 120 126 102 88 94 87 198 202 185 245 250 254 255 253 253 254 254 254 254 253 253 253 250 250 199 219 215 180 159 240 156 175 182 184 194 198 201 203 206 210 208 206 205 206 207 207 208 208 207 204 204 207 205 203 202 203 203 204 202 205 204 198 197 197 194 194 192 189 186 183 178 171 162 158 156 148 149 153 177 230 167 200 196 179 168 180 254 251 252 251 248 247 249 250 249 248 251 249 251 252 80 80 80 80 80 80 80 80 80 80 80 80 80 80 80 80 80 80 80 80 80 80 80 80 80 80 80 80 80 80 80 80 80 80 80 80 80 80 80 80 80 80 80 80 80 80 80 80 80 80 80 80 80 80 80 80 80 80 80 80 80 80 80 80 80 80 
254 254 254 248 217 177 183 145 95 111 213 58 86 83 86 83 83 84 83 81 79 79 78 80 82 83 85 91 88 93 91 95 95 93 89 91 90 90 85 85 86 86 85 84 81 83 80 78 79 78 77 80 56 64 165 216 102 135 190 197 233 230 191 193 207 200 188 145 144 115 44 45 50 53 54 56 56 58 59 59 63 64 66 67 62 62 62 63 73 59 55 57 60 63 63 66 63 58 62 61 59 59 60 62 63 63 51 54 56 46 25 190 199 144 133 182 222 238 219 208 194 224 249 251 252 254 254 253 253 254 255 249 213 206 212 187 102 106 119 116 121 124 124 125 119 119 124 125 126 126 125 127 122 126 122 119 121 127 124 114 94 134 157 156 161 155 152 160 154 110 94 118 119 122 124 124 121 120 123 120 117 117 119 119 119 106 87 84 173 201 184 245 250 254 252 252 252 252 252 252 252 250 250 250 248 247 201 212 212 188 167 225 234 156 175 168 175 180 189 191 193 196 197 198 200 200 197 197 198 197 197 196 196 196 198 197 195 195 196 196 195 193 194 193 191 192 188 186 184 181 175 173 171 166 155 154 147 146 154 165 230 187 188 195 198 188 176 159 223 250 239 250 248 246 244 248 249 248 251 249 249 249 80 80 80 80 80 80 80 80 80 80 80 80 80 80 80 80 80 80 80 80 80 80 80 80 80 80 80 80 80 80 80 80 80 80 80 80 80 80 80 80 80 80 80 80 80 80 80 80 80 80 80 80 80 80 80 80 80 80 80 80 80 80 80 80 80 80 
254 253 253 250 253 220 206 163 104 104 221 238 74 79 87 83 87 83 81 81 78 77 76 77 76 75 77 78 80 80 84 90 93 93 85 87 87 86 85 86 85 84 85 84 82 78 73 76 77 69 70 60 84 130 249 192 123 176 212 231 229 228 204 172 179 200 172 161 136 137 227 132 54 52 51 56 56 51 50 49 52 53 53 53 59 60 61 63 76 63 60 63 65 65 64 58 57 52 50 50 53 54 57 57 55 54 53 50 47 102 204 94 118 143 185 232 233 236 243 235 218 237 246 248 250 251 252 253 253 254 253 248 216 208 214 190 101 104 110 118 120 118 111 107 110 116 128 125 126 127 126 125 126 121 122 120 117 105 95 101 146 155 157 166 156 160 166 158 161 162 160 114 97 110 118 122 121 122 121 123 120 121 120 116 123 121 109 94 156 205 188 247 250 253 250 251 252 249 249 249 249 249 249 249 250 245 200 212 215 193 175 185 253 231 162 162 164 169 179 183 185 183 188 190 190 189 191 192 193 193 193 193 193 187 190 191 192 192 191 190 186 185 186 182 180 181 178 177 175 172 168 166 161 154 152 148 147 139 187 230 152 191 215 208 191 192 179 177 180 237 239 237 245 243 240 240 241 241 245 242 244 245 80 80 80 80 80 80 80 80 80 80 80 80 80 80 80 80 80 80 80 80 80 80 80 80 80 80 80 80 80 80 80 80 80 80 80 80 80 80 80 80 80 80 80 80 80 80 80 80 80 80 80 80 80 80 80 80 80 80 80 80 80 80 80 80 80 80 
255 255 255 217 246 231 234 208 156 134 89 144 214 88 72 92 86 81 84 78 74 80 75 79 75 74 72 75 75 75 77 77 86 78 92 86 87 87 84 79 76 75 83 74 74 80 70 72 73 65 63 76 235 252 105 112 184 221 229 234 231 239 201 184 158 168 177 132 145 152 219 207 223 124 61 34 44 54 54 55 55 51 50 48 40 47 41 36 35 57 28 42 42 42 37 48 47 49 49 52 56 55 52 61 64 47 33 65 209 254 118 123 138 175 191 234 237 244 241 237 222 219 253 245 248 250 250 250 251 253 250 247 222 199 211 180 102 86 112 119 112 96 96 118 126 127 128 128 131 126 128 122 122 120 123 119 103 100 151 158 156 165 160 165 160 170 170 164 161 163 163 164 158 105 89 106 112 118 116 113 117 122 123 119 119 122 120 110 130 196 183 218 248 247 249 247 249 251 250 250 249 250 250 249 249 243 204 214 220 203 191 165 186 236 239 158 164 160 165 174 164 180 180 183 187 187 188 187 186 187 187 187 187 188 190 185 185 185 184 185 184 182 179 174 175 174 172 168 163 160 150 155 152 146 140 154 132 222 176 135 202 203 206 208 203 195 188 180 147 248 241 237 242 238 233 237 242 241 241 240 241 241 80 80 80 80 80 80 80 80 80 80 80 80 80 80 80 80 80 80 80 80 80 80 80 80 80 80 80 80 80 80 80 80 80 80 80 80 80 80 80 80 80 80 80 80 80 80 80 80 80 80 80 80 80 80 80 80 80 80 80 80 80 80 80 80 80 80 
255 255 255 202 235 235 226 219 174 158 132 138 79 126 224 94 76 80 82 77 80 77 81 76 76 77 76 77 78 77 74 74 86 80 74 78 70 66 66 68 72 75 70 82 80 69 74 57 69 83 219 207 83 85 152 180 220 228 232 228 237 230 175 180 172 135 143 141 137 221 209 203 210 206 217 212 171 16 22 24 29 34 41 43 49 42 51 62 59 54 50 52 51 49 57 51 51 54 57 54 50 50 38 36 57 170 234 245 211 222 100 120 159 184 217 232 245 242 244 232 227 205 255 247 249 250 250 251 252 251 244 170 163 211 214 177 90 102 99 92 94 104 127 124 126 124 123 123 125 123 122 117 122 107 99 94 132 163 164 167 164 163 162 165 165 160 164 164 167 164 165 167 166 167 158 127 98 90 93 101 106 109 110 115 114 116 116 109 92 182 175 167 248 243 247 246 247 250 249 249 248 247 246 246 251 240 202 213 223 214 200 176 153 134 196 229 176 142 162 152 152 160 168 169 171 173 173 170 166 163 162 161 160 157 151 153 150 151 156 158 156 158 158 152 152 152 150 149 152 147 137 149 142 149 139 139 221 125 145 199 210 205 207 206 201 195 191 183 138 240 231 243 234 233 238 239 236 233 235 236 236 237 80 80 80 80 80 80 80 80 80 80 80 80 80 80 80 80 80 80 80 80 80 80 80 80 80 80 80 80 80 80 80 80 80 80 80 80 80 80 80 80 80 80 80 80 80 80 80 80 80 80 80 80 80 80 80 80 80 80 80 80 80 80 80 80 80 80 
255 255 255 182 251 223 230 222 208 197 169 143 121 139 136 246 250 216 132 65 76 83 81 86 75 72 67 65 66 67 66 69 66 66 64 75 73 75 65 62 61 61 61 59 58 23 220 248 250 254 226 77 98 140 218 219 218 235 234 239 240 242 171 170 165 143 138 133 180 201 203 201 200 203 207 193 196 30 23 31 27 31 29 24 21 18 18 18 210 184 208 194 142 5 26 28 25 24 22 22 26 26 17 9 242 206 209 220 212 224 136 112 116 136 199 226 234 201 234 227 186 209 240 243 247 249 249 250 251 250 225 163 182 209 214 110 107 103 114 115 120 117 120 122 117 117 118 118 112 113 99 95 111 149 168 168 171 166 166 168 167 164 158 162 164 163 165 165 166 167 168 169 172 170 171 165 163 161 155 140 120 104 94 92 84 85 84 97 92 147 220 169 245 252 246 247 246 244 244 243 243 241 241 240 240 239 193 205 211 219 216 206 185 175 138 130 140 208 208 170 142 138 150 153 150 153 155 155 154 149 151 151 152 155 153 158 158 154 152 154 152 151 149 147 145 143 144 144 141 142 127 137 135 209 237 225 215 142 195 191 208 203 204 203 199 196 192 185 160 227 250 236 109 195 242 226 231 229 229 228 229 228 80 80 80 80 80 80 80 80 80 80 80 80 80 80 80 80 80 80 80 80 80 80 80 80 80 80 80 80 80 80 80 80 80 80 80 80 80 80 80 80 80 80 80 80 80 80 80 80 80 80 80 80 80 80 80 80 80 80 80 80 80 80 80 80 80 80 
255 255 255 201 249 201 221 222 193 208 203 187 149 141 131 254 246 243 238 253 60 58 64 62 70 73 74 74 72 70 69 78 85 98 63 50 49 48 56 56 56 58 63 51 60 199 221 245 234 216 194 92 94 127 214 218 211 213 209 198 175 221 185 166 153 145 135 143 226 195 202 198 197 195 195 191 185 28 36 31 35 31 31 31 26 31 27 65 187 196 185 188 207 85 39 31 31 32 31 31 26 23 28 48 182 205 198 209 215 197 216 156 126 178 196 226 228 196 230 212 192 204 241 239 243 248 249 248 249 252 248 175 205 223 233 177 64 96 100 102 97 99 96 96 95 94 89 87 100 116 149 171 168 164 170 168 168 174 172 167 166 163 153 159 158 166 167 167 168 168 171 169 171 170 168 170 171 163 163 156 167 172 168 159 140 130 125 109 87 209 232 172 246 245 240 243 241 239 239 238 238 235 235 234 230 242 186 199 198 206 210 204 201 173 172 144 150 103 236 223 232 195 112 129 136 146 147 144 142 138 136 134 133 131 143 139 136 135 140 146 139 139 137 138 136 135 136 134 132 126 137 209 227 216 208 214 140 156 192 181 197 198 201 203 200 197 193 183 161 223 237 245 208 249 252 230 219 218 226 222 223 223 80 80 80 80 80 80 80 80 80 80 80 80 80 80 80 80 80 80 80 80 80 80 80 80 80 80 80 80 80 80 80 80 80 80 80 80 80 80 80 80 80 80 80 80 80 80 80 80 80 80 80 80 80 80 80 80 80 80 80 80 80 80 80 80 80 80 
252 252 254 197 240 181 232 218 177 211 192 181 188 109 203 231 223 234 235 235 227 48 70 53 56 53 50 47 48 52 56 136 229 238 67 57 56 53 60 60 62 62 60 64 103 240 234 231 232 222 222 72 103 109 158 173 216 207 225 224 175 239 188 220 178 147 157 186 202 199 189 189 189 188 182 173 181 22 33 35 33 30 29 24 24 17 35 102 175 179 170 178 174 98 32 33 34 34 28 26 28 16 22 99 194 193 197 201 200 205 203 201 139 177 189 203 208 207 210 208 197 215 237 236 241 242 246 247 248 250 251 191 195 228 235 229 108 108 119 121 119 109 111 114 124 130 141 156 166 170 166 166 171 169 172 171 172 174 171 168 166 158 149 160 157 165 166 168 169 170 170 171 171 172 172 171 170 167 161 157 168 170 171 170 165 160 158 144 104 216 221 187 242 242 239 235 238 236 235 233 232 231 230 230 223 227 198 185 187 198 199 194 187 179 166 154 143 136 216 219 216 224 140 82 98 97 103 105 106 109 109 109 105 105 75 129 150 133 71 68 73 74 76 75 76 81 84 86 93 177 215 212 209 216 206 212 124 150 143 164 185 188 194 200 197 192 190 182 158 199 236 240 238 236 239 250 232 243 244 236 216 211 80 80 80 80 80 80 80 80 80 80 80 80 80 80 80 80 80 80 80 80 80 80 80 80 80 80 80 80 80 80 80 80 80 80 80 80 80 80 80 80 80 80 80 80 80 80 80 80 80 80 80 80 80 80 80 80 80 80 80 80 80 80 80 80 80 80 
250 250 252 220 225 215 214 205 187 211 89 62 158 210 246 224 234 227 226 224 215 86 64 77 66 64 64 62 64 57 53 150 210 225 70 50 62 67 65 64 63 63 49 52 195 222 223 225 229 217 240 158 70 90 94 128 194 230 227 220 249 236 171 211 208 211 192 205 187 183 188 182 182 171 181 165 154 118 87 57 40 40 39 32 33 28 25 177 154 157 150 148 149 173 118 28 28 31 29 34 33 27 41 166 186 182 185 189 192 199 198 190 129 178 187 191 183 191 194 195 194 224 229 231 236 239 244 245 248 251 244 207 200 233 242 238 149 144 154 162 167 168 168 168 163 166 163 168 167 172 170 169 171 171 172 172 172 174 172 169 167 159 148 159 157 166 167 168 170 168 170 171 173 170 172 171 167 163 159 155 165 171 165 166 161 160 161 150 115 186 210 200 237 239 235 231 230 230 229 227 226 225 225 224 223 225 208 186 176 178 185 179 175 172 164 137 149 134 217 215 210 213 217 104 113 114 98 93 89 88 80 77 74 88 114 216 208 200 69 69 74 79 82 84 85 87 90 100 86 225 203 208 211 201 211 216 130 157 165 231 188 188 191 197 192 191 191 177 156 187 229 238 238 238 237 132 40 100 20 23 65 179 80 80 80 80 80 80 80 80 80 80 80 80 80 80 80 80 80 80 80 80 80 80 80 80 80 80 80 80 80 80 80 80 80 80 80 80 80 80 80 80 80 80 80 80 80 80 80 80 80 80 80 80 80 80 80 80 80 80 80 80 80 80 80 80 80 80 
251 251 252 223 183 171 176 196 188 188 174 111 242 223 223 221 221 214 213 210 202 175 72 80 73 69 66 62 62 54 59 205 201 189 113 64 60 66 67 65 63 62 62 64 224 208 209 212 213 204 219 215 225 194 86 128 198 211 208 129 105 163 216 203 199 200 196 186 184 176 179 174 177 131 110 139 147 130 119 96 82 77 71 59 46 33 31 123 125 125 132 140 129 122 68 81 86 86 89 110 118 88 62 46 116 171 170 173 179 184 186 200 167 137 147 157 184 208 209 211 219 216 216 226 228 231 237 240 242 244 246 172 228 235 234 237 154 139 152 161 166 163 167 167 164 164 162 169 167 170 175 174 172 175 171 174 173 173 169 167 164 156 146 158 157 167 168 169 171 170 171 172 172 171 171 171 166 165 159 154 153 171 167 167 163 160 157 157 134 151 197 217 233 230 224 224 223 222 221 218 218 216 216 215 216 210 218 192 188 174 165 168 166 162 154 157 125 157 207 203 204 205 211 138 127 124 117 109 103 97 93 88 82 80 220 208 204 152 78 75 84 92 92 93 94 98 100 98 176 210 193 204 207 201 207 242 246 187 239 231 230 183 198 200 195 186 179 171 156 190 231 231 233 232 233 202 65 75 123 108 85 76 80 80 80 80 80 80 80 80 80 80 80 80 80 80 80 80 80 80 80 80 80 80 80 80 80 80 80 80 80 80 80 80 80 80 80 80 80 80 80 80 80 80 80 80 80 80 80 80 80 80 80 80 80 80 80 80 80 80 80 80 80 80 80 80 80 80 
251 250 248 243 250 252 255 150 206 190 199 101 227 223 216 212 209 210 202 202 189 184 71 83 73 71 69 67 64 80 71 174 174 176 161 69 90 79 89 82 85 76 69 106 206 194 204 203 207 206 213 214 220 223 105 142 173 200 191 212 216 212 200 200 195 191 188 184 181 175 172 168 165 103 111 121 127 110 98 88 89 73 64 48 40 48 61 126 113 113 111 118 118 118 97 60 79 88 93 124 139 109 73 51 51 146 166 167 181 178 181 185 184 192 176 200 198 200 203 209 209 211 214 222 226 228 232 237 238 238 226 183 227 221 217 224 158 143 154 159 165 167 169 168 167 156 168 165 170 171 172 174 174 173 172 174 174 172 173 168 164 156 143 157 157 166 164 170 170 174 173 172 171 171 172 171 168 164 161 155 145 170 168 166 165 162 159 153 134 126 176 223 226 222 221 221 217 215 214 212 211 211 211 212 211 208 212 199 187 187 159 150 152 158 153 143 168 202 207 205 203 199 208 136 141 126 120 108 102 96 92 90 91 62 210 198 200 97 77 75 87 99 101 103 97 106 106 132 216 194 197 203 195 234 237 230 236 237 231 231 216 168 199 205 187 179 161 160 160 193 222 235 233 231 230 233 240 234 230 237 238 229 80 80 80 80 80 80 80 80 80 80 80 80 80 80 80 80 80 80 80 80 80 80 80 80 80 80 80 80 80 80 80 80 80 80 80 80 80 80 80 80 80 80 80 80 80 80 80 80 80 80 80 80 80 80 80 80 80 80 80 80 80 80 80 80 80 80 
251 249 248 247 242 238 228 233 128 141 133 173 207 209 208 208 204 198 192 190 184 193 151 67 67 61 57 61 54 35 118 162 151 158 158 60 41 55 55 55 56 49 47 178 170 181 192 194 199 200 202 208 203 212 102 117 164 151 215 210 202 203 201 196 192 187 186 182 180 175 170 168 165 67 74 82 85 73 67 57 55 38 43 42 49 66 54 65 84 96 103 98 88 80 79 106 49 52 73 98 115 93 64 49 50 96 167 168 174 175 178 182 182 188 197 192 198 200 203 206 207 210 214 217 221 224 228 233 236 237 209 197 240 224 207 210 156 139 150 156 162 163 167 166 164 151 167 167 169 170 173 173 174 174 173 174 174 173 170 165 162 153 142 159 157 165 165 170 171 172 172 173 173 171 171 170 167 165 160 151 141 167 169 164 164 161 159 154 143 113 176 224 217 217 215 212 214 212 212 210 210 207 207 207 208 203 206 205 203 202 171 136 151 153 148 134 178 202 199 200 201 200 199 152 140 132 121 115 110 94 88 100 92 82 205 194 201 112 77 95 90 100 106 110 113 100 102 180 203 197 194 204 234 235 232 226 215 231 230 223 193 153 198 203 180 167 144 157 171 196 220 236 232 232 234 230 230 231 236 228 229 228 80 80 80 80 80 80 80 80 80 80 80 80 80 80 80 80 80 80 80 80 80 80 80 80 80 80 80 80 80 80 80 80 80 80 80 80 80 80 80 80 80 80 80 80 80 80 80 80 80 80 80 80 80 80 80 80 80 80 80 80 80 80 80 80 80 80 
249 248 246 243 239 239 229 233 240 210 232 226 208 208 204 199 188 184 178 172 164 153 121 134 130 114 97 82 54 45 80 130 131 130 125 67 91 88 103 126 110 88 83 131 157 161 176 180 187 189 198 199 196 199 201 189 175 219 209 208 199 203 197 196 194 190 187 183 182 177 173 162 158 103 104 105 106 101 99 89 86 64 47 46 58 72 84 96 106 110 114 117 107 92 71 56 86 99 58 57 65 62 55 51 52 142 166 170 175 179 182 185 190 188 188 198 196 198 201 204 205 209 213 215 219 222 226 228 231 232 194 198 239 251 207 207 164 138 150 157 164 164 167 167 162 145 164 167 167 169 173 172 173 174 174 173 173 174 170 166 163 154 140 160 157 163 167 169 172 172 172 173 174 171 170 168 166 163 157 149 141 159 170 164 163 160 158 155 145 117 209 218 216 213 209 211 210 207 207 207 207 206 205 204 202 203 204 198 202 202 203 130 130 142 137 133 209 195 198 197 198 196 195 192 161 158 152 147 141 135 117 100 105 175 198 201 172 194 103 113 117 125 121 117 117 120 109 207 189 193 229 240 230 239 219 209 193 225 224 207 165 158 212 197 177 153 133 158 180 150 205 223 229 231 232 232 235 233 234 231 230 215 80 80 80 80 80 80 80 80 80 80 80 80 80 80 80 80 80 80 80 80 80 80 80 80 80 80 80 80 80 80 80 80 80 80 80 80 80 80 80 80 80 80 80 80 80 80 80 80 80 80 80 80 80 80 80 80 80 80 80 80 80 80 80 80 80 80 
248 247 245 243 235 234 231 226 222 198 210 210 203 198 190 183 178 162 155 145 141 100 103 133 154 130 106 79 73 51 89 95 97 93 90 65 61 89 120 157 130 101 83 69 117 136 153 160 168 173 185 191 181 210 205 205 205 198 200 201 201 201 208 199 199 194 194 191 190 186 176 182 176 153 144 138 145 143 146 153 165 156 160 153 145 146 147 149 142 147 142 144 149 147 156 147 131 119 93 83 78 72 65 65 96 118 150 168 183 185 189 193 193 193 198 198 198 200 203 207 208 210 212 215 219 221 226 225 225 226 198 181 236 243 222 192 167 140 151 155 161 165 164 163 161 141 158 164 165 169 173 171 172 175 175 174 173 172 168 164 161 153 137 157 157 160 168 168 173 173 173 172 171 171 169 166 163 156 155 152 147 147 168 163 162 160 157 159 149 116 210 209 207 211 208 204 205 202 203 203 203 202 201 199 197 198 198 201 197 197 199 200 190 187 193 200 187 199 197 197 198 195 190 202 43 11 18 26 26 21 36 38 68 205 202 201 203 198 145 39 32 16 9 12 19 35 176 193 196 238 239 217 209 181 176 183 172 219 206 176 145 189 198 185 164 133 136 168 160 129 129 202 216 224 230 229 231 229 231 226 224 226 80 80 80 80 80 80 80 80 80 80 80 80 80 80 80 80 80 80 80 80 80 80 80 80 80 80 80 80 80 80 80 80 80 80 80 80 80 80 80 80 80 80 80 80 80 80 80 80 80 80 80 80 80 80 80 80 80 80 80 80 80 80 80 80 80 80 
249 247 245 242 237 233 228 222 217 214 210 205 199 194 185 180 167 154 143 134 128 86 102 130 134 114 96 80 58 77 80 87 87 89 89 172 55 69 94 118 107 83 68 76 90 126 144 150 159 171 182 188 192 196 200 198 199 201 204 203 202 203 202 203 201 199 198 197 194 191 190 188 186 186 186 183 178 179 179 173 171 169 166 166 164 163 163 165 162 162 162 163 163 164 165 167 168 171 176 180 182 181 178 178 184 183 184 187 190 190 192 196 198 199 201 203 202 204 206 207 208 210 211 215 215 218 221 220 222 222 224 166 207 216 206 177 186 138 148 157 154 162 160 157 157 138 159 164 167 168 171 171 172 172 173 173 172 173 167 164 161 150 137 157 156 163 167 168 170 173 172 171 170 169 168 165 159 159 152 151 144 140 167 163 164 162 158 155 155 129 184 204 207 206 202 203 202 202 202 201 200 199 198 199 198 198 197 197 197 197 199 197 196 197 195 194 195 196 195 196 196 194 184 87 64 65 46 36 34 43 45 64 77 180 178 196 187 193 117 71 42 40 34 35 30 38 71 180 207 207 193 181 175 172 171 166 166 222 191 151 160 158 165 158 134 128 144 153 138 145 140 157 209 213 216 216 225 228 231 226 222 224 80 80 80 80 80 80 80 80 80 80 80 80 80 80 80 80 80 80 80 80 80 80 80 80 80 80 80 80 80 80 80 80 80 80 80 80 80 80 80 80 80 80 80 80 80 80 80 80 80 80 80 80 80 80 80 80 80 80 80 80 80 80 80 80 80 80 
248 246 244 241 236 232 228 220 215 213 208 205 196 191 182 176 164 152 141 132 106 49 85 99 109 100 78 45 53 47 56 83 84 85 88 50 63 60 68 88 90 71 72 61 106 124 147 156 164 171 183 189 191 194 199 200 199 199 204 203 203 205 204 206 204 203 204 203 203 202 197 197 195 195 192 190 189 186 185 184 183 180 180 181 178 176 176 177 179 180 180 180 180 181 183 180 181 183 182 184 187 187 185 187 191 194 195 196 197 201 201 204 205 205 206 206 207 209 211 210 211 212 214 216 213 216 219 216 216 216 223 179 163 179 164 201 179 116 151 147 162 158 158 156 151 131 159 167 165 166 170 173 173 173 174 173 173 173 168 162 158 152 137 154 154 160 165 166 169 171 170 169 169 168 165 162 156 155 152 152 146 142 160 162 169 159 160 151 155 124 166 202 203 206 201 202 201 200 200 200 201 199 198 199 198 198 197 197 197 197 199 196 198 195 198 197 197 194 194 193 189 181 142 69 146 140 76 49 41 39 46 46 32 141 136 139 135 150 87 44 38 84 79 52 40 42 48 111 148 130 128 129 135 128 136 130 143 203 161 121 154 142 144 136 136 138 135 136 139 140 151 144 178 199 206 215 217 216 220 222 223 223 80 80 80 80 80 80 80 80 80 80 80 80 80 80 80 80 80 80 80 80 80 80 80 80 80 80 80 80 80 80 80 80 80 80 80 80 80 80 80 80 80 80 80 80 80 80 80 80 80 80 80 80 80 80 80 80 80 80 80 80 80 80 80 80 80 80 
249 247 245 240 235 232 224 222 220 214 207 204 197 193 185 180 169 159 149 140 117 117 77 59 51 58 72 94 61 70 92 93 94 97 99 93 70 125 140 80 57 50 38 74 104 142 155 161 170 177 187 192 194 195 200 202 199 203 207 206 206 208 208 209 208 208 212 212 211 210 205 206 206 207 203 200 199 196 198 196 193 194 194 195 195 193 192 192 191 193 193 193 193 195 196 197 195 194 194 193 194 195 201 203 203 198 200 203 205 203 204 207 208 209 210 211 212 213 214 215 215 214 214 215 214 214 214 214 213 213 199 210 157 174 202 237 177 90 120 149 157 160 155 152 152 133 154 160 162 164 170 172 172 172 172 172 172 171 166 160 156 152 135 152 152 157 162 164 167 168 168 168 167 165 163 159 152 151 148 150 145 133 161 162 163 159 162 151 130 88 151 205 200 203 199 200 199 199 199 199 199 198 197 198 198 198 197 197 197 197 199 195 197 196 197 197 194 194 181 174 163 153 98 70 106 119 80 52 46 37 34 42 69 101 115 111 119 122 81 36 34 104 108 70 44 36 41 65 127 107 90 77 71 70 66 62 77 182 117 77 78 90 73 44 51 61 65 69 82 93 104 124 171 184 178 199 202 209 218 217 219 218 80 80 80 80 80 80 80 80 80 80 80 80 80 80 80 80 80 80 80 80 80 80 80 80 80 80 80 80 80 80 80 80 80 80 80 80 80 80 80 80 80 80 80 80 80 80 80 80 80 80 80 80 80 80 80 80 80 80 80 80 80 80 80 80 80 80 
248 246 243 240 236 235 227 223 217 217 212 208 205 196 193 188 183 177 170 164 158 120 97 65 59 56 60 117 123 121 119 119 122 126 129 133 132 129 101 88 80 78 95 118 167 170 175 183 190 188 195 199 198 198 203 207 205 207 211 208 210 212 215 215 216 218 222 220 218 220 214 213 213 212 209 211 209 209 208 207 207 206 206 206 206 205 204 204 203 203 203 203 203 203 203 205 207 206 206 203 210 208 209 210 211 213 213 214 216 217 217 217 213 216 219 218 220 219 218 219 218 216 214 212 212 213 215 210 210 209 213 208 181 178 223 226 159 108 129 121 110 117 133 149 158 131 151 150 161 161 170 172 169 167 169 168 168 167 162 158 154 151 133 149 144 154 156 159 163 164 165 166 164 163 163 156 153 150 151 140 146 126 101 105 102 101 105 112 107 95 128 202 195 201 198 199 200 197 199 196 198 197 197 199 199 198 197 198 197 197 199 197 196 196 196 198 193 186 179 165 154 146 101 75 93 74 63 58 54 43 28 55 96 129 136 141 138 135 75 38 45 48 37 31 31 33 39 69 136 135 133 140 144 136 134 134 128 144 113 125 118 111 112 111 108 111 115 121 126 129 121 103 65 73 151 181 191 193 195 200 204 210 80 80 80 80 80 80 80 80 80 80 80 80 80 80 80 80 80 80 80 80 80 80 80 80 80 80 80 80 80 80 80 80 80 80 80 80 80 80 80 80 80 80 80 80 80 80 80 80 80 80 80 80 80 80 80 80 80 80 80 80 80 80 80 80 80 80 
250 248 246 242 237 235 229 228 221 217 215 211 208 203 201 197 193 188 185 183 173 173 178 171 167 163 163 149 149 146 147 147 147 147 148 149 153 159 163 166 171 176 180 181 181 185 188 193 196 197 199 200 204 203 205 207 210 212 216 214 216 218 221 219 220 222 224 222 221 222 222 222 221 218 216 216 215 215 214 214 213 209 212 214 212 211 211 210 211 211 211 211 211 211 211 211 212 212 211 210 215 214 214 215 216 215 215 216 218 217 219 223 221 223 225 225 225 224 223 223 222 220 218 214 211 210 210 209 208 207 203 206 203 175 170 170 156 122 126 131 127 119 104 98 93 82 134 158 163 166 163 168 167 167 169 164 165 162 155 154 150 147 133 153 145 153 158 164 165 163 165 166 164 160 160 156 145 149 153 149 123 91 83 100 113 118 121 120 110 100 123 202 196 199 196 198 199 199 201 201 203 201 201 202 201 200 199 199 199 199 200 199 198 197 198 197 197 196 189 192 188 173 115 74 64 57 50 42 50 79 132 161 181 186 180 175 166 157 131 86 32 50 64 74 61 34 39 50 85 127 158 162 162 156 150 146 144 124 137 129 133 131 130 128 126 126 127 128 127 127 133 142 128 103 73 85 186 177 188 190 197 193 80 80 80 80 80 80 80 80 80 80 80 80 80 80 80 80 80 80 80 80 80 80 80 80 80 80 80 80 80 80 80 80 80 80 80 80 80 80 80 80 80 80 80 80 80 80 80 80 80 80 80 80 80 80 80 80 80 80 80 80 80 80 80 80 80 80 
251 250 248 245 240 236 231 230 224 219 220 216 213 206 204 202 200 198 194 192 181 187 181 181 177 177 173 165 169 168 165 162 163 164 166 167 169 173 173 178 182 184 182 191 193 190 192 197 200 201 203 206 203 205 210 212 213 216 219 217 218 219 222 225 227 229 229 229 228 227 225 224 224 222 219 220 219 220 220 219 219 217 218 219 216 217 217 217 216 216 216 215 215 215 215 216 217 217 216 217 218 219 218 219 221 221 220 221 223 226 226 226 229 229 230 231 228 227 226 226 224 221 219 213 211 211 212 208 206 205 202 200 192 207 185 185 177 147 130 133 129 123 116 109 95 82 99 104 109 124 151 164 164 166 166 163 164 159 160 158 151 143 125 144 152 154 159 163 165 162 164 166 165 162 161 156 151 139 119 103 105 95 81 104 114 121 127 121 109 110 172 198 196 193 198 201 201 199 202 202 205 204 202 203 204 203 202 203 203 202 202 202 201 201 202 200 200 199 201 197 194 200 194 198 197 201 194 193 195 200 198 194 206 197 196 196 194 192 189 177 159 127 110 110 117 127 141 150 169 187 182 182 180 176 168 164 163 160 154 150 150 149 147 146 145 145 145 147 147 151 146 147 143 142 134 114 84 151 188 177 192 186 80 80 80 80 80 80 80 80 80 80 80 80 80 80 80 80 80 80 80 80 80 80 80 80 80 80 80 80 80 80 80 80 80 80 80 80 80 80 80 80 80 80 80 80 80 80 80 80 80 80 80 80 80 80 80 80 80 80 80 80 80 80 80 80 80 80 
250 249 248 245 243 238 236 234 230 229 224 221 217 213 212 211 210 208 205 203 204 201 193 189 193 191 183 183 186 185 182 186 184 181 180 186 184 184 188 190 191 190 198 196 204 203 203 205 207 208 208 209 209 212 217 217 218 220 224 227 227 229 230 231 232 234 235 236 236 233 234 234 233 231 229 229 227 224 225 227 227 223 225 226 221 223 224 224 223 223 223 224 224 224 224 222 223 223 222 225 222 225 224 225 226 227 227 227 230 230 231 232 231 230 229 232 232 231 230 229 228 224 221 216 213 212 212 208 207 205 200 200 202 192 184 173 163 158 125 117 120 121 118 112 100 74 106 122 117 114 103 106 110 113 113 107 106 103 101 103 104 101 76 95 105 102 104 111 114 121 121 121 118 113 111 109 103 102 108 118 101 96 84 102 115 117 121 123 121 153 171 175 193 196 196 198 201 204 206 204 206 207 206 206 207 206 205 206 205 204 204 205 204 204 204 203 203 201 196 201 201 200 200 198 199 205 199 198 198 201 197 196 195 199 194 197 195 197 195 199 202 200 200 210 206 203 197 201 196 193 193 191 188 188 183 181 178 176 163 172 167 164 161 162 163 163 166 169 169 164 165 165 165 159 153 167 157 118 95 134 190 175 80 80 80 80 80 80 80 80 80 80 80 80 80 80 80 80 80 80 80 80 80 80 80 80 80 80 80 80 80 80 80 80 80 80 80 80 80 80 80 80 80 80 80 80 80 80 80 80 80 80 80 80 80 80 80 80 80 80 80 80 80 80 80 80 80 80 
251 251 251 246 245 241 238 237 233 232 231 225 223 220 219 217 216 215 215 211 209 208 208 207 205 203 202 201 201 200 199 201 200 200 201 201 200 199 201 203 205 206 207 207 209 211 210 212 214 212 215 217 218 220 221 226 226 227 230 231 234 234 238 239 241 241 239 239 239 239 238 238 238 238 238 236 236 232 233 233 234 231 231 232 230 230 230 230 231 231 229 229 229 229 229 228 230 231 229 229 231 232 233 231 231 233 235 234 237 236 238 240 240 239 239 237 237 236 234 233 232 228 224 219 213 211 213 206 207 206 203 201 199 198 192 186 177 166 149 133 117 93 58 55 57 83 119 116 118 126 127 126 125 125 126 122 119 119 115 112 113 111 81 98 110 121 122 126 127 127 126 124 123 129 127 127 124 118 125 139 119 118 65 70 71 68 72 105 141 148 160 168 182 191 197 201 204 206 209 209 212 212 210 210 212 211 211 210 208 209 209 206 206 206 208 204 204 204 207 201 205 204 204 203 201 201 201 202 202 203 201 201 201 201 200 200 200 200 199 199 203 199 197 198 198 198 199 199 199 200 199 198 197 197 194 193 192 190 189 186 182 185 186 187 185 187 189 190 192 192 191 190 188 185 184 181 180 187 190 175 148 101 80 80 80 80 80 80 80 80 80 80 80 80 80 80 80 80 80 80 80 80 80 80 80 80 80 80 80 80 80 80 80 80 80 80 80 80 80 80 80 80 80 80 80 80 80 80 80 80 80 80 80 80 80 80 80 80 80 80 80 80 80 80 80 80 80 80 
252 252 252 249 249 248 244 240 237 239 234 231 231 228 227 226 224 222 222 218 219 218 216 214 215 213 212 212 212 213 212 209 208 208 209 209 212 214 211 212 212 214 212 211 214 214 216 219 221 219 221 223 221 223 226 232 229 231 234 232 236 237 243 244 244 245 245 245 245 245 243 242 240 240 240 239 238 237 237 238 238 236 236 237 237 237 237 237 235 236 234 235 235 235 235 234 235 236 235 234 236 238 238 237 236 238 239 238 241 239 241 243 242 242 241 241 241 239 238 235 234 231 227 222 217 215 216 211 212 208 204 204 203 202 202 200 192 182 165 152 136 116 77 48 30 10 96 138 133 127 129 135 134 133 135 126 122 117 111 114 118 116 82 98 117 121 124 126 130 127 128 128 128 134 135 136 121 124 131 124 73 14 8 28 56 89 120 137 153 163 172 180 193 200 202 209 211 212 214 215 217 217 215 217 216 216 215 215 214 215 214 212 211 211 212 211 211 210 210 204 208 205 205 204 204 203 204 204 205 206 205 203 202 203 202 202 200 201 204 205 202 202 202 202 202 203 203 202 201 204 202 202 201 201 199 200 200 202 200 198 197 197 198 199 197 198 200 200 203 203 201 200 200 198 197 201 194 193 190 193 202 191 80 80 80 80 80 80 80 80 80 80 80 80 80 80 80 80 80 80 80 80 80 80 80 80 80 80 80 80 80 80 80 80 80 80 80 80 80 80 80 80 80 80 80 80 80 80 80 80 80 80 80 80 80 80 80 80 80 80 80 80 80 80 80 80 80 80 
252 252 252 248 247 248 247 245 243 244 237 237 235 234 233 232 230 227 229 225 224 223 222 220 218 216 216 217 216 216 215 216 215 215 216 214 214 214 215 215 215 216 219 221 221 221 224 226 226 224 227 229 228 230 232 238 235 236 239 240 245 245 249 247 247 247 248 248 248 248 250 249 248 248 247 246 245 244 244 243 243 240 239 240 240 240 240 240 239 239 239 239 239 239 239 238 239 240 239 239 240 242 240 240 245 239 241 241 248 245 245 246 247 247 246 246 243 242 240 237 237 234 231 225 222 220 219 214 214 212 208 204 205 209 203 201 197 198 186 177 164 147 123 104 82 66 21 34 85 126 140 143 143 140 137 126 125 123 117 121 128 129 93 103 120 126 132 128 127 130 131 133 132 135 136 136 131 107 62 10 6 40 46 69 107 129 143 155 173 184 193 198 205 211 208 213 215 216 219 219 222 221 222 222 222 222 221 221 218 218 217 217 215 215 215 215 214 213 214 208 210 208 210 210 210 210 208 207 207 207 206 205 204 207 207 206 205 205 205 205 208 207 207 205 205 205 205 205 208 206 205 206 206 207 207 208 208 204 204 204 204 202 203 204 204 206 206 206 206 206 207 205 204 204 203 204 203 204 202 201 198 210 80 80 80 80 80 80 80 80 80 80 80 80 80 80 80 80 80 80 80 80 80 80 80 80 80 80 80 80 80 80 80 80 80 80 80 80 80 80 80 80 80 80 80 80 80 80 80 80 80 80 80 80 80 80 80 80 80 80 80 80 80 80 80 80 80 80 
253 253 253 251 251 250 250 251 250 249 247 247 245 241 240 240 239 239 237 235 232 232 232 232 230 230 230 230 230 229 229 229 229 229 229 228 227 225 228 228 228 228 229 229 231 229 230 233 235 235 237 238 235 237 239 239 244 246 245 245 246 247 249 251 251 252 253 252 251 252 250 250 250 248 248 248 248 247 248 248 247 246 246 246 247 247 248 250 248 248 248 251 249 247 246 245 248 248 246 247 249 249 248 248 247 250 250 250 250 249 249 250 248 248 248 248 250 249 247 240 240 239 237 230 227 225 220 221 218 215 212 211 209 208 208 207 206 206 203 200 199 192 178 168 153 145 137 134 118 101 64 42 37 30 23 20 26 28 13 13 15 18 28 26 18 11 17 28 33 41 40 39 39 27 33 58 79 95 104 121 137 144 159 163 178 189 200 199 207 213 211 211 215 217 218 221 222 225 228 230 233 230 227 225 233 231 231 231 229 229 229 226 226 226 226 225 223 222 221 220 219 221 219 219 220 220 218 217 217 217 216 215 215 217 214 216 213 213 213 213 214 214 214 215 216 216 215 214 213 214 213 213 213 212 212 212 212 216 216 216 216 215 216 216 216 216 216 216 215 215 215 216 215 212 210 212 211 210 209 209 211 209 80 80 80 80 80 80 80 80 80 80 80 80 80 80 80 80 80 80 80 80 80 80 80 80 80 80 80 80 80 80 80 80 80 80 80 80 80 80 80 80 80 80 80 80 80 80 80 80 80 80 80 80 80 80 80 80 80 80 80 80 80 80 80 80 80 80 
254 254 254 252 253 252 250 250 250 248 248 248 246 243 243 241 241 240 239 237 238 238 238 238 235 234 235 235 235 234 234 235 235 235 235 232 234 234 234 234 234 234 233 234 236 236 236 237 238 236 239 240 239 241 244 244 245 247 246 246 247 248 250 251 252 253 251 251 251 253 251 251 251 250 250 250 250 249 249 249 248 249 249 249 249 248 249 251 249 249 249 247 249 251 251 248 250 250 246 247 248 249 249 249 249 249 249 249 249 249 250 251 250 250 250 250 250 250 248 246 245 242 239 236 233 231 228 224 221 218 217 216 215 214 213 212 211 210 208 206 205 206 203 199 198 193 190 186 174 170 165 162 157 152 148 151 143 138 141 142 143 145 145 148 150 149 149 150 150 149 152 156 158 158 164 164 173 175 182 181 196 202 203 208 212 212 215 214 214 213 213 216 222 222 225 228 228 230 232 232 234 232 234 236 234 232 231 232 232 232 232 230 230 230 230 230 228 227 226 225 224 226 225 225 225 225 223 222 222 222 222 222 223 219 219 219 219 219 219 219 216 216 216 215 215 215 215 218 217 218 217 217 217 217 219 219 219 217 217 217 217 219 219 220 221 221 221 221 217 217 217 218 215 215 215 214 216 217 218 216 215 216 80 80 80 80 80 80 80 80 80 80 80 80 80 80 80 80 80 80 80 80 80 80 80 80 80 80 80 80 80 80 80 80 80 80 80 80 80 80 80 80 80 80 80 80 80 80 80 80 80 80 80 80 80 80 80 80 80 80 80 80 80 80 80 80 80 80 
254 254 254 253 254 253 250 251 250 249 250 250 248 246 245 245 244 247 247 246 243 243 243 243 239 238 239 239 238 238 237 239 239 239 239 238 238 237 238 238 238 238 237 238 239 238 239 242 245 242 246 247 244 246 248 248 247 249 248 248 249 250 252 252 253 253 251 250 251 253 252 252 252 252 252 252 252 251 251 251 250 250 250 250 249 248 248 249 251 251 251 250 251 251 251 249 250 249 248 248 250 250 250 251 252 252 252 252 252 251 251 252 252 252 252 252 251 251 249 248 247 243 240 237 234 233 230 228 227 224 222 220 219 218 215 214 213 214 212 211 210 209 209 208 208 206 207 204 204 206 204 205 204 208 206 201 203 203 202 202 203 204 201 202 202 203 203 203 203 203 203 203 202 207 207 211 209 211 211 215 213 212 211 212 215 214 217 214 218 221 219 224 230 229 230 233 233 236 238 237 239 238 238 238 240 239 238 239 237 237 237 236 236 236 236 234 232 232 232 233 233 232 230 229 229 228 227 227 226 225 226 227 227 227 229 229 227 227 227 227 226 226 226 224 224 224 224 221 221 221 222 223 223 224 227 227 227 228 228 228 228 226 226 227 227 227 227 227 226 225 225 226 225 224 223 222 221 220 220 221 219 221 80 80 80 80 80 80 80 80 80 80 80 80 80 80 80 80 80 80 80 80 80 80 80 80 80 80 80 80 80 80 80 80 80 80 80 80 80 80 80 80 80 80 80 80 80 80 80 80 80 80 80 80 80 80 80 80 80 80 80 80 80 80 80 80 80 80 
255 255 255 254 254 254 253 254 253 252 252 252 250 248 248 247 246 249 249 248 246 246 246 246 245 243 243 245 244 244 243 245 245 245 245 245 245 244 243 243 243 243 243 244 245 247 245 246 247 247 247 247 246 248 250 250 249 251 250 250 251 252 254 253 253 254 252 251 251 253 253 253 253 253 253 253 253 252 253 253 252 254 254 254 253 251 250 251 252 252 252 253 252 251 251 251 251 250 251 251 253 254 251 252 254 252 252 252 252 252 252 253 253 253 253 253 251 252 251 249 249 247 245 242 240 240 237 232 231 229 229 227 226 225 224 223 222 218 218 217 216 216 215 213 214 210 211 211 216 214 212 211 210 212 211 210 210 208 207 208 209 210 208 209 208 206 207 209 211 205 207 210 211 217 218 216 216 216 219 217 217 217 216 215 218 217 220 224 225 226 226 228 232 233 234 237 237 237 241 241 245 243 243 241 242 241 240 241 242 242 242 241 241 241 241 241 239 238 236 237 238 236 236 235 234 233 234 233 233 231 231 231 229 230 230 233 231 231 231 231 226 226 226 231 231 231 231 230 229 230 226 227 229 231 230 230 230 229 229 229 229 231 232 232 231 231 231 231 230 229 229 230 229 229 229 229 228 228 228 226 227 226 80 80 80 80 80 80 80 80 80 80 80 80 80 80 80 80 80 80 80 80 80 80 80 80 80 80 80 80 80 80 80 80 80 80 80 80 80 80 80 80 80 80 80 80 80 80 80 80 80 80 80 80 80 80 80 80 80 80 80 80 80 80 80 80 80 80 
255 255 255 255 255 255 254 254 253 253 253 252 252 251 250 250 251 249 249 248 247 247 247 247 246 247 247 247 246 246 247 248 247 247 248 248 248 245 247 247 247 247 249 250 249 246 248 249 248 251 250 250 248 249 251 251 252 252 253 252 252 253 254 254 254 254 253 253 254 254 252 252 252 252 252 252 252 255 255 255 255 253 253 253 253 253 253 253 253 253 253 253 252 251 251 252 252 252 253 253 253 253 252 253 255 254 254 254 254 253 253 253 254 254 254 254 253 253 252 250 249 250 247 247 247 243 241 240 237 236 233 231 232 230 229 227 227 227 224 223 224 220 221 220 219 219 218 217 216 216 215 218 217 216 217 213 214 215 214 214 214 214 214 214 214 217 217 216 214 214 214 215 216 218 220 220 219 221 221 220 222 221 223 225 225 225 226 229 232 232 232 234 238 238 238 240 243 247 247 248 248 249 248 248 247 247 247 247 247 245 245 245 245 244 244 244 243 243 245 243 241 243 239 237 238 240 238 240 241 240 240 241 241 236 237 237 239 240 239 237 237 236 237 237 237 237 237 235 234 237 236 237 237 238 238 238 238 238 238 237 237 236 236 235 233 234 236 237 239 238 237 236 235 236 236 235 232 232 232 235 234 233 80 80 80 80 80 80 80 80 80 80 80 80 80 80 80 80 80 80 80 80 80 80 80 80 80 80 80 80 80 80 80 80 80 80 80 80 80 80 80 80 80 80 80 80 80 80 80 80 80 80 80 80 80 80 80 80 80 80 80 80 80 80 80 80 80 80 
255 255 255 255 255 255 255 254 253 253 254 253 253 253 252 251 253 252 252 251 249 249 249 249 249 250 251 249 248 248 248 249 248 249 250 249 249 248 250 250 250 250 250 251 251 249 250 250 249 251 251 252 250 251 252 252 252 253 254 254 254 255 255 255 255 255 255 255 255 255 255 255 255 255 255 255 255 255 255 255 255 252 252 252 254 254 254 254 254 254 254 253 252 252 252 252 252 252 254 254 254 254 253 254 255 255 255 255 255 254 254 254 255 255 255 255 254 254 253 252 250 251 249 247 248 248 247 241 238 238 237 237 237 234 236 232 230 231 230 229 229 228 229 228 227 227 226 226 225 226 222 221 220 219 220 220 220 221 220 220 220 220 220 221 222 217 219 221 221 222 225 225 224 222 223 223 227 227 226 224 227 226 230 229 232 235 236 234 236 237 237 239 241 241 244 245 248 248 248 249 249 248 249 249 251 251 251 251 249 248 247 247 247 246 246 248 247 247 247 247 247 246 246 245 245 247 245 245 244 245 245 246 246 244 245 245 243 244 243 241 240 239 240 241 241 241 241 238 239 242 240 240 241 241 240 240 240 240 241 243 243 241 241 241 242 241 241 240 243 243 240 240 240 239 236 238 237 237 238 237 237 237 80 80 80 80 80 80 80 80 80 80 80 80 80 80 80 80 80 80 80 80 80 80 80 80 80 80 80 80 80 80 80 80 80 80 80 80 80 80 80 80 80 80 80 80 80 80 80 80 80 80 80 80 80 80 80 80 80 80 80 80 80 80 80 80 80 80 
255 255 255 255 255 255 255 255 254 254 255 253 253 252 251 251 252 253 253 252 252 252 252 252 252 252 251 251 250 250 250 249 248 248 249 248 249 250 252 252 252 252 251 252 252 252 253 252 250 252 253 254 253 253 253 253 253 254 254 254 255 255 255 255 255 255 255 255 255 255 255 255 255 255 255 255 255 255 255 255 255 255 255 255 255 255 255 255 255 255 255 252 253 253 254 253 253 253 255 255 255 255 255 255 255 255 255 255 255 255 255 255 255 255 255 255 253 253 252 254 251 251 251 248 247 248 249 248 248 245 241 241 241 236 238 235 235 236 237 235 233 233 234 233 229 228 228 227 228 226 230 230 229 228 229 228 228 227 226 226 226 226 226 226 227 226 227 228 227 225 227 227 226 227 228 228 228 230 231 231 234 233 236 237 237 237 238 238 239 241 243 245 246 246 247 245 245 249 249 250 250 250 251 252 250 250 250 250 252 250 250 250 250 249 249 248 247 248 249 249 248 248 249 247 248 250 249 248 247 249 248 246 246 248 249 250 247 248 247 246 248 247 248 246 246 246 246 245 246 246 247 247 248 248 248 248 248 246 247 247 247 245 246 246 244 245 246 248 248 247 246 246 243 244 244 244 243 244 245 244 243 243 80 80 80 80 80 80 80 80 80 80 80 80 80 80 80 80 80 80 80 80 80 80 80 80 80 80 80 80 80 80 80 80 80 80 80 80 80 80 80 80 80 80 80 80 80 80 80 80 80 80 80 80 80 80 80 80 80 80 80 80 80 80 80 80 80 80 
255 255 255 255 255 255 255 255 254 254 255 254 254 255 254 254 255 253 253 252 250 250 250 250 249 251 252 252 251 251 252 252 251 251 252 251 251 254 254 254 254 254 250 251 252 253 254 252 251 252 254 255 255 255 254 254 254 254 255 253 253 254 255 255 255 255 254 254 255 255 255 255 255 255 255 255 255 255 255 255 255 255 255 255 255 255 255 255 255 255 255 252 253 254 255 253 253 253 255 255 255 255 255 255 254 255 255 255 255 255 255 255 255 255 255 255 255 255 255 255 251 251 252 252 249 250 251 247 245 247 246 248 247 241 241 240 241 239 241 239 236 237 238 237 238 238 237 237 237 238 233 235 234 234 233 233 232 231 230 230 230 230 233 232 231 230 232 235 236 232 231 233 235 235 236 237 236 238 238 237 238 236 238 238 241 243 246 243 243 248 247 248 249 248 250 251 253 250 250 251 251 250 252 254 252 252 252 252 253 252 252 251 251 251 250 250 249 250 250 247 245 247 249 247 248 250 248 248 248 248 250 251 252 250 249 250 249 250 250 248 249 248 249 249 249 249 249 249 250 246 246 247 247 248 250 250 250 251 250 249 248 246 247 248 248 248 247 246 251 250 249 248 247 246 244 246 246 247 249 248 246 245 80 80 80 80 80 80 80 80 80 80 80 80 80 80 80 80 80 80 80 80 80 80 80 80 80 80 80 80 80 80 80 80 80 80 80 80 80 80 80 80 80 80 80 80 80 80 80 80 80 80 80 80 80 80 80 80 80 80 80 80 80 80 80 80 80 80 
255 255 255 255 255 255 255 255 255 255 255 255 255 254 254 254 254 254 254 254 253 253 254 254 254 254 254 251 251 253 253 252 252 252 252 252 252 252 253 253 253 253 254 254 254 254 254 254 254 254 255 255 255 255 255 255 255 255 255 255 255 255 255 255 255 255 255 255 255 255 255 255 255 255 255 255 255 255 255 255 255 255 255 255 255 255 255 255 255 255 255 254 254 254 254 254 254 254 255 255 255 255 255 255 255 255 255 255 255 255 255 255 255 255 255 255 255 255 255 254 254 254 254 254 253 252 251 253 253 253 250 249 249 250 246 246 246 245 246 246 246 244 243 243 238 240 242 243 243 243 243 243 242 239 238 239 239 241 239 239 239 239 240 240 240 237 238 239 240 238 237 239 240 239 241 241 243 244 244 244 243 243 244 245 247 248 249 249 249 251 248 249 250 251 250 251 252 252 252 253 253 252 253 254 254 254 254 254 254 254 254 252 252 252 252 250 251 252 255 254 253 253 251 251 251 251 251 252 252 251 251 250 250 249 248 249 249 249 249 249 249 249 249 251 251 251 251 250 250 250 252 252 252 252 250 250 250 251 250 250 250 250 250 251 250 251 251 251 250 250 250 250 252 251 249 249 248 248 249 249 248 249 80 80 80 80 80 80 80 80 80 80 80 80 80 80 80 80 80 80 80 80 80 80 80 80 80 80 80 80 80 80 80 80 80 80 80 80 80 80 80 80 80 80 80 80 80 80 80 80 80 80 80 80 80 80 80 80 80 80 80 80 80 80 80 80 80 80 
255 255 255 255 255 255 255 255 255 255 255 255 255 255 255 255 255 255 255 255 253 254 254 255 254 254 254 253 253 254 254 255 255 255 255 254 254 254 254 254 254 254 254 254 254 254 254 254 254 254 255 255 255 255 255 255 255 255 255 255 255 255 255 255 255 255 255 255 255 255 255 255 255 255 255 255 255 255 255 255 255 255 255 255 255 255 255 255 255 255 255 254 254 254 254 254 254 254 255 255 255 255 255 255 255 255 255 255 255 255 255 255 255 255 255 255 255 255 255 254 254 254 254 255 255 254 254 252 252 252 251 249 250 252 248 248 248 247 248 250 251 248 248 248 247 247 246 246 247 247 247 249 248 246 246 243 244 246 245 245 245 245 244 244 244 242 244 244 244 244 245 246 248 245 246 246 246 248 248 247 247 247 247 247 248 249 249 248 249 250 251 251 252 252 252 253 254 254 254 253 253 254 254 255 254 254 254 254 254 254 254 254 254 254 254 254 254 254 255 254 253 254 254 254 254 254 252 253 253 253 252 252 251 251 250 251 252 252 252 252 252 252 252 251 251 251 251 251 251 251 250 250 250 250 253 253 253 249 250 252 254 249 249 250 251 251 252 253 253 253 253 253 250 251 251 250 250 250 250 250 249 250 80 80 80 80 80 80 80 80 80 80 80 80 80 80 80 80 80 80 80 80 80 80 80 80 80 80 80 80 80 80 80 80 80 80 80 80 80 80 80 80 80 80 80 80 80 80 80 80 80 80 80 80 80 80 80 80 80 80 80 80 80 80 80 80 80 80 
255 255 255 255 255 255 255 255 255 255 255 255 255 255 255 255 255 255 255 255 254 254 255 255 255 255 255 255 255 255 254 255 255 255 255 255 255 255 255 255 255 255 255 255 255 255 255 255 255 254 255 255 255 255 255 255 255 255 255 255 255 255 255 255 255 255 255 255 255 255 255 255 255 255 255 255 255 255 255 255 255 255 255 255 255 255 255 255 255 255 255 255 255 255 255 255 255 255 255 255 255 255 255 255 255 255 255 255 255 255 255 255 255 255 255 255 255 255 255 255 255 255 255 254 254 255 255 252 252 252 251 252 252 251 251 251 251 249 250 250 251 249 250 251 247 248 250 251 249 249 249 248 248 249 249 247 247 247 246 246 246 246 247 247 247 248 247 247 247 246 245 246 247 247 248 248 248 249 249 249 247 248 250 249 249 250 250 251 251 253 254 253 253 253 253 253 253 255 255 254 254 255 255 255 255 255 255 255 255 255 255 255 255 255 255 255 254 254 255 254 253 254 254 254 254 254 254 254 255 254 253 253 253 253 252 253 255 255 255 255 252 252 252 253 253 253 253 252 252 252 253 253 253 253 252 252 252 252 252 253 253 253 254 254 254 253 253 253 253 253 253 253 252 252 252 250 252 251 250 251 250 251 80 80 80 80 80 80 80 80 80 80 80 80 80 80 80 80 80 80 80 80 80 80 80 80 80 80 80 80 80 80 80 80 80 80 80 80 80 80 80 80 80 80 80 80 80 80 80 80 80 80 80 80 80 80 80 80 80 80 80 80 80 80 80 80 80 80 
255 255 255 255 255 255 255 255 255 255 255 255 255 255 255 255 255 255 255 255 255 255 255 255 255 255 255 255 255 255 255 255 255 255 255 255 255 255 255 255 255 255 255 255 255 255 254 254 255 255 255 255 255 255 255 255 255 255 255 255 255 255 255 255 255 255 255 255 255 255 255 255 255 255 255 255 255 255 255 255 255 255 255 255 255 255 255 255 255 255 255 255 255 255 255 255 255 255 255 255 255 255 255 255 255 255 255 255 255 255 255 255 255 255 255 255 255 255 255 255 255 255 255 255 255 255 255 253 253 253 253 253 253 253 251 251 251 253 252 252 252 251 251 251 249 249 249 249 250 250 250 251 250 250 251 251 251 251 250 250 250 250 250 250 250 249 249 249 249 247 248 249 250 251 251 251 249 250 251 251 250 251 251 252 252 252 252 251 251 251 252 253 254 254 253 253 253 255 255 255 255 255 255 255 255 255 255 255 255 255 255 255 255 255 255 255 255 255 255 255 255 255 255 255 255 255 254 254 254 254 254 254 254 254 254 254 254 254 254 254 254 254 254 253 253 253 253 254 254 254 254 254 254 254 254 254 254 254 254 254 254 254 254 254 254 254 254 254 254 254 254 254 253 253 253 252 252 252 252 252 252 252 80 80 80 80 80 80 80 80 80 80 80 80 80 80 80 80 80 80 80 80 80 80 80 80 80 80 80 80 80 80 80 80 80 80 80 80 80 80 80 80 80 80 80 80 80 80 80 80 80 80 80 80 80 80 80 80 80 80 80 80 80 80 80 80 80 80 
255 255 255 255 255 255 255 255 255 255 255 255 255 255 255 255 255 255 255 255 255 255 255 255 255 255 255 255 255 255 255 255 255 255 255 255 255 255 255 255 255 255 255 255 255 255 254 254 255 255 255 255 255 255 255 255 255 255 255 255 255 255 255 255 255 255 255 255 255 255 255 255 255 255 255 255 255 255 255 255 255 255 255 255 255 255 255 255 255 255 255 255 255 255 255 255 255 255 255 255 255 255 255 255 255 255 255 255 255 255 255 255 255 255 255 255 255 255 255 255 255 255 255 255 255 255 255 254 254 254 254 254 254 254 254 254 254 251 253 254 255 252 252 252 252 252 252 252 251 251 251 251 251 251 251 250 250 250 250 250 250 250 250 250 250 251 251 251 251 251 251 252 253 252 252 252 250 251 252 253 253 254 254 254 254 254 254 255 255 255 253 253 254 255 255 255 255 255 255 255 255 255 255 255 255 255 255 255 255 255 255 255 255 255 255 255 255 255 255 255 255 255 255 255 255 255 255 255 255 255 255 255 255 254 254 254 254 254 254 254 255 255 255 255 255 255 255 255 255 255 255 255 255 255 255 255 255 255 255 255 255 255 255 255 255 255 255 255 255 255 255 255 254 254 254 255 255 255 255 255 255 255 80 80 80 80 80 80 80 80 80 80 80 80 80 80 80 80 80 80 80 80 80 80 80 80 80 80 80 80 80 80 80 80 80 80 80 80 80 80 80 80 80 80 80 80 80 80 80 80 80 80 80 80 80 80 80 80 80 80 80 80 80 80 80 80 80 80 
255 255 255 255 255 255 255 255 255 255 255 255 255 255 255 255 255 255 255 255 255 255 255 255 255 255 255 254 254 254 254 254 254 254 254 254 254 254 254 254 254 254 255 255 255 255 254 254 255 255 255 255 255 255 255 255 255 255 255 255 255 255 255 255 255 255 255 255 255 255 255 255 255 255 255 255 255 255 255 255 255 255 255 255 255 255 255 255 255 255 255 255 255 255 255 255 255 255 255 255 255 255 255 255 255 255 255 255 255 255 255 255 255 255 255 255 255 255 255 255 255 255 255 255 255 255 255 255 255 255 255 255 255 255 255 255 255 253 254 254 255 253 253 253 252 252 252 252 252 252 252 252 251 251 252 252 252 252 252 252 252 252 252 252 252 252 252 252 252 252 252 252 252 252 252 252 252 252 254 254 254 255 255 255 255 255 255 255 255 255 254 254 255 255 255 255 255 254 254 254 254 254 254 254 254 254 254 254 254 254 254 254 254 254 254 254 254 254 254 254 254 254 254 254 254 254 255 255 255 255 255 255 255 254 254 254 254 254 254 254 255 255 255 254 254 254 254 255 255 255 255 255 255 255 255 255 255 255 255 255 255 255 255 255 255 255 255 255 255 255 255 255 255 255 255 255 255 255 255 255 255 255 80 80 80 80 80 80 80 80 80 80 80 80 80 80 80 80 80 80 80 80 80 80 80 80 80 80 80 80 80 80 80 80 80 80 80 80 80 80 80 80 80 80 80 80 80 80 80 80 80 80 80 80 80 80 80 80 80 80 80 80 80 80 80 80 80 80 
255 255 255 255 255 255 255 255 255 255 255 255 255 255 255 255 255 255 255 255 255 255 255 255 255 255 255 254 254 254 254 254 254 254 254 254 254 254 254 254 254 254 255 255 255 255 254 254 255 255 255 255 255 255 255 255 255 255 255 255 255 255 255 255 255 255 255 255 255 255 255 255 255 255 255 255 255 255 255 255 255 255 255 255 255 255 255 255 255 255 255 255 255 255 255 255 255 255 255 255 255 255 255 255 255 255 255 255 255 255 255 255 255 255 255 255 255 255 255 255 255 255 255 255 255 255 255 255 255 255 255 255 255 255 254 254 254 255 254 254 254 254 254 254 254 254 254 254 252 252 252 253 252 252 253 254 254 254 254 254 254 254 254 254 254 253 253 253 253 252 252 251 251 253 253 253 252 253 254 255 254 254 255 255 255 255 255 255 255 255 254 254 255 255 255 255 255 254 254 254 254 254 254 254 254 254 254 254 254 254 254 254 254 254 254 254 254 254 254 254 254 254 254 254 254 254 254 254 254 254 254 254 254 254 254 254 254 254 254 254 254 254 254 253 253 253 253 254 254 254 254 254 254 254 254 254 254 254 254 254 254 254 254 254 254 254 254 254 255 255 255 255 255 255 255 254 254 254 254 254 254 254 80 80 80 80 80 80 80 80 80 80 80 80 80 80 80 80 80 80 80 80 80 80 80 80 80 80 80 80 80 80 80 80 80 80 80 80 80 80 80 80 80 80 80 80 80 80 80 80 80 80 80 80 80 80 80 80 80 80 80 80 80 80 80 80 80 80 
255 255 255 255 255 255 255 255 255 255 255 255 255 255 255 255 255 255 255 255 255 255 255 255 255 255 255 255 255 255 255 255 255 255 255 255 255 255 255 255 255 255 255 255 255 255 255 255 255 255 255 255 255 255 255 255 255 255 255 255 255 255 255 255 255 255 255 255 255 255 255 255 255 255 255 255 255 255 255 255 255 255 255 255 255 255 255 255 255 255 255 255 255 255 255 255 255 255 255 255 255 255 255 255 255 255 255 255 255 255 255 255 255 255 255 255 255 255 255 255 255 255 255 255 255 255 255 255 255 255 255 255 255 255 255 255 255 255 255 255 255 254 254 254 254 254 254 254 254 254 254 254 254 254 254 254 254 254 254 254 254 254 254 254 254 254 254 254 254 253 253 253 253 253 253 253 255 255 255 255 255 255 255 255 255 255 255 255 255 255 255 255 255 255 255 255 255 255 255 255 255 255 255 255 255 255 255 255 255 255 255 255 255 255 255 255 255 255 255 255 255 255 255 255 255 255 255 255 255 255 255 255 255 255 255 255 255 255 255 255 255 255 255 255 255 255 255 255 255 255 255 255 255 255 255 255 255 255 255 255 255 255 255 255 255 255 255 255 255 255 255 255 255 255 255 255 255 255 255 255 255 255 80 80 80 80 80 80 80 80 80 80 80 80 80 80 80 80 80 80 80 80 80 80 80 80 80 80 80 80 80 80 80 80 80 80 80 80 80 80 80 80 80 80 80 80 80 80 80 80 80 80 80 80 80 80 80 80 80 80 80 80 80 80 80 80 80 80 
255 255 255 255 255 255 255 255 255 255 255 255 255 255 255 255 255 255 255 255 255 255 255 255 255 255 255 255 255 255 255 255 255 255 255 255 255 255 255 255 255 255 255 255 255 255 255 255 255 255 255 255 255 255 255 255 255 255 255 255 255 255 255 255 255 255 255 255 255 255 255 255 255 255 255 255 255 255 255 255 255 255 255 255 255 255 255 255 255 255 255 255 255 255 255 255 255 255 255 255 255 255 255 255 255 255 255 255 255 255 255 255 255 255 255 255 255 255 255 255 255 255 255 255 255 255 255 255 255 255 255 255 255 255 255 255 255 255 255 255 255 255 255 255 255 255 255 255 255 255 255 255 255 255 255 255 255 255 255 255 255 255 254 254 254 254 254 254 254 253 253 253 253 254 254 254 255 255 255 254 255 255 255 255 255 255 255 255 255 255 255 255 255 255 255 255 255 255 255 255 255 255 255 255 255 255 255 255 255 255 255 255 255 255 255 255 255 255 255 255 255 255 255 255 255 255 255 255 255 255 255 255 255 255 255 255 255 255 255 255 255 255 255 255 255 255 255 255 255 255 255 255 255 255 255 255 255 255 255 255 255 255 255 255 255 255 255 255 255 255 255 255 255 255 255 255 255 255 255 255 255 255 80 80 80 80 80 80 80 80 80 80 80 80 80 80 80 80 80 80 80 80 80 80 80 80 80 80 80 80 80 80 80 80 80 80 80 80 80 80 80 80 80 80 80 80 80 80 80 80 80 80 80 80 80 80 80 80 80 80 80 80 80 80 80 80 80 80 
255 255 255 255 255 255 255 255 255 255 255 255 255 255 255 255 255 255 255 255 255 255 255 255 255 255 255 255 255 255 255 255 255 255 255 255 255 255 255 255 255 255 255 255 255 255 255 255 255 255 255 255 255 255 255 255 255 255 255 255 255 255 255 255 255 255 255 255 255 255 255 255 255 255 255 255 255 255 255 255 255 255 255 255 255 255 255 255 255 255 255 255 255 255 255 255 255 255 255 255 255 255 255 255 255 255 255 255 255 255 255 255 255 255 255 255 255 255 255 255 255 255 255 255 255 255 255 255 255 255 255 255 255 255 255 255 255 255 255 255 255 255 255 255 255 255 255 255 254 254 254 254 254 254 254 255 255 255 255 255 255 255 254 254 254 254 254 254 254 254 254 254 254 255 255 255 254 254 254 253 254 254 254 255 255 255 255 255 255 255 255 255 255 255 255 255 255 255 255 255 255 255 255 255 255 255 255 255 255 255 255 255 255 255 255 255 255 255 255 255 255 255 255 255 255 255 255 255 255 255 255 255 255 255 255 255 255 255 255 255 255 255 255 255 255 255 255 255 255 255 255 255 255 255 255 255 255 255 255 255 255 255 255 255 255 255 255 255 255 255 255 255 255 255 255 255 255 255 255 255 255 255 80 80 80 80 80 80 80 80 80 80 80 80 80 80 80 80 80 80 80 80 80 80 80 80 80 80 80 80 80 80 80 80 80 80 80 80 80 80 80 80 80 80 80 80 80 80 80 80 80 80 80 80 80 80 80 80 80 80 80 80 80 80 80 80 80 80 
255 255 255 255 255 255 255 255 255 255 255 255 255 255 255 255 255 255 255 255 255 255 255 255 255 255 255 255 255 255 255 255 255 255 255 255 255 255 255 255 255 255 255 255 255 255 255 255 255 255 255 255 255 255 255 255 255 255 255 255 255 255 255 255 255 255 255 255 255 255 255 255 255 255 255 255 255 255 255 255 255 255 255 255 255 255 255 255 255 255 255 255 255 255 255 255 255 255 255 255 255 255 255 255 255 255 255 255 255 255 255 255 255 255 255 255 255 255 255 255 255 255 255 255 255 255 255 255 255 255 255 255 255 255 255 255 255 255 255 255 255 254 254 254 254 254 254 254 254 254 254 254 254 254 254 255 255 255 255 255 255 255 255 255 255 254 254 254 254 254 254 254 254 255 255 255 254 254 254 253 254 254 254 255 255 255 255 255 255 255 255 255 255 255 255 255 255 255 255 255 255 255 255 255 255 255 255 255 255 255 255 255 255 255 255 255 255 255 255 255 255 255 255 255 255 255 255 255 255 255 255 255 255 255 255 255 255 255 255 255 255 255 255 255 255 255 255 255 255 255 255 255 255 255 255 255 255 255 255 255 255 255 255 255 255 255 255 255 255 255 255 255 255 255 255 255 255 255 255 255 255 255 80 80 80 80 80 80 80 80 80 80 80 80 80 80 80 80 80 80 80 80 80 80 80 80 80 80 80 80 80 80 80 80 80 80 80 80 80 80 80 80 80 80 80 80 80 80 80 80 80 80 80 80 80 80 80 80 80 80 80 80 80 80 80 80 80 80 
